yusongmin1/go2_flip_TO/datasets/go2/trajectories/quad_jump_forward_1m/joints_only.csv
FL_hip_joint,FL_thigh_joint,FL_calf_joint,FR_hip_joint,FR_thigh_joint,FR_calf_joint,RL_hip_joint,RL_thigh_joint,RL_calf_joint,RR_hip_joint,RR_thigh_joint,RR_calf_joint
0.000000000000000000e+00,6.999999999999999556e-01,-1.500000000000000000e+00,0.000000000000000000e+00,6.999999999999999556e-01,-1.500000000000000000e+00,0.000000000000000000e+00,6.999999999999999556e-01,-1.500000000000000000e+00,0.000000000000000000e+00,6.999999999999999556e-01,-1.500000000000000000e+00
-3.376763252590837781e-06,7.062817059817940724e-01,-1.496555865881977310e+00,-3.376719407663818017e-06,7.062829167154811572e-01,-1.496558773316444046e+00,-3.629383001374125975e-06,7.141961690065167234e-01,-1.513086017294639873e+00,-3.629396309555536285e-06,7.141972062213870487e-01,-1.513088569231161973e+00
-7.841391743479753760e-06,7.175169164885394357e-01,-1.491624590587518728e+00,-7.841389402070621684e-06,7.175198553685259162e-01,-1.491631722841773033e+00,-8.561049556292608852e-06,7.390394635891427422e-01,-1.536235126843160215e+00,-8.561073783020647647e-06,7.390418515603979221e-01,-1.536241163175468660e+00
-1.119253641784679605e-05,7.319165600089101442e-01,-1.486963215950686479e+00,-1.119253177952357919e-05,7.319210577654413630e-01,-1.486974163707974750e+00,-1.241705336657379930e-05,7.701546239695189477e-01,-1.565468570078431432e+00,-1.241709411139883606e-05,7.701580891502567416e-01,-1.565477518504061694e+00
-1.252051902215061304e-05,7.481409637351279507e-01,-1.483791741545804621e+00,-1.252051786503326439e-05,7.481464994553189696e-01,-1.483805259136352861e+00,-1.417902740354143583e-05,8.042475418293110190e-01,-1.597781840045537027e+00,-1.417907835055396626e-05,8.042515718795039126e-01,-1.597792508532211997e+00
-1.156505914651135322e-05,7.651994176060619157e-01,-1.482879471724967591e+00,-1.156505194746039194e-05,7.652052947864749211e-01,-1.482893959195998645e+00,-1.352831557896475624e-05,8.388730791123329977e-01,-1.630965032913507251e+00,-1.352836820272447617e-05,8.388770863996644067e-01,-1.630976053169526985e+00
-8.380170405138607562e-06,7.823724209638995841e-01,-1.484613158486992379e+00,-8.380150931797726124e-06,7.823778753215927528e-01,-1.484626940418094287e+00,-1.049974391513462634e-05,8.722857058820068232e-01,-1.663463437582048066e+00,-1.049978834452037289e-05,8.722890989435335696e-01,-1.663473474633019755e+00
-3.358519951532786015e-06,7.991890056549325605e-01,-1.489058555692776453e+00,-3.358489013617942688e-06,7.991933383171783145e-01,-1.489070169591915072e+00,-5.501797994114132311e-06,9.034035142961421849e-01,-1.694325035261528667e+00,-5.501832643479426080e-06,9.034057773865489249e-01,-1.694332980784823972e+00
2.882884257455151805e-06,8.153676276403528655e-01,-1.496043497396565947e+00,2.882917855397902658e-06,8.153703072395512841e-01,-1.496051885026069339e+00,8.113584377370348950e-07,9.316736927991086104e-01,-1.723056456728521368e+00,8.113254185426910992e-07,9.316744430912851094e-01,-1.723061541280550335e+00
9.674252928250218816e-06,8.307538157996376960e-01,-1.505255188398520128e+00,9.674275368133766271e-06,8.307545202848298782e-01,-1.505259752806193063e+00,7.725126169833811937e-06,9.569061179980138387e-01,-1.749467161150708439e+00,7.725079547375690006e-06,9.569051240238795053e-01,-1.749468969133331164e+00
1.640627325716775638e-05,8.452797218782596156e-01,-1.516320511001483240e+00,1.640627020721658206e-05,8.452783346025931621e-01,-1.516321082951726851e+00,1.458770654959295275e-05,9.791480329130244353e-01,-1.773560764931359390e+00,1.458762928812603960e-05,9.791452072574224896e-01,-1.773559193655673161e+00
2.258759038619613388e-05,8.589395731861516614e-01,-1.528861651881752381e+00,2.258755103647268610e-05,8.589361522362135570e-01,-1.528858409357112924e+00,2.087367516237476384e-05,9.985983360232503214e-01,-1.795464875593881349e+00,2.087355367596554400e-05,9.985937144525796061e-01,-1.795460070988825096e+00
2.787221620830397309e-05,8.717718430924475959e-01,-1.542533244392527481e+00,2.787213564153385304e-05,8.717665761781355771e-01,-1.542526611384434476e+00,2.621390005782650210e-05,1.015543360409050022e+00,-1.815381382349511963e+00,2.621372759822379860e-05,1.015537072718119216e+00,-1.815373665839468798e+00
3.207143174067910151e-05,8.838447033049927626e-01,-1.557046087734399675e+00,3.207131123618925806e-05,8.838378558410496799e-01,-1.557036627082161839e+00,3.040727366433146304e-05,1.030306663969712933e+00,-1.833549574910645852e+00,3.040705108453835531e-05,1.030298898885596337e+00,-1.833539367205598625e+00
3.515410697031961509e-05,8.952441726132219779e-01,-1.572180153092691324e+00,3.515395250557352687e-05,8.952360347254052497e-01,-1.572168463187763487e+00,3.341927105655314510e-05,1.043211493196953832e+00,-1.850219659417108975e+00,3.341900519538747524e-05,1.043202459866227727e+00,-1.850207405218689871e+00
3.723230723620233891e-05,9.060647016807158449e-01,-1.587789146878506585e+00,3.723212695782643898e-05,9.060555399704374180e-01,-1.587775771671276370e+00,3.536502157358156902e-05,1.054554697102561001e+00,-1.865634705964749562e+00,3.536472223734323010e-05,1.054544587380076948e+00,-1.865620805611209132e+00
3.852744539515382905e-05,9.164017393322284599e-01,-1.603798943321680825e+00,3.852724703592576533e-05,9.163917599274229442e-01,-1.603784305879872862e+00,3.647291843727794379e-05,1.064589877648003391e+00,-1.880018809352033138e+00,3.647259524693760905e-05,1.064578835332327778e+00,-1.880003566115727720e+00
3.931667672976383459e-05,9.263458783230766880e-01,-1.620201779994818958e+00,3.931646580179360838e-05,9.263352073593964509e-01,-1.620186148367435353e+00,3.702947061406539818e-05,1.073517631718108989e+00,-1.893569651692214695e+00,3.702913078172100444e-05,1.073505735735249544e+00,-1.893553243969964495e+00
3.986720557798853433e-05,9.359785519921676178e-01,-1.637047175742156746e+00,3.986698474313390647e-05,9.359672371780296540e-01,-1.637030664456230911e+00,3.731418904585855268e-05,1.081481987951399937e+00,-1.906454671683075475e+00,3.731383656301827373e-05,1.081469255231640281e+00,-1.906437156114867859e+00
4.037312664512052575e-05,9.453697967872731756e-01,-1.654429487626513318e+00,4.037289621109124585e-05,9.453578293575122249e-01,-1.654412089916345252e+00,3.753986549867930467e-05,1.088573895418011750e+00,-1.918811231809795403e+00,3.753950160789301996e-05,1.088560305666248285e+00,-1.918792576912787817e+00
4.091069587659115211e-05,9.545790155831966883e-01,-1.672471490004211025e+00,4.091045508747676279e-05,9.545663672832760405e-01,-1.672453128346295559e+00,3.781384864047999050e-05,1.094843782692167977e+00,-1.930751919163509633e+00,3.781347309355397507e-05,1.094829322371244196e+00,-1.930732061881867745e+00
4.142269643795885436e-05,9.636594922210270919e-01,-1.691304037825690054e+00,4.142244516866547098e-05,9.636461586830052939e-01,-1.691284616944777497e+00,3.812923191090346553e-05,1.100324281572080842e+00,-1.942375591052784678e+00,3.812884446085681008e-05,1.100308999526268039e+00,-1.942354503410040456e+00
4.173567390443923004e-05,9.726661541328432969e-01,-1.711044113410943091e+00,4.173541435847681689e-05,9.726521944447104051e-01,-1.711023560766189000e+00,3.838680144642981181e-05,1.105060066241705163e+00,-1.953782365893865114e+00,3.838640309544043733e-05,1.105044129187544799e+00,-1.953760116223419052e+00
4.161018520499217401e-05,9.816640084968533131e-01,-1.731776385989988398e+00,4.160992312639365915e-05,9.816495702248605459e-01,-1.731754666783706709e+00,3.844529718946014985e-05,1.109135711856653606e+00,-1.965087276413378214e+00,3.844489076216536994e-05,1.109119445180710040e+00,-1.965064068277717402e+00
4.082025247800011444e-05,9.907333167528786788e-01,-1.753544199988352759e+00,4.081999730585546976e-05,9.907186369590287311e-01,-1.753521295829518323e+00,3.819614270369939393e-05,1.112689552458447473e+00,-1.976425682377568771e+00,3.819573233406991478e-05,1.112673453013320657e+00,-1.976401855527059270e+00
3.924292700670815924e-05,9.999689377167465532e-01,-1.776352106882552517e+00,3.924269073503720286e-05,9.999543173382847705e-01,-1.776327954867743975e+00,3.764701045081171181e-05,1.115907362547165604e+00,-1.987946979452331009e+00,3.764659991056192631e-05,1.115892079639380308e+00,-1.987922967159859278e+00
3.691411634446629367e-05,1.009475516025966080e+00,-1.800174698009793683e+00,3.691391184503596459e-05,1.009461279236033571e+00,-1.800149105796418958e+00,3.697540943523105756e-05,1.119003357410312871e+00,-1.999800943217337590e+00,3.697500004536210838e-05,1.118989656060469295e+00,-1.999777202785250951e+00
3.400526964878252073e-05,1.019364022249105606e+00,-1.824961451351714725e+00,3.400511020632855040e-05,1.019350485597341205e+00,-1.824934023712508457e+00,3.650960798806664285e-05,1.122206504527028637e+00,-2.012126793177576811e+00,3.650919759380782405e-05,1.122195240155162699e+00,-2.012103748559300076e+00
3.072805760147605329e-05,1.029754257591619648e+00,-1.850630302217318501e+00,3.072795915954343532e-05,1.029741729597358546e+00,-1.850600410878370683e+00,3.664157021003217637e-05,1.125765518393099685e+00,-2.025052041842634321e+00,3.664115436329354742e-05,1.125757646678642754e+00,-2.025030072854170360e+00
2.724753046047086261e-05,1.040782303042324441e+00,-1.877051988092012680e+00,2.724751661973444093e-05,1.040771109069401845e+00,-1.877018781658822855e+00,3.774482705670272200e-05,1.129968440770202642e+00,-2.038698071532846878e+00,3.774440219689384143e-05,1.129965056500341847e+00,-2.038677544434813971e+00
2.369396106984367084e-05,1.052607324596972260e+00,-1.904034030187855553e+00,2.369406973422924563e-05,1.052597824297821782e+00,-1.903996445984485586e+00,4.017772222172364050e-05,1.135160130978510651e+00,-2.053182573262460675e+00,4.017728947247523101e-05,1.135162496866669146e+00,-2.053163863941908307e+00
2.028172964772668969e-05,1.065414165973854521e+00,-1.931310919519346747e+00,2.028202014270511042e-05,1.065406727515130880e+00,-1.931267663118766409e+00,4.437405450367831657e-05,1.141747458162239326e+00,-2.068613375132232424e+00,4.437362218875034694e-05,1.141756978532586286e+00,-2.068596832200729096e+00
1.744939089669676101e-05,1.079413275457489441e+00,-1.958540351762622755e+00,1.744995049014255774e-05,1.079408195973197815e+00,-1.958489847229725411e+00,5.094272240217281834e-05,1.150196812479049813e+00,-2.085077113313512864e+00,5.094230473771921806e-05,1.150214938221809646e+00,-2.085062951473735549e+00
1.592923230192175741e-05,1.094835708489863002e+00,-1.985307660815385455e+00,1.593018064210911165e-05,1.094833102253810919e+00,-1.985247992657638294e+00,6.071738230426366708e-05,1.161020933470351846e+00,-2.102622102967608875e+00,6.071699009655482477e-05,1.161049038645479925e+00,-2.102610268659764525e+00
1.671889715836763114e-05,1.111907660366005191e+00,-2.011152924051559765e+00,1.672038725074072708e-05,1.111907354525955904e+00,-2.011081767815189547e+00,7.477294949260293144e-05,1.174720574381691085e+00,-2.121217808739999544e+00,7.477256755963846910e-05,1.174759887696134708e+00,-2.121207881878216739e+00
2.092311068767154208e-05,1.130795512986075391e+00,-2.035625587796701552e+00,2.092532654451314012e-05,1.130796999033155226e+00,-2.035540132856783035e+00,9.437688731060699403e-05,1.191661694431431995e+00,-2.140682421951942693e+00,9.437643657918086664e-05,1.191713367185564199e+00,-2.140673621226565349e+00
2.925982506432711318e-05,1.151558139387757640e+00,-2.058316383484605439e+00,2.926297991225907180e-05,1.151560656370333779e+00,-2.058213396410984775e+00,1.205814602503872571e-04,1.211978621295194847e+00,-2.160626208161592121e+00,1.205807597966418091e-04,1.212043982323369296e+00,-2.160617616377036310e+00
4.102765012141359097e-05,1.174170751092884712e+00,-2.078779556346702417e+00,4.103200327801164728e-05,1.174173599263352852e+00,-2.078655893313383185e+00,1.531421073093288407e-04,1.235665442052421570e+00,-2.180484971085843160e+00,1.531409053010644879e-04,1.235746462918654753e+00,-2.180476141728593831e+00
5.303699459386661459e-05,1.198617347294482105e+00,-2.096328760085198972e+00,5.304292953855880053e-05,1.198620424682304453e+00,-2.096182414040387965e+00,1.892820485789404390e-04,1.262869944580085058e+00,-2.199628328175208924e+00,1.892802587271807697e-04,1.262969874172507501e+00,-2.199620237321655569e+00
5.979626928632534975e-05,1.224933279783986917e+00,-2.109814807810479032e+00,5.980443517769217963e-05,1.224937587968194963e+00,-2.109645943972219939e+00,2.237697707382214733e-04,1.294131263551378419e+00,-2.217391610775707456e+00,2.237679773503959140e-04,1.294255250930335555e+00,-2.217387470053421072e+00
5.539728493606175657e-05,1.253070008942208879e+00,-2.117520808641975005e+00,5.540864331957828142e-05,1.253077792319218453e+00,-2.117332070530475896e+00,2.507842705420617788e-04,1.330246149567326119e+00,-2.232886529868546521e+00,2.507842865104733762e-04,1.330401532798732189e+00,-2.232891825918006390e+00
3.462679186710067628e-05,1.282644457863354903e+00,-2.117166160018150833e+00,3.464232362088599397e-05,1.282659124362281133e+00,-2.116962897081848372e+00,2.644951931001410825e-04,1.371856406176415577e+00,-2.244701487629724657e+00,2.645004067740279593e-04,1.372052293116432731e+00,-2.244723366657512376e+00
-1.023613418528712887e-05,1.312865004109356137e+00,-2.105804858769801946e+00,-1.021640169276094467e-05,1.312891796736448846e+00,-2.105597978682094418e+00,2.537443799158722825e-04,1.419470869781273237e+00,-2.250913825917519429e+00,2.537597957264989550e-04,1.419716563675627929e+00,-2.250960930669857696e+00
-9.407226539474996228e-05,1.342734188196595291e+00,-2.079472631979730757e+00,-9.405175898234242676e-05,1.342782546435416169e+00,-2.079284873683263424e+00,1.949772870852016537e-04,1.474378267882809679e+00,-2.249590010053389211e+00,1.950077944754897887e-04,1.474680904355634370e+00,-2.249673223093783481e+00
-2.316179637356699777e-04,1.370817832343436571e+00,-2.032976782969160290e+00,-2.316074313855971862e-04,1.370903571763628870e+00,-2.032843767781243649e+00,6.340186638056634046e-05,1.538608871310570114e+00,-2.238646234432385640e+00,6.344492173885998615e-05,1.538973007977785246e+00,-2.238777769658191641e+00
-4.090897796939007105e-04,1.393649121572123395e+00,-1.960374813429239804e+00,-4.091061063731936290e-04,1.393788678719723784e+00,-1.960327713375625835e+00,-1.274529258001632693e-04,1.610136399244897376e+00,-2.213128488631087354e+00,-1.274156311834323963e-04,1.610563436130019399e+00,-2.213313990411463372e+00
-5.607294247286794637e-04,1.402726689329701015e+00,-1.856333915691808389e+00,-5.607782625031815758e-04,1.402918667590016266e+00,-1.856372640459987622e+00,-3.022639128258093415e-04,1.670336063132717319e+00,-2.159051334697999813e+00,-3.022523140862116617e-04,1.670807594909360372e+00,-2.159277309298105241e+00
-6.272225323311831280e-04,1.382108988164595376e+00,-1.716726999631591255e+00,-6.272875145366545212e-04,1.382328652252396983e+00,-1.716830704386221429e+00,-4.094762013060852259e-04,1.672256446744973202e+00,-2.047481641672715735e+00,-4.094933481957023372e-04,1.672709198130515773e+00,-2.047723027530952145e+00
-6.367429871068153776e-04,1.315795133902178504e+00,-1.523070429497275668e+00,-6.368091369806365854e-04,1.316024219098693271e+00,-1.523234265058079906e+00,-4.798519531631904628e-04,1.587401680466113740e+00,-1.850433013771976887e+00,-4.798919041973246291e-04,1.587785162898338820e+00,-1.850683882327987639e+00
-5.196597641136391221e-04,1.185322540665317614e+00,-1.217663947249525647e+00,-5.196986172141090021e-04,1.185512655048677866e+00,-1.217817236783351520e+00,-3.987164879432011119e-04,1.435480407258401092e+00,-1.549187323348220069e+00,-3.987395554884781918e-04,1.435774366066135510e+00,-1.549412177856989148e+00
9.106026013194667978e-02,1.141815322442309544e+00,-1.342839769480400181e+00,-9.180657856058745125e-02,1.142079971899218727e+00,-1.342786557980909512e+00,3.079173334430067993e-02,1.614844651071850601e+00,-1.496469906842034625e+00,-3.135934299768374650e-02,1.615100628872487842e+00,-1.496640943716071703e+00
1.802424469023959086e-01,1.083630189406314948e+00,-1.515258407532809271e+00,-1.807073595339075966e-01,1.084003960254275700e+00,-1.515253120138832621e+00,5.264908200439006453e-02,1.914296218634584434e+00,-1.521087221713843807e+00,-5.301200723862644487e-02,1.914540741999566142e+00,-1.521203263645468873e+00
2.397593950709758226e-01,9.856135541808920264e-01,-1.662103650561245871e+00,-2.399874308380716970e-01,9.860639635015502336e-01,-1.662136958778745344e+00,6.265984735661214722e-02,2.230925331014278701e+00,-1.561206628815885455e+00,-6.286308204830531876e-02,2.231168566171025880e+00,-1.561280163238796481e+00
2.655409639475169725e-01,8.514433585062801679e-01,-1.768431552996719835e+00,-2.655900529069465943e-01,8.519225173484223923e-01,-1.768480641599408099e+00,6.371331057777047946e-02,2.516107651790812749e+00,-1.593822038986111522e+00,-6.380135360033374614e-02,2.516351580790080256e+00,-1.593866136102792597e+00
2.639351392586827827e-01,6.943051380308126186e-01,-1.836469902879446447e+00,-2.638621422181538501e-01,6.947677315687685873e-01,-1.836523173568143985e+00,5.940494292437666773e-02,2.748806543290375437e+00,-1.613874986122193267e+00,-5.941601845917315189e-02,2.749049175106747622e+00,-1.613899000389496408e+00
2.445314806411309216e-01,5.285791395303247597e-01,-1.873928614981654084e+00,-2.443843908776581753e-01,5.289903274310389092e-01,-1.873981589994485164e+00,5.247024921253062163e-02,2.922459284392038725e+00,-1.623599152091990794e+00,-5.243474170258821676e-02,2.922696724464793672e+00,-1.623608571401959688e+00
2.164248064175679220e-01,3.663725520893326704e-01,-1.889667061968819173e+00,-2.162401860294185796e-01,3.667108715018227993e-01,-1.889717901880006323e+00,4.486074535452887202e-02,3.037979954972894081e+00,-1.627454987036769607e+00,-4.480072398121954375e-02,3.038207994560238490e+00,-1.627452646916567325e+00
1.866891090152845989e-01,2.164249076130349003e-01,-1.891711220857498210e+00,-1.864926114984512273e-01,2.166820623978749638e-01,-1.891758738995358513e+00,3.842700097361858441e-02,3.099364952556555863e+00,-1.630003055816888757e+00,-3.835621926707646900e-02,3.099580464474256836e+00,-1.629990489562243461e+00
1.600876987501070603e-01,8.415875304479189523e-02,-1.886387757186601233e+00,-1.598959350075643826e-01,8.433748377820017572e-02,-1.886431034420520403e+00,3.550371337171553954e-02,3.110645341042848511e+00,-1.635206679792291506e+00,-3.542828762966229728e-02,3.110847110157755058e+00,-1.635185184084281929e+00
1.393417746691459624e-01,-2.773619506035129509e-02,-1.878102904758867320e+00,-1.391644012551330745e-01,-2.762524412350824896e-02,-1.878141467023918931e+00,3.913421462825293629e-02,3.073924412283811414e+00,-1.646285001915694490e+00,-3.905425845285264569e-02,3.074113041981919814e+00,-1.646256351358872827e+00
1.255641410534423241e-01,-1.184924334651161204e-01,-1.869427043715934822e+00,-1.254056276954481353e-01,-1.184340946245471676e-01,-1.869461026050604824e+00,5.288092733443783278e-02,2.988575798356462254e+00,-1.665592096466209204e+00,-5.279315039319273928e-02,2.988752700902855608e+00,-1.665558917034845043e+00
1.186707787319363216e-01,-1.883968617132266432e-01,-1.861211454256087139e+00,-1.185317668234484173e-01,-1.883745013397273016e-01,-1.861241567870124403e+00,8.011629881662657438e-02,2.851735304617613043e+00,-1.694243488485568605e+00,-8.001731515799881400e-02,2.851901211250481794e+00,-1.694209249069343448e+00
1.177005233825513669e-01,-2.379683115379761515e-01,-1.852558366879488938e+00,-1.175789839978974571e-01,-2.379662471808954016e-01,-1.852585703705161402e+00,1.225702038793884396e-01,2.660084621834776897e+00,-1.731434601152755937e+00,-1.224599764192054047e-01,2.660238404291138004e+00,-1.731403178291003098e+00
1.210243561465457890e-01,-2.672482046353282792e-01,-1.840580902650369666e+00,-1.209169892360618948e-01,-2.672534253318357145e-01,-1.840606715553188444e+00,1.780668359352648444e-01,2.412524469303186869e+00,-1.773598246615456286e+00,-1.779511846424533805e-01,2.412663168260013702e+00,-1.773573192399505949e+00
1.264312839627945440e-01,-2.752734773264902124e-01,-1.820023939677214209e+00,-1.263355877336276856e-01,-2.752767791168097000e-01,-1.820049559165885844e+00,2.382997039849592269e-01,2.112685579836182104e+00,-1.813631006714339522e+00,-2.381904010159825724e-01,2.112805918714308895e+00,-1.813614943234646448e+00
1.310693567995257491e-01,-2.598426692851680819e-01,-1.782994484320466366e+00,-1.309861354838802727e-01,-2.598392447737519761e-01,-1.783021439982355849e+00,2.887484683434883292e-01,1.770047126978797403e+00,-1.840327435655690236e+00,-2.886603790376361944e-01,1.770147309915262257e+00,-1.840321932340573508e+00
1.312777473377076953e-01,-2.177272119275708295e-01,-1.719308788785543607e+00,-1.312126628048405075e-01,-2.177164511500938315e-01,-1.719338983400744647e+00,3.120034269633635282e-01,1.400044695273895856e+00,-1.838439055958944968e+00,-3.119505877073474598e-01,1.400124677495685477e+00,-1.838444641343474295e+00
1.225002793616300489e-01,-1.454213268955528993e-01,-1.618363558743154185e+00,-1.224625504574879536e-01,-1.454055967542299821e-01,-1.618399178907861113e+00,2.931068306414805202e-01,1.025828218084813503e+00,-1.791122478056688783e+00,-2.930995085652869925e-01,1.025888494757313696e+00,-1.791138433265678120e+00
9.963144613378430159e-02,-4.029592339784101446e-02,-1.474530839116919623e+00,-9.962915524024498759e-02,-4.027870723896430361e-02,-1.474573853791708800e+00,2.254427370903857031e-01,6.839207895200721810e-01,-1.687805458495319488e+00,-2.254840711822465871e-01,6.839611685715799583e-01,-1.687829858954354556e+00
5.849520180901914695e-02,9.812927704937229878e-02,-1.303156380624480359e+00,-5.852884305847418783e-02,9.814478917071263464e-02,-1.303207606222759996e+00,1.169188141975359418e-01,4.322740828402581448e-01,-1.543266483557679924e+00,-1.169982034070742027e-01,4.322933505362429041e-01,-1.543296073813648750e+00
-2.777372057191401623e-05,2.670636301998144946e-01,-1.193882516870601096e+00,-2.777201620368332756e-05,2.670741248063955298e-01,-1.193938541994610469e+00,-4.203164659552601401e-05,3.532331959310435199e-01,-1.450009320589922046e+00,-4.203012921694216177e-05,3.532299060406285385e-01,-1.450036976918537945e+00
2.549804936822492114e-06,4.715464346484677383e-01,-1.462963924449749653e+00,2.552027901020883358e-06,4.715466779461070512e-01,-1.463013909137192758e+00,-2.174717536094529502e-05,5.574424226502258106e-01,-1.733813937145458617e+00,-2.174518923922826713e-05,5.574249138708098350e-01,-1.733828067194216338e+00
4.091907256286028764e-05,6.094379256165156633e-01,-1.641541993241756980e+00,4.092193506747553335e-05,6.094290074603299079e-01,-1.641582741360544828e+00,9.228961256520581499e-06,6.923781229453858099e-01,-1.906259778233079905e+00,9.231563692395436331e-06,6.923489556067424777e-01,-1.906260206420696379e+00
4.738595644943488521e-05,7.106240336183405892e-01,-1.765866518240108762e+00,4.738894708908836885e-05,7.106133517946565670e-01,-1.765911786134421124e+00,1.048239450231309087e-05,7.917516751844947409e-01,-2.019415383841915990e+00,1.048511444390719492e-05,7.917176036085383783e-01,-2.019416209078584767e+00
3.848229487969110832e-05,7.874405458468428654e-01,-1.854330856118127979e+00,3.848593336274632576e-05,7.874315072001062399e-01,-1.854386634624580310e+00,-2.860216143416269216e-06,8.675405216114546736e-01,-2.094494344642260586e+00,-2.857217800668711043e-06,8.675047348598881047e-01,-2.094501660772439156e+00
2.700436245648055772e-05,8.468988439829705506e-01,-1.917166089476739055e+00,2.700854711463662177e-05,8.468922968099995563e-01,-1.917233344501428016e+00,-1.876008598712807250e-05,9.264652399543218397e-01,-2.143636940384823664e+00,-1.875700621021084304e-05,9.264286137598577442e-01,-2.143651574514696900e+00
1.717984213456934334e-05,8.932802539448765344e-01,-1.960800018501642983e+00,1.718450690094464376e-05,8.932763848498096459e-01,-1.960878065050220442e+00,-3.284354611986442252e-05,9.725684537890600945e-01,-2.174354374901565912e+00,-3.284050172452972422e-05,9.725314176551304035e-01,-2.174375763259723815e+00
1.122708365792082895e-05,9.293652287232134768e-01,-1.989781778071576301e+00,1.123221249354657269e-05,9.293638547149024598e-01,-1.989869046184397972e+00,-4.268057323415651072e-05,1.008404988993658824e+00,-2.191591356034745974e+00,-4.267758717806390711e-05,1.008367736318688479e+00,-2.191618284387731208e+00
9.270536002271434625e-06,9.572283505534940895e-01,-2.007376159873460519e+00,9.276118177968383316e-06,9.572291932840062412e-01,-2.007471156958173797e+00,-4.814814217359281829e-05,1.036019518999582223e+00,-2.198941373322806481e+00,-4.814516883298946648e-05,1.035982073112192925e+00,-2.198972663124713733e+00
1.009194370532187033e-05,9.784941354098865007e-01,-2.015943702893204570e+00,1.009798915580076067e-05,9.784970712748481958e-01,-2.016045589207445143e+00,-5.055009875200867491e-05,1.057165431541989831e+00,-2.199088450156388319e+00,-5.054708149138021527e-05,1.057127823089449858e+00,-2.199123436079970073e+00
1.254868640032281487e-05,9.944097194614199831e-01,-2.017302912791655523e+00,1.255520907311889364e-05,9.944148014187500495e-01,-2.017411404850908863e+00,-5.107804208186544578e-05,1.073229825523471126e+00,-2.193997163635366565e+00,-5.107493425805771588e-05,1.073192173563588980e+00,-2.194035658177109660e+00
1.602592577522451303e-05,1.005930763935071193e+00,-2.012932335284656205e+00,1.603293967761564481e-05,1.005938146576276004e+00,-2.013047411516631247e+00,-5.033035920726050165e-05,1.085250196438197978e+00,-2.185092769870091711e+00,-5.032712231955806156e-05,1.085212714889829844e+00,-2.185134859284796782e+00
2.019612118646317545e-05,1.013818268180031623e+00,-2.004050408229228530e+00,2.020363647539667512e-05,1.013828172100862401e+00,-2.004172143454586497e+00,-4.856742998946506561e-05,1.094020373762548681e+00,-2.173432991287361560e+00,-4.856403044580022313e-05,1.093983389232540793e+00,-2.173478931970682648e+00
2.476157602146870522e-05,1.018704247462064671e+00,-1.991656390651914021e+00,2.476959680826814548e-05,1.018716973947089377e+00,-1.991784925056264477e+00,-4.598831691351540308e-05,1.100179583579697029e+00,-2.159828131525785899e+00,-4.598472598454368649e-05,1.100143578109934239e+00,-2.159878352677007562e+00
2.938756657394824093e-05,1.021123720864556716e+00,-1.976567052796942781e+00,2.939609074265530042e-05,1.021139678001294904e+00,-1.976702602306287471e+00,-4.281007846557846803e-05,1.104255626584818684e+00,-2.144910330250190178e+00,-4.280627198138138286e-05,1.104221279540721135e+00,-2.144965463279838502e+00
3.373773574859715760e-05,1.021529923752694025e+00,-1.959450521631487696e+00,3.374675556362415659e-05,1.021549640373502710e+00,-1.959593377320636653e+00,-3.923911570708549571e-05,1.106683065328626370e+00,-2.129174143289714660e+00,-3.923507139149184567e-05,1.106651278244462411e+00,-2.129235034311678376e+00
3.751615748446186376e-05,1.020304599814555457e+00,-1.940853545785092393e+00,3.752565996721979390e-05,1.020328725044943763e+00,-1.941004055830542585e+00,-3.543322448589773679e-05,1.107815480218193205e+00,-2.113004457004527659e+00,-3.542891717630497017e-05,1.107787384598059921e+00,-2.113072158877961293e+00
4.048509807461545511e-05,1.017767055377634122e+00,-1.921221989695503396e+00,4.049506483377717246e-05,1.017796349694028102e+00,-1.921380533268519208e+00,-3.148688356945832448e-05,1.107937460677070662e+00,-2.096697877748284977e+00,-3.148227907472743296e-05,1.107914415101065364e+00,-2.096773631646518865e+00
4.246194903580724196e-05,1.014182168662529193e+00,-1.900916397627062437e+00,4.247235573912208856e-05,1.014217492210193861e+00,-1.901083359307335074e+00,-2.743657490810311108e-05,1.107275678926937346e+00,-2.080479197702317595e+00,-2.743162283214461891e-05,1.107259261608155132e+00,-2.080564413131511525e+00
4.330573644334378654e-05,1.009767133844989839e+00,-1.880224391044752030e+00,4.331655228572324083e-05,1.009809435437017067e+00,-1.880400139917530078e+00,-2.327573927689727083e-05,1.106007894639868150e+00,-2.064513691625879943e+00,-2.327036469871437282e-05,1.105999895406359013e+00,-2.064609929598897331e+00
4.290135935161567881e-05,1.004697040666870045e+00,-1.859370989837354271e+00,4.291254683708554008e-05,1.004747348714855493e+00,-1.859555864028350936e+00,-1.897151259926632921e-05,1.104269728480117063e+00,-2.048916142098004212e+00,-1.896560629163735015e-05,1.104272141813782193e+00,-2.049025102641192309e+00
4.114667092426696471e-05,9.991095763322619394e-01,-1.838527440177367911e+00,4.115818617762732553e-05,9.991689913431756054e-01,-1.838721735562497628e+00,-1.447868191183138157e-05,1.102159680871572345e+00,-2.033757544743307832e+00,-1.447208878648870972e-05,1.102174699587951778e+00,-2.033881057481010224e+00
3.794530990628621755e-05,9.931091336758637311e-01,-1.817818883956999754e+00,3.795710364541696544e-05,9.931788208352505531e-01,-1.818022844686346007e+00,-9.748552327400145673e-06,1.099743000268809556e+00,-2.019070302499059721e+00,-9.741057943492528707e-06,1.099773007818129811e+00,-2.019210317479850580e+00
3.320687328049133006e-05,9.867705275209435190e-01,-1.797331119543159383e+00,3.321889254077936874e-05,9.868517071289705234e-01,-1.797544927374219448e+00,-4.731628846959573524e-06,1.097054869137295441e+00,-2.004852493836281280e+00,-4.722944090602586629e-06,1.097102427348761955e+00,-2.005011068740488067e+00
2.685517168822603389e-05,9.801424316096754019e-01,-1.777116693158776295e+00,2.686736243000709297e-05,9.802363646483779336e-01,-1.777340452199783094e+00,6.262691624427983183e-07,1.094103165164395097e+00,-1.991071578245229956e+00,6.365247137212443541e-07,1.094170993484151033e+00,-1.991250857478231717e+00
1.884435933258124906e-05,9.732505791845712517e-01,-1.757200575870822234e+00,1.885667015954785761e-05,9.733585451078586859e-01,-1.757434289304053543e+00,6.393994518188138637e-06,1.090870860798624387e+00,-1.977667719193748397e+00,6.406309467283289013e-06,1.090961802695327387e+00,-1.977869900184696439e+00
9.181296114842099580e-06,9.661007279746880450e-01,-1.737585698541709966e+00,9.193683485424592077e-06,9.662239920785726799e-01,-1.737829234537286549e+00,1.266932976133275419e-05,1.087317982549921735e+00,-1.964556771852209671e+00,1.268431617318337072e-05,1.087434954891545180e+00,-1.964784054377630707e+00
-2.049489330528103518e-06,9.586813739995154737e-01,-1.718258622814262226e+00,-2.037053895902842771e-06,9.588211426428429052e-01,-1.718511668533998060e+00,1.959374107078674053e-05,1.083382975231685252e+00,-1.951632901959813982e+00,1.961214541475018533e-05,1.083528897220356280e+00,-1.951887417781950296e+00
-1.466424501502665661e-05,9.509662039583817172e-01,-1.699195612630467034e+00,-1.465176530949434992e-05,9.511235676270144435e-01,-1.699457618265282965e+00,2.736151686902092573e-05,1.078983305969273498e+00,-1.938770769645430159e+00,2.738422281596264508e-05,1.079161005786615890e+00,-1.939054492418059494e+00
-2.837017069305858944e-05,9.429162973304400230e-01,-1.680369334233186240e+00,-2.835761382654839724e-05,9.430921641114358156e-01,-1.680639453521777238e+00,3.621491761440578813e-05,1.074015191836665606e+00,-1.925827220766231251e+00,3.624293581140851074e-05,1.074227291522705796e+00,-1.926141860046571175e+00
-4.277722100776625377e-05,9.344821212132986554e-01,-1.661756350925686965e+00,-4.276450416642425204e-05,9.346771465054172223e-01,-1.662033390322736004e+00,4.641547132393355818e-05,1.068352435144994672e+00,-1.912642470862009114e+00,4.644991046166741823e-05,1.068601217264275594e+00,-1.912989358902854153e+00
-5.744150641387045422e-05,9.256053994706567867e-01,-1.643345488223841855e+00,-5.742848522217622683e-05,9.258199212849751447e-01,-1.643627883144759494e+00,5.818163752742619297e-05,1.061844496951730887e+00,-1.899040838594751923e+00,5.822365090593166053e-05,1.062131759957476662e+00,-1.899420823757072219e+00
-7.194814387329898574e-05,9.162209810041024305e-01,-1.625147017233152802e+00,-7.193460724956072757e-05,9.164549733301242673e-01,-1.625432859456740653e+00,7.158548253393857367e-05,1.054314134129168856e+00,-1.884831187577955980e+00,7.163618566692437023e-05,1.054641046539942062e+00,-1.885244552775771298e+00
-8.603682275057760180e-05,9.062588794357648858e-01,-1.607202426134987983e+00,-8.602250090545468509e-05,9.065119380172318442e-01,-1.607489570019112302e+00,8.640611476476824440e-05,1.045555175936766057e+00,-1.869807375274884720e+00,8.646647298910099236e-05,1.045922141969723551e+00,-1.870253802789513697e+00
-9.976606298235042082e-05,8.956467084092786246e-01,-1.589594307077245361e+00,-9.975065588737866862e-05,8.959180828258078710e-01,-1.589880581881715438e+00,1.019456637713671765e-04,1.035331330905420844e+00,-1.853749198393962461e+00,1.020163545644756737e-04,1.035737881441644914e+00,-1.854227802463691122e+00
-1.137020974962020466e-04,8.843127938183656944e-01,-1.572455568696848438e+00,-1.136853304667137201e-04,8.846014757057815148e-01,-1.572739117869616177e+00,1.168244297265300541e-04,1.023377295767566642e+00,-1.836424583276025979e+00,1.169056911138413872e-04,1.023822017588312594e+00,-1.836934027674534731e+00
-1.291044957315817636e-04,8.721903090691528471e-01,-1.555976794840031818e+00,-1.290862074859886399e-04,8.724951768003900154e-01,-1.556256547524883960e+00,1.287862373810050537e-04,1.009403873539307606e+00,-1.817594116969595275e+00,1.288777178217854710e-04,1.009884385210052971e+00,-1.818132824104942591e+00
-1.480614104488494460e-04,8.592228564942437918e-01,-1.540410124125076718e+00,-1.480416790408278674e-04,8.595428593710114917e-01,-1.540686374539770531e+00,1.345648271567383614e-04,9.931092652526681830e-01,-1.797019465521352721e+00,1.346654479796667212e-04,9.936222381435697582e-01,-1.797585903022739240e+00
-1.734972149428746114e-04,8.453720083215937597e-01,-1.526067544350974803e+00,-1.734765294595409519e-04,8.457063449722855841e-01,-1.526342561611334636e+00,1.298938837683017431e-04,9.741991147089592573e-01,-1.774477769626825241e+00,1.300017084254909085e-04,9.747403205070941379e-01,-1.775070763498514781e+00
-2.089290052765809891e-04,8.306274127202285529e-01,-1.513310972389405373e+00,-2.089084914568026621e-04,8.309756154216761947e-01,-1.513589473890037729e+00,1.097926478974994396e-04,9.524181614101907556e-01,-1.749784671597616192e+00,1.099047276499222738e-04,9.529825003440204334e-01,-1.750403631290096129e+00
-2.577912942920500923e-04,8.150201768095922672e-01,-1.502530871803586132e+00,-2.577729820221204933e-04,8.153819551564441825e-01,-1.502820064648185516e+00,6.931344876605550391e-05,9.275964510082851389e-01,-1.722829113216654662e+00,6.942560592416993572e-05,9.281778696213035529e-01,-1.723473949681370465e+00
-3.221227971424099048e-04,7.986405953737351071e-01,-1.494109619266014155e+00,-3.221098408660834161e-04,7.990152320086820747e-01,-1.494418387020632899e+00,4.937859622355456574e-06,8.997132328479617858e-01,-1.693623647725128745e+00,5.044428260820192122e-06,9.003043637163874457e-01,-1.694294018199907770e+00
-4.005045102337087852e-04,7.816627416188516309e-01,-1.488366604143574135e+00,-4.005011003214689527e-04,7.820478161921663451e-01,-1.488703387441384862e+00,-8.332496885650926566e-05,8.689828492115471148e-01,-1.662375943504016629e+00,-8.323123026256081219e-05,8.695741195763040388e-01,-1.663069316739528070e+00
-4.854206050977044433e-04,7.643820802066996212e-01,-1.485486325798731855e+00,-4.854310616288388404e-04,7.647714168254187150e-01,-1.485855384119245004e+00,-1.893179743943001808e-04,8.359702828825377185e-01,-1.629592487312847560e+00,-1.892452335362104386e-04,8.365482844610125923e-01,-1.630300542722792345e+00
-5.605210750981012629e-04,7.472752442933510153e-01,-1.485435877244567715e+00,-5.605475152141933554e-04,7.476562674055523550e-01,-1.485831852557106592e+00,-2.979108510816387838e-04,8.017462088894738992e-01,-1.596229818634624653e+00,-2.978659721890432126e-04,8.022914161003276146e-01,-1.596932993539723178e+00
-5.982547589554168457e-04,7.310748505209169190e-01,-1.487866958473814227e+00,-5.982933471377765988e-04,7.314257231870675557e-01,-1.488268052319102086e+00,-3.824930053239551696e-04,7.680652302336514747e-01,-1.563874940946561543e+00,-3.824774366153532918e-04,7.685491986312676937e-01,-1.564535226800691126e+00
-5.574081200215788437e-04,7.168027569394956888e-01,-1.491986418113644630e+00,-5.574458749394333498e-04,7.170893444996869759e-01,-1.492346622440703596e+00,-4.027516763845766234e-04,7.374596763917490305e-01,-1.534826564682008065e+00,-4.027569469702687384e-04,7.378412992869983755e-01,-1.535378499045589207e+00
-3.762689108483893577e-04,7.058203976766338483e-01,-1.496571136617541820e+00,-3.762864742742684943e-04,7.059923270978150089e-01,-1.496808390039188863e+00,-2.967621567905598130e-04,7.132821331949019683e-01,-1.512160016800392581e+00,-2.967693081105033152e-04,7.135032632119922003e-01,-1.512499153240532523e+00
-1.220067668108035350e-09,7.000000001806253591e-01,-1.499999997996186885e+00,1.220058518276001383e-09,7.000000001806279126e-01,-1.499999997996207979e+00,-1.235863532132614431e-09,7.000000001828315943e-01,-1.499999997970792309e+00,1.235856719133001580e-09,7.000000001828315943e-01,-1.499999997970806076e+00
0.000000000000000000e+00,6.999999999999999556e-01,-1.500000000000000000e+00,0.000000000000000000e+00,6.999999999999999556e-01,-1.500000000000000000e+00,0.000000000000000000e+00,6.999999999999999556e-01,-1.500000000000000000e+00,0.000000000000000000e+00,6.999999999999999556e-01,-1.500000000000000000e+00
