yusongmin1/go2_flip_TO/datasets/go2/trajectories/quad_jump_forward_1m/trajectory_full.csv
t,base_tx,base_ty,base_tz,quat_x,quat_y,quat_z,quat_w,FL_hip_joint,FL_thigh_joint,FL_calf_joint,FR_hip_joint,FR_thigh_joint,FR_calf_joint,RL_hip_joint,RL_thigh_joint,RL_calf_joint,RR_hip_joint,RR_thigh_joint,RR_calf_joint
0.000000000000000000e+00,0.000000000000000000e+00,0.000000000000000000e+00,3.113099999999999756e-01,0.000000000000000000e+00,0.000000000000000000e+00,0.000000000000000000e+00,1.000000000000000000e+00,0.000000000000000000e+00,6.999999999999999556e-01,-1.500000000000000000e+00,0.000000000000000000e+00,6.999999999999999556e-01,-1.500000000000000000e+00,0.000000000000000000e+00,6.999999999999999556e-01,-1.500000000000000000e+00,0.000000000000000000e+00,6.999999999999999556e-01,-1.500000000000000000e+00
2.000000000000000042e-02,5.327597721776335202e-04,-7.870250193958399211e-08,3.106315957036426822e-01,1.882559352866618383e-06,-3.113544906962923374e-03,-9.643211042410131167e-08,9.999951529055323141e-01,-3.376763252590837781e-06,7.062817059817940724e-01,-1.496555865881977310e+00,-3.376719407663818017e-06,7.062829167154811572e-01,-1.496558773316444046e+00,-3.629383001374125975e-06,7.141961690065167234e-01,-1.513086017294639873e+00,-3.629396309555536285e-06,7.141972062213870487e-01,-1.513088569231161973e+00
4.000000000000000083e-02,1.474480440978120140e-03,-2.188962070159233591e-07,3.093283198480963891e-01,4.463078814422988883e-06,-8.440438698334350176e-03,-2.564050219521864186e-07,9.999643788528643773e-01,-7.841391743479753760e-06,7.175169164885394357e-01,-1.491624590587518728e+00,-7.841389402070621684e-06,7.175198553685259162e-01,-1.491631722841773033e+00,-8.561049556292608852e-06,7.390394635891427422e-01,-1.536235126843160215e+00,-8.561073783020647647e-06,7.390418515603979221e-01,-1.536241163175468660e+00
5.999999999999999778e-02,2.668883465305406117e-03,-3.974978474726018521e-07,3.075356309356697682e-01,6.555349131447396209e-06,-1.494424682970754877e-02,-4.088108717744097211e-07,9.998883284865131005e-01,-1.119253641784679605e-05,7.319165600089101442e-01,-1.486963215950686479e+00,-1.119253177952357919e-05,7.319210577654413630e-01,-1.486974163707974750e+00,-1.241705336657379930e-05,7.701546239695189477e-01,-1.565468570078431432e+00,-1.241709411139883606e-05,7.701580891502567416e-01,-1.565477518504061694e+00
8.000000000000000167e-02,3.997863984379653249e-03,-5.938822275356903703e-07,3.053686988256730794e-01,7.644513733370233001e-06,-2.185712896253346263e-02,-5.306403944508407429e-07,9.997611043918417373e-01,-1.252051902215061304e-05,7.481409637351279507e-01,-1.483791741545804621e+00,-1.252051786503326439e-05,7.481464994553189696e-01,-1.483805259136352861e+00,-1.417902740354143583e-05,8.042475418293110190e-01,-1.597781840045537027e+00,-1.417907835055396626e-05,8.042515718795039126e-01,-1.597792508532211997e+00
1.000000000000000056e-01,5.373600813540000201e-03,-7.899501429130952059e-07,3.029292264645575550e-01,7.560056113233813476e-06,-2.862396525177065415e-02,-6.266798208425772689e-07,9.995902503304633369e-01,-1.156505914651135322e-05,7.651994176060619157e-01,-1.482879471724967591e+00,-1.156505194746039194e-05,7.652052947864749211e-01,-1.482893959195998645e+00,-1.352831557896475624e-05,8.388730791123329977e-01,-1.630965032913507251e+00,-1.352836820272447617e-05,8.388770863996644067e-01,-1.630976053169526985e+00
1.200000000000000094e-01,6.732646422509847538e-03,-9.717188732243751202e-07,3.003070843244308175e-01,6.305771695892696671e-06,-3.486575259573070767e-02,-7.138654547135133431e-07,9.993920047987481237e-01,-8.380170405138607562e-06,7.823724209638995841e-01,-1.484613158486992379e+00,-8.380150931797726124e-06,7.823778753215927528e-01,-1.484626940418094287e+00,-1.049974391513462634e-05,8.722857058820068232e-01,-1.663463437582048066e+00,-1.049978834452037289e-05,8.722890989435335696e-01,-1.663473474633019755e+00
1.400000000000000133e-01,8.034766404481013397e-03,-1.128675964835233503e-06,2.975751547042217449e-01,4.067734592201571975e-06,-4.036567581560030621e-02,-8.096272980446291833e-07,9.991849739656556428e-01,-3.358519951532786015e-06,7.991890056549325605e-01,-1.489058555692776453e+00,-3.358489013617942688e-06,7.991933383171783145e-01,-1.489070169591915072e+00,-5.501797994114132311e-06,9.034035142961421849e-01,-1.694325035261528667e+00,-5.501832643479426080e-06,9.034057773865489249e-01,-1.694332980784823972e+00
1.600000000000000033e-01,9.258394185843375063e-03,-1.253353010655311007e-06,2.947904373124631272e-01,1.151913934506400209e-06,-4.503383622413187348e-02,-9.236264488550756827e-07,9.989854621528574397e-01,2.882884257455151805e-06,8.153676276403528655e-01,-1.496043497396565947e+00,2.882917855397902658e-06,8.153703072395512841e-01,-1.496051885026069339e+00,8.113584377370348950e-07,9.316736927991086104e-01,-1.723056456728521368e+00,8.113254185426910992e-07,9.316744430912851094e-01,-1.723061541280550335e+00
1.799999999999999933e-01,1.039471368049929220e-02,-1.341258785365320937e-06,2.919967307878906237e-01,-2.104989748047259188e-06,-4.886483263853143300e-02,-1.056478821069689324e-06,9.988054005288824477e-01,9.674252928250218816e-06,8.307538157996376960e-01,-1.505255188398520128e+00,9.674275368133766271e-06,8.307545202848298782e-01,-1.505259752806193063e+00,7.725126169833811937e-06,9.569061179980138387e-01,-1.749467161150708439e+00,7.725079547375690006e-06,9.569051240238795053e-01,-1.749468969133331164e+00
1.999999999999999833e-01,1.144318127145269558e-02,-1.390659104073590188e-06,2.892262300160863275e-01,-5.394136601072997986e-06,-5.190539255872623353e-02,-1.202194308052949939e-06,9.986520065532249468e-01,1.640627325716775638e-05,8.452797218782596156e-01,-1.516320511001483240e+00,1.640627020721658206e-05,8.452783346025931621e-01,-1.516321082951726851e+00,1.458770654959295275e-05,9.791480329130244353e-01,-1.773560764931359390e+00,1.458762928812603960e-05,9.791452072574224896e-01,-1.773559193655673161e+00
2.199999999999999734e-01,1.240851702772915663e-02,-1.402176328953009045e-06,2.865006421178058482e-01,-8.464397978718377836e-06,-5.423227860984292104e-02,-1.351496406883793315e-06,9.985283470604686684e-01,2.258759038619613388e-05,8.589395731861516614e-01,-1.528861651881752381e+00,2.258755103647268610e-05,8.589361522362135570e-01,-1.528858409357112924e+00,2.087367516237476384e-05,9.985983360232503214e-01,-1.795464875593881349e+00,2.087355367596554400e-05,9.985937144525796061e-01,-1.795460070988825096e+00
2.399999999999999634e-01,1.329850492401998818e-02,-1.378293553332839069e-06,2.838323869990355131e-01,-1.113662562388736327e-05,-5.593618903302548240e-02,-1.494902215288620296e-06,9.984343456783738580e-01,2.787221620830397309e-05,8.717718430924475959e-01,-1.542533244392527481e+00,2.787213564153385304e-05,8.717665761781355771e-01,-1.542526611384434476e+00,2.621390005782650210e-05,1.015543360409050022e+00,-1.815381382349511963e+00,2.621372759822379860e-05,1.015537072718119216e+00,-1.815373665839468798e+00
2.599999999999999534e-01,1.412230759087674918e-02,-1.322859634642726242e-06,2.812259004127028450e-01,-1.330983808689182269e-05,-5.710964750894964581e-02,-1.625082761363261462e-06,9.983679121354065433e-01,3.207143174067910151e-05,8.838447033049927626e-01,-1.557046087734399675e+00,3.207131123618925806e-05,8.838378558410496799e-01,-1.557036627082161839e+00,3.040727366433146304e-05,1.030306663969712933e+00,-1.833549574910645852e+00,3.040705108453835531e-05,1.030298898885596337e+00,-1.833539367205598625e+00
2.799999999999999711e-01,1.488922591456860560e-02,-1.240640161231809544e-06,2.786789199025271890e-01,-1.496147317671311781e-05,-5.783834743037882808e-02,-1.738291008569363835e-06,9.983259614673233306e-01,3.515410697031961509e-05,8.952441726132219779e-01,-1.572180153092691324e+00,3.515395250557352687e-05,8.952360347254052497e-01,-1.572168463187763487e+00,3.341927105655314510e-05,1.043211493196953832e+00,-1.850219659417108975e+00,3.341900519538747524e-05,1.043202459866227727e+00,-1.850207405218689871e+00
2.999999999999999889e-01,1.560784474746469697e-02,-1.136876524712495783e-06,2.761836938613859704e-01,-1.614033593901457352e-05,-5.819550382040417080e-02,-1.834785506923808792e-06,9.983052053711892748e-01,3.723230723620233891e-05,9.060647016807158449e-01,-1.587789146878506585e+00,3.723212695782643898e-05,9.060555399704374180e-01,-1.587775771671276370e+00,3.536502157358156902e-05,1.054554697102561001e+00,-1.865634705964749562e+00,3.536472223734323010e-05,1.054544587380076948e+00,-1.865620805611209132e+00
3.200000000000000067e-01,1.628547720503545002e-02,-1.016782848758822285e-06,2.737281108573575983e-01,-1.695009525872813333e-05,-5.823858068798180160e-02,-1.918188614247923686e-06,9.983026932891968519e-01,3.852744539515382905e-05,9.164017393322284599e-01,-1.603798943321680825e+00,3.852724703592576533e-05,9.163917599274229442e-01,-1.603784305879872862e+00,3.647291843727794379e-05,1.064589877648003391e+00,-1.880018809352033138e+00,3.647259524693760905e-05,1.064578835332327778e+00,-1.880003566115727720e+00
3.400000000000000244e-01,1.692783018115118915e-02,-8.849562724455922507e-07,2.712967624445912773e-01,-1.752337694025413742e-05,-5.800781528834791922e-02,-1.993735830983922602e-06,9.983161288161326308e-01,3.931667672976383459e-05,9.263458783230766880e-01,-1.620201779994818958e+00,3.931646580179360838e-05,9.263352073593964509e-01,-1.620186148367435353e+00,3.702947061406539818e-05,1.073517631718108989e+00,-1.893569651692214695e+00,3.702913078172100444e-05,1.073505735735249544e+00,-1.893553243969964495e+00
3.600000000000000422e-01,1.753886809794129309e-02,-7.447696328326034298e-07,2.688719426725560968e-01,-1.799035091082285584e-05,-5.752628466965682003e-02,-2.065529067341364069e-06,9.983439919407470775e-01,3.986720557798853433e-05,9.359785519921676178e-01,-1.637047175742156746e+00,3.986698474313390647e-05,9.359672371780296540e-01,-1.637030664456230911e+00,3.731418904585855268e-05,1.081481987951399937e+00,-1.906454671683075475e+00,3.731383656301827373e-05,1.081469255231640281e+00,-1.906437156114867859e+00
3.800000000000000600e-01,1.812092581799552501e-02,-5.979021414167439799e-07,2.664345647374408155e-01,-1.844895413099509191e-05,-5.680168903919640550e-02,-2.133195863129143823e-06,9.983854805521662490e-01,4.037312664512052575e-05,9.453697967872731756e-01,-1.654429487626513318e+00,4.037289621109124585e-05,9.453578293575122249e-01,-1.654412089916345252e+00,3.753986549867930467e-05,1.088573895418011750e+00,-1.918811231809795403e+00,3.753950160789301996e-05,1.088560305666248285e+00,-1.918792576912787817e+00
4.000000000000000777e-01,1.867517317790310175e-02,-4.441821305583008511e-07,2.639649500078668498e-01,-1.894428737072941286e-05,-5.583029355859796955e-02,-2.188667707717792412e-06,9.984402726039672826e-01,4.091069587659115211e-05,9.545790155831966883e-01,-1.672471490004211025e+00,4.091045508747676279e-05,9.545663672832760405e-01,-1.672453128346295559e+00,3.781384864047999050e-05,1.094843782692167977e+00,-1.930751919163509633e+00,3.781347309355397507e-05,1.094829322371244196e+00,-1.930732061881867745e+00
4.200000000000000955e-01,1.920250364806316834e-02,-2.818391223533633314e-07,2.614434370938589769e-01,-1.946196222541022298e-05,-5.460322192232146266e-02,-2.214016399397975236e-06,9.985081310495332874e-01,4.142269643795885436e-05,9.636594922210270919e-01,-1.691304037825690054e+00,4.142244516866547098e-05,9.636461586830052939e-01,-1.691284616944777497e+00,3.812923191090346553e-05,1.100324281572080842e+00,-1.942375591052784678e+00,3.812884446085681008e-05,1.100308999526268039e+00,-1.942354503410040456e+00
4.400000000000001132e-01,1.970475958775298048e-02,-1.081315259272338276e-07,2.588507959165934902e-01,-1.993674016427355062e-05,-5.311428024666171172e-02,-2.181321879387775535e-06,9.985884401652400655e-01,4.173567390443923004e-05,9.726661541328432969e-01,-1.711044113410943091e+00,4.173541435847681689e-05,9.726521944447104051e-01,-1.711023560766189000e+00,3.838680144642981181e-05,1.105060066241705163e+00,-1.953782365893865114e+00,3.838640309544043733e-05,1.105044129187544799e+00,-1.953760116223419052e+00
4.600000000000001310e-01,2.018596045749359094e-02,7.978617770973791026e-08,2.561685150444585890e-01,-2.027624009131083631e-05,-5.136705195284034520e-02,-2.055141142987088553e-06,9.986798413697578480e-01,4.161018520499217401e-05,9.816640084968533131e-01,-1.731776385989988398e+00,4.160992312639365915e-05,9.816495702248605459e-01,-1.731754666783706709e+00,3.844529718946014985e-05,1.109135711856653606e+00,-1.965087276413378214e+00,3.844489076216536994e-05,1.109119445180710040e+00,-1.965064068277717402e+00
4.800000000000001488e-01,2.065306124834642709e-02,2.839290467966999291e-07,2.533791041952853096e-01,-2.039807721539405882e-05,-4.937836101091780394e-02,-1.797047906777968464e-06,9.987801444985601185e-01,4.082025247800011444e-05,9.907333167528786788e-01,-1.753544199988352759e+00,4.081999730585546976e-05,9.907186369590287311e-01,-1.753521295829518323e+00,3.819614270369939393e-05,1.112689552458447473e+00,-1.976425682377568771e+00,3.819573233406991478e-05,1.112673453013320657e+00,-1.976401855527059270e+00
5.000000000000001110e-01,2.111596767873866187e-02,5.046921127478722690e-07,2.504665380416174481e-01,-2.027194312838819816e-05,-4.717668927202759571e-02,-1.370199050205270357e-06,9.988865599138380125e-01,3.924292700670815924e-05,9.999689377167465532e-01,-1.776352106882552517e+00,3.924269073503720286e-05,9.999543173382847705e-01,-1.776327954867743975e+00,3.764701045081171181e-05,1.115907362547165604e+00,-1.987946979452331009e+00,3.764659991056192631e-05,1.115892079639380308e+00,-1.987922967159859278e+00
5.200000000000001288e-01,2.158705962866954223e-02,7.405098247865763958e-07,2.474168548476035900e-01,-1.994632761769639455e-05,-4.479749064689530352e-02,-7.411136878632503238e-07,9.989960882973146772e-01,3.691411634446629367e-05,1.009475516025966080e+00,-1.800174698009793683e+00,3.691391184503596459e-05,1.009461279236033571e+00,-1.800149105796418958e+00,3.697540943523105756e-05,1.119003357410312871e+00,-1.999800943217337590e+00,3.697500004536210838e-05,1.118989656060469295e+00,-1.999777202785250951e+00
5.400000000000001465e-01,2.208090791004659742e-02,9.882275424254196305e-07,2.442188283698540352e-01,-1.953833173119650973e-05,-4.227989114242713259e-02,1.228002608603318456e-07,9.991058054196377824e-01,3.400526964878252073e-05,1.019364022249105606e+00,-1.824961451351714725e+00,3.400511020632855040e-05,1.019350485597341205e+00,-1.824934023712508457e+00,3.650960798806664285e-05,1.122206504527028637e+00,-2.012126793177576811e+00,3.650919759380782405e-05,1.122195240155162699e+00,-2.012103748559300076e+00
5.600000000000001643e-01,2.261472055044535037e-02,1.244022119817168421e-06,2.408646830994607413e-01,-1.918935215191868113e-05,-3.966811076065126368e-02,1.258137201560105645e-06,9.992129105545356493e-01,3.072805760147605329e-05,1.029754257591619648e+00,-1.850630302217318501e+00,3.072795915954343532e-05,1.029741729597358546e+00,-1.850600410878370683e+00,3.664157021003217637e-05,1.125765518393099685e+00,-2.025052041842634321e+00,3.664115436329354742e-05,1.125757646678642754e+00,-2.025030072854170360e+00
5.800000000000001821e-01,2.320937810662343503e-02,1.504133526747170504e-06,2.373509820719118535e-01,-1.902367030512269085e-05,-3.701663854179194219e-02,2.708140948931531948e-06,9.993146491980552382e-01,2.724753046047086261e-05,1.040782303042324441e+00,-1.877051988092012680e+00,2.724751661973444093e-05,1.040771109069401845e+00,-1.877018781658822855e+00,3.774482705670272200e-05,1.129968440770202642e+00,-2.038698071532846878e+00,3.774440219689384143e-05,1.129965056500341847e+00,-2.038677544434813971e+00
6.000000000000001998e-01,2.389042628946303273e-02,1.764653583540410504e-06,2.336798529955052828e-01,-1.915107346756322684e-05,-3.439499705217854281e-02,4.518773539152278402e-06,9.994083168508243187e-01,2.369396106984367084e-05,1.052607324596972260e+00,-1.904034030187855553e+00,2.369406973422924563e-05,1.052597824297821782e+00,-1.903996445984485586e+00,4.017772222172364050e-05,1.135160130978510651e+00,-2.053182573262460675e+00,4.017728947247523101e-05,1.135162496866669146e+00,-2.053163863941908307e+00
6.200000000000002176e-01,2.468868358049182421e-02,2.020386537752139779e-06,2.298604723172073816e-01,-1.971589012604130594e-05,-3.188927626017440398e-02,6.727581365872243853e-06,9.994914074796369396e-01,2.028172964772668969e-05,1.065414165973854521e+00,-1.931310919519346747e+00,2.028202014270511042e-05,1.065406727515130880e+00,-1.931267663118766409e+00,4.437405450367831657e-05,1.141747458162239326e+00,-2.068613375132232424e+00,4.437362218875034694e-05,1.141756978532586286e+00,-2.068596832200729096e+00
6.400000000000002354e-01,2.564070120677741302e-02,2.263590950450980048e-06,2.259104406294664413e-01,-2.095249390553124207e-05,-2.960112272248106857e-02,9.350338744787632233e-06,9.995617904897790007e-01,1.744939089669676101e-05,1.079413275457489441e+00,-1.958540351762622755e+00,1.744995049014255774e-05,1.079408195973197815e+00,-1.958489847229725411e+00,5.094272240217281834e-05,1.150196812479049813e+00,-2.085077113313512864e+00,5.094230473771921806e-05,1.150214938221809646e+00,-2.085062951473735549e+00
6.600000000000002531e-01,2.678883179883253737e-02,2.483344941817002113e-06,2.218568525419963022e-01,-2.321026760869036802e-05,-2.764336167106666922e-02,1.237623255551422165e-05,9.996178489120904898e-01,1.592923230192175741e-05,1.094835708489863002e+00,-1.985307660815385455e+00,1.593018064210911165e-05,1.094833102253810919e+00,-1.985247992657638294e+00,6.071738230426366708e-05,1.161020933470351846e+00,-2.102622102967608875e+00,6.071699009655482477e-05,1.161049038645479925e+00,-2.102610268659764525e+00
6.800000000000002709e-01,2.817924105232828477e-02,2.665836444252967255e-06,2.177374170014634569e-01,-2.694568246753306179e-05,-2.612439179023314309e-02,1.578257707211690424e-05,9.996586993461472614e-01,1.671889715836763114e-05,1.111907660366005191e+00,-2.011152924051559765e+00,1.672038725074072708e-05,1.111907354525955904e+00,-2.011081767815189547e+00,7.477294949260293144e-05,1.174720574381691085e+00,-2.121217808739999544e+00,7.477256755963846910e-05,1.174759887696134708e+00,-2.121207881878216739e+00
7.000000000000002887e-01,2.985715059962551141e-02,2.796436356118282416e-06,2.136020705279298437e-01,-3.266914332252563618e-05,-2.511755197684708424e-02,1.956676055307077379e-05,9.996845037973527415e-01,2.092311068767154208e-05,1.130795512986075391e+00,-2.035625587796701552e+00,2.092532654451314012e-05,1.130796999033155226e+00,-2.035540132856783035e+00,9.437688731060699403e-05,1.191661694431431995e+00,-2.140682421951942693e+00,9.437643657918086664e-05,1.191713367185564199e+00,-2.140673621226565349e+00
7.200000000000003064e-01,3.186383036205312630e-02,2.866359350921887284e-06,2.095150920074036749e-01,-4.073139747323482700e-05,-2.463834836040457513e-02,2.377290196600209937e-05,9.996964287051713915e-01,2.925982506432711318e-05,1.151558139387757640e+00,-2.058316383484605439e+00,2.926297991225907180e-05,1.151560656370333779e+00,-2.058213396410984775e+00,1.205814602503872571e-04,1.211978621295194847e+00,-2.160626208161592121e+00,1.205807597966418091e-04,1.212043982323369296e+00,-2.160617616377036310e+00
7.400000000000003242e-01,3.424309445207301267e-02,2.885986695996527591e-06,2.055581146786275570e-01,-5.082613382870705882e-05,-2.466925504722068674e-02,2.848843475063620297e-05,9.996956659206482909e-01,4.102765012141359097e-05,1.174170751092884712e+00,-2.078779556346702417e+00,4.103200327801164728e-05,1.174173599263352852e+00,-2.078655893313383185e+00,1.531421073093288407e-04,1.235665442052421570e+00,-2.180484971085843160e+00,1.531409053010644879e-04,1.235746462918654753e+00,-2.180476141728593831e+00
7.600000000000003419e-01,3.705838626769075717e-02,2.897905649161324922e-06,2.018362066120102660e-01,-6.144382119694402383e-05,-2.523496678338236002e-02,3.381468432790133073e-05,9.996815450595581964e-01,5.303699459386661459e-05,1.198617347294482105e+00,-2.096328760085198972e+00,5.304292953855880053e-05,1.198620424682304453e+00,-2.096182414040387965e+00,1.892820485789404390e-04,1.262869944580085058e+00,-2.199628328175208924e+00,1.892802587271807697e-04,1.262969874172507501e+00,-2.199620237321655569e+00
7.800000000000003597e-01,4.040994128858863693e-02,2.972957880882134257e-06,1.984911948298160866e-01,-6.991735476232556977e-05,-2.646670032409668971e-02,3.984697978109814323e-05,9.996496922911226601e-01,5.979626928632534975e-05,1.224933279783986917e+00,-2.109814807810479032e+00,5.980443517769217963e-05,1.224937587968194963e+00,-2.109645943972219939e+00,2.237697707382214733e-04,1.294131263551378419e+00,-2.217391610775707456e+00,2.237679773503959140e-04,1.294255250930335555e+00,-2.217387470053421072e+00
8.000000000000003775e-01,4.443997573634250048e-02,3.185120827255521529e-06,1.957242790006346045e-01,-7.328005841576207171e-05,-2.858512339232397934e-02,4.667438849423533780e-05,9.995913580919855157e-01,5.539728493606175657e-05,1.253070008942208879e+00,-2.117520808641975005e+00,5.540864331957828142e-05,1.253077792319218453e+00,-2.117332070530475896e+00,2.507842705420617788e-04,1.330246149567326119e+00,-2.232886529868546521e+00,2.507842865104733762e-04,1.330401532798732189e+00,-2.232891825918006390e+00
8.200000000000003952e-01,4.933025153037333410e-02,3.602058523190703742e-06,1.938179791058985690e-01,-6.868518164529141610e-05,-3.182746230428693673e-02,5.429095075315572565e-05,9.994933741541800476e-01,3.462679186710067628e-05,1.282644457863354903e+00,-2.117166160018150833e+00,3.464232362088599397e-05,1.282659124362281133e+00,-2.116962897081848372e+00,2.644951931001410825e-04,1.371856406176415577e+00,-2.244701487629724657e+00,2.645004067740279593e-04,1.372052293116432731e+00,-2.244723366657512376e+00
8.400000000000004130e-01,5.531587339212783172e-02,4.335749530692134066e-06,1.931318304389660345e-01,-5.157055921902311478e-05,-3.647721591448274681e-02,6.222306159347320480e-05,9.993344816366021011e-01,-1.023613418528712887e-05,1.312865004109356137e+00,-2.105804858769801946e+00,-1.021640169276094467e-05,1.312891796736448846e+00,-2.105597978682094418e+00,2.537443799158722825e-04,1.419470869781273237e+00,-2.250913825917519429e+00,2.537597957264989550e-04,1.419716563675627929e+00,-2.250960930669857696e+00
8.600000000000004308e-01,6.272314009270728297e-02,5.586031534623875135e-06,1.940594312153499923e-01,-1.318089152628303547e-05,-4.308664393024111416e-02,6.918404052701680816e-05,9.990713368697258234e-01,-9.407226539474996228e-05,1.342734188196595291e+00,-2.079472631979730757e+00,-9.405175898234242676e-05,1.342782546435416169e+00,-2.079284873683263424e+00,1.949772870852016537e-04,1.474378267882809679e+00,-2.249590010053389211e+00,1.950077944754897887e-04,1.474680904355634370e+00,-2.249673223093783481e+00
8.800000000000004485e-01,7.197890027463239859e-02,7.474083345842945357e-06,1.970222404441878128e-01,5.515298497684772077e-05,-5.250942991644737962e-02,7.408609765819446026e-05,9.986204240046605562e-01,-2.316179637356699777e-04,1.370817832343436571e+00,-2.032976782969160290e+00,-2.316074313855971862e-04,1.370903571763628870e+00,-2.032843767781243649e+00,6.340186638056634046e-05,1.538608871310570114e+00,-2.238646234432385640e+00,6.344492173885998615e-05,1.538973007977785246e+00,-2.238777769658191641e+00
9.000000000000004663e-01,8.354505212752114107e-02,9.652918621218260951e-06,2.026655969432314963e-01,1.467473014659609689e-04,-6.503417912812928248e-02,7.798443345694399385e-05,9.978830231689423957e-01,-4.090897796939007105e-04,1.393649121572123395e+00,-1.960374813429239804e+00,-4.091061063731936290e-04,1.393788678719723784e+00,-1.960327713375625835e+00,-1.274529258001632693e-04,1.610136399244897376e+00,-2.213128488631087354e+00,-1.274156311834323963e-04,1.610563436130019399e+00,-2.213313990411463372e+00
9.200000000000004841e-01,9.784074952371815681e-02,1.112412865063441020e-05,2.123647512596323894e-01,2.286732337819254157e-04,-7.807757999269682170e-02,8.180008482180212539e-05,9.969472566388767332e-01,-5.607294247286794637e-04,1.402726689329701015e+00,-1.856333915691808389e+00,-5.607782625031815758e-04,1.402918667590016266e+00,-1.856372640459987622e+00,-3.022639128258093415e-04,1.670336063132717319e+00,-2.159051334697999813e+00,-3.022523140862116617e-04,1.670807594909360372e+00,-2.159277309298105241e+00
9.400000000000005018e-01,1.153817963394547230e-01,1.127599991258479389e-05,2.287067445457097170e-01,2.718534593744606313e-04,-8.373859665628247129e-02,7.955978148079241954e-05,9.964877155268770936e-01,-6.272225323311831280e-04,1.382108988164595376e+00,-1.716726999631591255e+00,-6.272875145366545212e-04,1.382328652252396983e+00,-1.716830704386221429e+00,-4.094762013060852259e-04,1.672256446744973202e+00,-2.047481641672715735e+00,-4.094933481957023372e-04,1.672709198130515773e+00,-2.047723027530952145e+00
9.600000000000005196e-01,1.375508130065599965e-01,1.088023132468011171e-05,2.541396782647410424e-01,2.877862154210378319e-04,-7.785645461727544459e-02,6.821833321895042813e-05,9.969645354774568924e-01,-6.367429871068153776e-04,1.315795133902178504e+00,-1.523070429497275668e+00,-6.368091369806365854e-04,1.316024219098693271e+00,-1.523234265058079906e+00,-4.798519531631904628e-04,1.587401680466113740e+00,-1.850433013771976887e+00,-4.798919041973246291e-04,1.587785162898338820e+00,-1.850683882327987639e+00
9.800000000000005373e-01,1.662392097332576757e-01,1.117215377940228527e-05,2.898377996283419966e-01,2.370408726373345108e-04,-6.818979940092212422e-02,5.689803465203471019e-05,9.976723369082157733e-01,-5.196597641136391221e-04,1.185322540665317614e+00,-1.217663947249525647e+00,-5.196986172141090021e-04,1.185512655048677866e+00,-1.217817236783351520e+00,-3.987164879432011119e-04,1.435480407258401092e+00,-1.549187323348220069e+00,-3.987395554884781918e-04,1.435774366066135510e+00,-1.549412177856989148e+00
1.000000000000000444e+00,2.002700961568167071e-01,1.094012636130210351e-05,3.265510679340205558e-01,2.030281057056811415e-04,-7.820180632733003678e-02,5.342294077959081771e-05,9.969375273369542878e-01,9.106026013194667978e-02,1.141815322442309544e+00,-1.342839769480400181e+00,-9.180657856058745125e-02,1.142079971899218727e+00,-1.342786557980909512e+00,3.079173334430067993e-02,1.614844651071850601e+00,-1.496469906842034625e+00,-3.135934299768374650e-02,1.615100628872487842e+00,-1.496640943716071703e+00
1.020000000000000462e+00,2.337703302302459041e-01,1.047127550144772381e-05,3.583852548209448541e-01,1.778492082054798998e-04,-9.488096033650013361e-02,4.855101329347031810e-05,9.954886083617842107e-01,1.802424469023959086e-01,1.083630189406314948e+00,-1.515258407532809271e+00,-1.807073595339075966e-01,1.084003960254275700e+00,-1.515253120138832621e+00,5.264908200439006453e-02,1.914296218634584434e+00,-1.521087221713843807e+00,-5.301200723862644487e-02,1.914540741999566142e+00,-1.521203263645468873e+00
1.040000000000000480e+00,2.663903181616217308e-01,1.014554528233554388e-05,3.867557851098387123e-01,1.583541076227702423e-04,-1.122371810178099394e-01,4.214692154602556477e-05,9.936814320217466356e-01,2.397593950709758226e-01,9.856135541808920264e-01,-1.662103650561245871e+00,-2.399874308380716970e-01,9.860639635015502336e-01,-1.662136958778745344e+00,6.265984735661214722e-02,2.230925331014278701e+00,-1.561206628815885455e+00,-6.286308204830531876e-02,2.231168566171025880e+00,-1.561280163238796481e+00
1.060000000000000497e+00,2.982604791787588083e-01,9.844149218578122787e-06,4.121948300750087335e-01,1.422606815902593676e-04,-1.269793311837230654e-01,3.515699260482445921e-05,9.919053523285469298e-01,2.655409639475169725e-01,8.514433585062801679e-01,-1.768431552996719835e+00,-2.655900529069465943e-01,8.519225173484223923e-01,-1.768480641599408099e+00,6.371331057777047946e-02,2.516107651790812749e+00,-1.593822038986111522e+00,-6.380135360033374614e-02,2.516351580790080256e+00,-1.593866136102792597e+00
1.080000000000000515e+00,3.297664680600165266e-01,9.393564811757608803e-06,4.346836281037891325e-01,1.288118832119800571e-04,-1.378109998917059764e-01,2.857116855388451828e-05,9.904585356793262907e-01,2.639351392586827827e-01,6.943051380308126186e-01,-1.836469902879446447e+00,-2.638621422181538501e-01,6.947677315687685873e-01,-1.836523173568143985e+00,5.940494292437666773e-02,2.748806543290375437e+00,-1.613874986122193267e+00,-5.941601845917315189e-02,2.749049175106747622e+00,-1.613899000389496408e+00
1.100000000000000533e+00,3.613125157187812020e-01,8.754394200667779300e-06,4.539490420866050258e-01,1.179805376692421692e-04,-1.445984089061450595e-01,2.288460976411958801e-05,9.894904171838647677e-01,2.445314806411309216e-01,5.285791395303247597e-01,-1.873928614981654084e+00,-2.443843908776581753e-01,5.289903274310389092e-01,-1.873981589994485164e+00,5.247024921253062163e-02,2.922459284392038725e+00,-1.623599152091990794e+00,-5.243474170258821676e-02,2.922696724464793672e+00,-1.623608571401959688e+00
1.120000000000000551e+00,3.932079686319052692e-01,7.993682717840566802e-06,4.696887565958584032e-01,1.096357769909790469e-04,-1.477557084978712298e-01,1.820406131143407968e-05,9.890238815392177196e-01,2.164248064175679220e-01,3.663725520893326704e-01,-1.889667061968819173e+00,-2.162401860294185796e-01,3.667108715018227993e-01,-1.889717901880006323e+00,4.486074535452887202e-02,3.037979954972894081e+00,-1.627454987036769607e+00,-4.480072398121954375e-02,3.038207994560238490e+00,-1.627452646916567325e+00
1.140000000000000568e+00,4.256423444862370009e-01,7.204404182979968132e-06,4.816848213776805943e-01,1.032591601101379657e-04,-1.478843340840861331e-01,1.445313509666716888e-05,9.890046576539258671e-01,1.866891090152845989e-01,2.164249076130349003e-01,-1.891711220857498210e+00,-1.864926114984512273e-01,2.166820623978749638e-01,-1.891758738995358513e+00,3.842700097361858441e-02,3.099364952556555863e+00,-1.630003055816888757e+00,-3.835621926707646900e-02,3.099580464474256836e+00,-1.629990489562243461e+00
1.160000000000000586e+00,4.587048767117253845e-01,6.452900755725869931e-06,4.898252020185944189e-01,9.801225779897174129e-05,-1.455683171019088729e-01,1.148506611271491471e-05,9.893481972075396369e-01,1.600876987501070603e-01,8.415875304479189523e-02,-1.886387757186601233e+00,-1.598959350075643826e-01,8.433748377820017572e-02,-1.886431034420520403e+00,3.550371337171553954e-02,3.110645341042848511e+00,-1.635206679792291506e+00,-3.542828762966229728e-02,3.110847110157755058e+00,-1.635185184084281929e+00
1.180000000000000604e+00,4.924166760847461521e-01,5.760414764733869054e-06,4.940817234425813331e-01,9.293375721022537506e-05,-1.412483539383151410e-01,9.141958062763313491e-06,9.899741884460714347e-01,1.393417746691459624e-01,-2.773619506035129509e-02,-1.878102904758867320e+00,-1.391644012551330745e-01,-2.762524412350824896e-02,-1.878141467023918931e+00,3.913421462825293629e-02,3.073924412283811414e+00,-1.646285001915694490e+00,-3.905425845285264569e-02,3.074113041981919814e+00,-1.646256351358872827e+00
1.200000000000000622e+00,5.267520726621298666e-01,5.104189535288607023e-06,4.944856783283040902e-01,8.713813064103158052e-05,-1.351512790787944562e-01,7.308543420517761543e-06,9.908249714843168077e-01,1.255641410534423241e-01,-1.184924334651161204e-01,-1.869427043715934822e+00,-1.254056276954481353e-01,-1.184340946245471676e-01,-1.869461026050604824e+00,5.288092733443783278e-02,2.988575798356462254e+00,-1.665592096466209204e+00,-5.279315039319273928e-02,2.988752700902855608e+00,-1.665558917034845043e+00
1.220000000000000639e+00,5.616346965598557617e-01,4.426516436183196077e-06,4.911177311264293688e-01,7.993473359982540159e-05,-1.272797977848854345e-01,5.957846745343438403e-06,9.918668492548690097e-01,1.186707787319363216e-01,-1.883968617132266432e-01,-1.861211454256087139e+00,-1.185317668234484173e-01,-1.883745013397273016e-01,-1.861241567870124403e+00,8.011629881662657438e-02,2.851735304617613043e+00,-1.694243488485568605e+00,-8.001731515799881400e-02,2.851901211250481794e+00,-1.694209249069343448e+00
1.240000000000000657e+00,5.969084256764072283e-01,3.650504306108809622e-06,4.841043423893129360e-01,7.084350303468747148e-05,-1.174852794921132093e-01,5.145162706380064867e-06,9.930746215956711698e-01,1.177005233825513669e-01,-2.379683115379761515e-01,-1.852558366879488938e+00,-1.175789839978974571e-01,-2.379662471808954016e-01,-1.852585703705161402e+00,1.225702038793884396e-01,2.660084621834776897e+00,-1.731434601152755937e+00,-1.224599764192054047e-01,2.660238404291138004e+00,-1.731403178291003098e+00
1.260000000000000675e+00,6.323072159893382560e-01,2.713256227170402339e-06,4.735969255563011737e-01,5.962782246728926482e-05,-1.056675828105158310e-01,4.894696855416708065e-06,9.944015076233279071e-01,1.210243561465457890e-01,-2.672482046353282792e-01,-1.840580902650369666e+00,-1.209169892360618948e-01,-2.672534253318357145e-01,-1.840606715553188444e+00,1.780668359352648444e-01,2.412524469303186869e+00,-1.773598246615456286e+00,-1.779511846424533805e-01,2.412663168260013702e+00,-1.773573192399505949e+00
1.280000000000000693e+00,6.674714153597764987e-01,1.621574710585961108e-06,4.597176814878591311e-01,4.662999202369670610e-05,-9.209598392742597561e-02,5.001929798079817832e-06,9.957501330881476376e-01,1.264312839627945440e-01,-2.752734773264902124e-01,-1.820023939677214209e+00,-1.263355877336276856e-01,-2.752767791168097000e-01,-1.820049559165885844e+00,2.382997039849592269e-01,2.112685579836182104e+00,-1.813631006714339522e+00,-2.381904010159825724e-01,2.112805918714308895e+00,-1.813614943234646448e+00
1.300000000000000711e+00,7.020435526916899427e-01,4.869661289624188546e-07,4.425063819774778251e-01,3.337110301635357490e-05,-7.762574720462561695e-02,4.984232129107734588e-06,9.969825686703105427e-01,1.310693567995257491e-01,-2.598426692851680819e-01,-1.782994484320466366e+00,-1.309861354838802727e-01,-2.598392447737519761e-01,-1.783021439982355849e+00,2.887484683434883292e-01,1.770047126978797403e+00,-1.840327435655690236e+00,-2.886603790376361944e-01,1.770147309915262257e+00,-1.840321932340573508e+00
1.320000000000000728e+00,7.358176503533391255e-01,-5.277876799895525284e-07,4.219366250551270237e-01,2.240819096664905559e-05,-6.351901384131361517e-02,4.366615190339452778e-06,9.979806282485811364e-01,1.312777473377076953e-01,-2.177272119275708295e-01,-1.719308788785543607e+00,-1.312126628048405075e-01,-2.177164511500938315e-01,-1.719338983400744647e+00,3.120034269633635282e-01,1.400044695273895856e+00,-1.838439055958944968e+00,-3.119505877073474598e-01,1.400124677495685477e+00,-1.838444641343474295e+00
1.340000000000000746e+00,7.688989407307542656e-01,-1.309369320190390136e-06,3.979676390312030798e-01,1.597502165367746630e-05,-5.120041475785482021e-02,2.954690065605786232e-06,9.986883984830764449e-01,1.225002793616300489e-01,-1.454213268955528993e-01,-1.618363558743154185e+00,-1.224625504574879536e-01,-1.454055967542299821e-01,-1.618399178907861113e+00,2.931068306414805202e-01,1.025828218084813503e+00,-1.791122478056688783e+00,-2.930995085652869925e-01,1.025888494757313696e+00,-1.791138433265678120e+00
1.360000000000000764e+00,8.018490899287270546e-01,-1.846077962976517487e-06,3.704892220530603408e-01,1.493195020055750196e-05,-4.261265079817586066e-02,7.744239078302215205e-07,9.990916683510026042e-01,9.963144613378430159e-02,-4.029592339784101446e-02,-1.474530839116919623e+00,-9.962915524024498759e-02,-4.027870723896430361e-02,-1.474573853791708800e+00,2.254427370903857031e-01,6.839207895200721810e-01,-1.687805458495319488e+00,-2.254840711822465871e-01,6.839611685715799583e-01,-1.687829858954354556e+00
1.380000000000000782e+00,8.356980864535655806e-01,-2.251782097152174069e-06,3.391527718140975867e-01,1.862552727922745733e-05,-4.048464979287118987e-02,-2.057884089329843111e-06,9.991801603214524041e-01,5.849520180901914695e-02,9.812927704937229878e-02,-1.303156380624480359e+00,-5.852884305847418783e-02,9.814478917071263464e-02,-1.303207606222759996e+00,1.169188141975359418e-01,4.322740828402581448e-01,-1.543266483557679924e+00,-1.169982034070742027e-01,4.322933505362429041e-01,-1.543296073813648750e+00
1.400000000000000799e+00,8.715614542260696762e-01,-2.793739874946878274e-06,3.030360740288736143e-01,2.430856422444561249e-05,-4.691344810819056410e-02,-5.320060068625090505e-06,9.988989577366625960e-01,-2.777372057191401623e-05,2.670636301998144946e-01,-1.193882516870601096e+00,-2.777201620368332756e-05,2.670741248063955298e-01,-1.193938541994610469e+00,-4.203164659552601401e-05,3.532331959310435199e-01,-1.450009320589922046e+00,-4.203012921694216177e-05,3.532299060406285385e-01,-1.450036976918537945e+00
1.420000000000000817e+00,9.011952527622393294e-01,-4.275968550826167840e-06,2.732986938806666877e-01,1.534311169744402746e-05,-5.666493209001347703e-02,-9.276428801122614374e-06,9.983932517549239938e-01,2.549804936822492114e-06,4.715464346484677383e-01,-1.462963924449749653e+00,2.552027901020883358e-06,4.715466779461070512e-01,-1.463013909137192758e+00,-2.174717536094529502e-05,5.574424226502258106e-01,-1.733813937145458617e+00,-2.174518923922826713e-05,5.574249138708098350e-01,-1.733828067194216338e+00
1.440000000000000835e+00,9.229965669712005827e-01,-5.541430566737310124e-06,2.519967378589689222e-01,1.037680296247633391e-06,-5.898455507278734661e-02,-1.225678495016157741e-05,9.982588953330492343e-01,4.091907256286028764e-05,6.094379256165156633e-01,-1.641541993241756980e+00,4.092193506747553335e-05,6.094290074603299079e-01,-1.641582741360544828e+00,9.228961256520581499e-06,6.923781229453858099e-01,-1.906259778233079905e+00,9.231563692395436331e-06,6.923489556067424777e-01,-1.906260206420696379e+00
1.460000000000000853e+00,9.397459865524113720e-01,-6.053834848202863282e-06,2.366509288677553502e-01,4.890366059527946557e-07,-5.844818766855231634e-02,-1.337396735220915142e-05,9.982904432975202580e-01,4.738595644943488521e-05,7.106240336183405892e-01,-1.765866518240108762e+00,4.738894708908836885e-05,7.106133517946565670e-01,-1.765911786134421124e+00,1.048239450231309087e-05,7.917516751844947409e-01,-2.019415383841915990e+00,1.048511444390719492e-05,7.917176036085383783e-01,-2.019416209078584767e+00
1.480000000000000870e+00,9.528972783284622716e-01,-6.280462473581278030e-06,2.257224009566211054e-01,6.730994334587476219e-06,-5.644598014139948911e-02,-1.376952377388760561e-05,9.984056545768211777e-01,3.848229487969110832e-05,7.874405458468428654e-01,-1.854330856118127979e+00,3.848593336274632576e-05,7.874315072001062399e-01,-1.854386634624580310e+00,-2.860216143416269216e-06,8.675405216114546736e-01,-2.094494344642260586e+00,-2.857217800668711043e-06,8.675047348598881047e-01,-2.094501660772439156e+00
1.500000000000000888e+00,9.634154006377393387e-01,-6.491447499933987493e-06,2.181483929592679394e-01,1.414341114260614943e-05,-5.382773732948267081e-02,-1.416578047195423678e-05,9.985502362391602826e-01,2.700436245648055772e-05,8.468988439829705506e-01,-1.917166089476739055e+00,2.700854711463662177e-05,8.468922968099995563e-01,-1.917233344501428016e+00,-1.876008598712807250e-05,9.264652399543218397e-01,-2.143636940384823664e+00,-1.875700621021084304e-05,9.264286137598577442e-01,-2.143651574514696900e+00
1.520000000000000906e+00,9.719549724375299293e-01,-6.778761487252321752e-06,2.131745344611668258e-01,2.077886386582526834e-05,-5.107653908378790436e-02,-1.468168734145684309e-05,9.986947414039533122e-01,1.717984213456934334e-05,8.932802539448765344e-01,-1.960800018501642983e+00,1.718450690094464376e-05,8.932763848498096459e-01,-1.960878065050220442e+00,-3.284354611986442252e-05,9.725684537890600945e-01,-2.174354374901565912e+00,-3.284050172452972422e-05,9.725314176551304035e-01,-2.174375763259723815e+00
1.540000000000000924e+00,9.789710518901658665e-01,-7.186454411378803768e-06,2.102305644883360469e-01,2.558823984875184825e-05,-4.841672638585230865e-02,-1.532450223127494407e-05,9.988272221543018636e-01,1.122708365792082895e-05,9.293652287232134768e-01,-1.989781778071576301e+00,1.123221249354657269e-05,9.293638547149024598e-01,-1.989869046184397972e+00,-4.268057323415651072e-05,1.008404988993658824e+00,-2.191591356034745974e+00,-4.267758717806390711e-05,1.008367736318688479e+00,-2.191618284387731208e+00
1.560000000000000941e+00,9.848001371177199648e-01,-7.723513787845556541e-06,2.088701879337771516e-01,2.854048203102342839e-05,-4.600154660293335335e-02,-1.608436916171412411e-05,9.989413679675459568e-01,9.270536002271434625e-06,9.572283505534940895e-01,-2.007376159873460519e+00,9.276118177968383316e-06,9.572291932840062412e-01,-2.007471156958173797e+00,-4.814814217359281829e-05,1.036019518999582223e+00,-2.198941373322806481e+00,-4.814516883298946648e-05,1.035982073112192925e+00,-2.198972663124713733e+00
1.580000000000000959e+00,9.896950889258812056e-01,-8.382004155650377625e-06,2.087452253077280995e-01,3.024606215118458077e-05,-4.395146740782859829e-02,-1.693637293768819621e-05,9.990336667555471672e-01,1.009194370532187033e-05,9.784941354098865007e-01,-2.015943702893204570e+00,1.009798915580076067e-05,9.784970712748481958e-01,-2.016045589207445143e+00,-5.055009875200867491e-05,1.057165431541989831e+00,-2.199088450156388319e+00,-5.054708149138021527e-05,1.057127823089449858e+00,-2.199123436079970073e+00
1.600000000000000977e+00,9.938429337844723044e-01,-9.154291667382937788e-06,2.095815984060344639e-01,3.126400149798671613e-05,-4.232615627345218817e-02,-1.785219515334037472e-05,9.991038460535404120e-01,1.254868640032281487e-05,9.944097194614199831e-01,-2.017302912791655523e+00,1.255520907311889364e-05,9.944148014187500495e-01,-2.017411404850908863e+00,-5.107804208186544578e-05,1.073229825523471126e+00,-2.193997163635366565e+00,-5.107493425805771588e-05,1.073192173563588980e+00,-2.194035658177109660e+00
1.620000000000000995e+00,9.973811099174834105e-01,-1.003728576950635795e-05,2.111601864829879549e-01,3.188450923966037695e-05,-4.112654633095536028e-02,-1.880249350657726897e-05,9.991539450038378067e-01,1.602592577522451303e-05,1.005930763935071193e+00,-2.012932335284656205e+00,1.603293967761564481e-05,1.005938146576276004e+00,-2.013047411516631247e+00,-5.033035920726050165e-05,1.085250196438197978e+00,-2.185092769870091711e+00,-5.032712231955806156e-05,1.085212714889829844e+00,-2.185134859284796782e+00
1.640000000000001013e+00,1.000412719780622295e+00,-1.103032789792472530e-05,2.133034938867347796e-01,3.224958072318666997e-05,-4.032133414115036951e-02,-1.975260436739131382e-05,9.991867636147292453e-01,2.019612118646317545e-05,1.013818268180031623e+00,-2.004050408229228530e+00,2.020363647539667512e-05,1.013828172100862401e+00,-2.004172143454586497e+00,-4.856742998946506561e-05,1.094020373762548681e+00,-2.173432991287361560e+00,-4.856403044580022313e-05,1.093983389232540793e+00,-2.173478931970682648e+00
1.660000000000001030e+00,1.003017566865320287e+00,-1.213324429573848864e-05,2.158667716416972082e-01,3.248191070615714357e-05,-3.986872562514140461e-02,-2.066031469049343981e-05,9.992049255458582691e-01,2.476157602146870522e-05,1.018704247462064671e+00,-1.991656390651914021e+00,2.476959680826814548e-05,1.018716973947089377e+00,-1.991784925056264477e+00,-4.598831691351540308e-05,1.100179583579697029e+00,-2.159828131525785899e+00,-4.598472598454368649e-05,1.100143578109934239e+00,-2.159878352677007562e+00
1.680000000000001048e+00,1.005258898386774069e+00,-1.334594083829441478e-05,2.187319116123094820e-01,3.272035100647383075e-05,-3.972590549605983096e-02,-2.147677502647070020e-05,9.992106138851032382e-01,2.938756657394824093e-05,1.021123720864556716e+00,-1.976567052796942781e+00,2.939609074265530042e-05,1.021139678001294904e+00,-1.976702602306287471e+00,-4.281007846557846803e-05,1.104255626584818684e+00,-2.144910330250190178e+00,-4.280627198138138286e-05,1.104221279540721135e+00,-2.144965463279838502e+00
1.700000000000001066e+00,1.007187554282798159e+00,-1.466868643628243147e-05,2.218029124445311251e-01,3.310443244078549192e-05,-3.985165607208981248e-02,-2.214832678009262510e-05,9.992056064303582730e-01,3.373773574859715760e-05,1.021529923752694025e+00,-1.959450521631487696e+00,3.374675556362415659e-05,1.021549640373502710e+00,-1.959593377320636653e+00,-3.923911570708549571e-05,1.106683065328626370e+00,-2.129174143289714660e+00,-3.923507139149184567e-05,1.106651278244462411e+00,-2.129235034311678376e+00
1.720000000000001084e+00,1.008844837183662246e+00,-1.610236898693038197e-05,2.250023008340115982e-01,3.375467743177621815e-05,-4.020712790086719557e-02,-2.261801902007806687e-05,9.991913656627594564e-01,3.751615748446186376e-05,1.020304599814555457e+00,-1.940853545785092393e+00,3.752565996721979390e-05,1.020328725044943763e+00,-1.941004055830542585e+00,-3.543322448589773679e-05,1.107815480218193205e+00,-2.113004457004527659e+00,-3.542891717630497017e-05,1.107787384598059921e+00,-2.113072158877961293e+00
1.740000000000001101e+00,1.010264662649078771e+00,-1.764852198410544947e-05,2.282682394761436084e-01,3.476412075222146234e-05,-4.075641814721265438e-02,-2.282665913206141233e-05,9.991691111369531697e-01,4.048509807461545511e-05,1.017767055377634122e+00,-1.921221989695503396e+00,4.049506483377717246e-05,1.017796349694028102e+00,-1.921380533268519208e+00,-3.148688356945832448e-05,1.107937460677070662e+00,-2.096697877748284977e+00,-3.148227907472743296e-05,1.107914415101065364e+00,-2.096773631646518865e+00
1.760000000000001119e+00,1.011475179303485517e+00,-1.930915480835091654e-05,2.315521797793274328e-01,3.619955512458324071e-05,-4.146697945356318110e-02,-2.271349392456421020e-05,9.991398739859636002e-01,4.246194903580724196e-05,1.014182168662529193e+00,-1.900916397627062437e+00,4.247235573912208856e-05,1.014217492210193861e+00,-1.901083359307335074e+00,-2.743657490810311108e-05,1.107275678926937346e+00,-2.080479197702317595e+00,-2.743162283214461891e-05,1.107259261608155132e+00,-2.080564413131511525e+00
1.780000000000001137e+00,1.012499963985111107e+00,-2.108646198690274781e-05,2.348169475089178782e-01,3.810756556551753410e-05,-4.230967559970580383e-02,-2.221660766734805600e-05,9.991045437815221364e-01,4.330573644334378654e-05,1.009767133844989839e+00,-1.880224391044752030e+00,4.331655228572324083e-05,1.009809435437017067e+00,-1.880400139917530078e+00,-2.327573927689727083e-05,1.106007894639868150e+00,-2.064513691625879943e+00,-2.327036469871437282e-05,1.105999895406359013e+00,-2.064609929598897331e+00
1.800000000000001155e+00,1.013358892888335250e+00,-2.298247017602789703e-05,2.380351616651869839e-01,4.052151710005458924e-05,-4.325848200826605539e-02,-2.127315805471962604e-05,9.990639126901741385e-01,4.290135935161567881e-05,1.004697040666870045e+00,-1.859370989837354271e+00,4.291254683708554008e-05,1.004747348714855493e+00,-1.859555864028350936e+00,-1.897151259926632921e-05,1.104269728480117063e+00,-2.048916142098004212e+00,-1.896560629163735015e-05,1.104272141813782193e+00,-2.049025102641192309e+00
1.820000000000001172e+00,1.014068782347173014e+00,-2.499865852965024756e-05,2.411879027076139492e-01,4.346714211085998808e-05,-4.428995093014687773e-02,-1.981962736248736993e-05,9.990187175245492934e-01,4.114667092426696471e-05,9.991095763322619394e-01,-1.838527440177367911e+00,4.115818617762732553e-05,9.991689913431756054e-01,-1.838721735562497628e+00,-1.447868191183138157e-05,1.102159680871572345e+00,-2.033757544743307832e+00,-1.447208878648870972e-05,1.102174699587951778e+00,-2.033881057481010224e+00
1.840000000000001190e+00,1.014643873757178794e+00,-2.713556973656083341e-05,2.442635642265457430e-01,4.696542257811264743e-05,-4.538257577399591042e-02,-1.779229074088366772e-05,9.989696788660810123e-01,3.794530990628621755e-05,9.931091336758637311e-01,-1.817818883956999754e+00,3.795710364541696544e-05,9.931788208352505531e-01,-1.818022844686346007e+00,-9.748552327400145673e-06,1.099743000268809556e+00,-2.019070302499059721e+00,-9.741057943492528707e-06,1.099773007818129811e+00,-2.019210317479850580e+00
1.860000000000001208e+00,1.015096214681860065e+00,-2.939241691988789135e-05,2.472568385081761744e-01,5.103206453630635466e-05,-4.651614871376176519e-02,-1.512809321893746876e-05,9.989175366744286189e-01,3.320687328049133006e-05,9.867705275209435190e-01,-1.797331119543159383e+00,3.321889254077936874e-05,9.868517071289705234e-01,-1.797544927374219448e+00,-4.731628846959573524e-06,1.097054869137295441e+00,-2.004852493836281280e+00,-4.722944090602586629e-06,1.097102427348761955e+00,-2.005011068740488067e+00
1.880000000000001226e+00,1.015435968440966397e+00,-3.176668222409253345e-05,2.501677995837591761e-01,5.567324092697137361e-05,-4.767115186964256124e-02,-1.176610119523903279e-05,9.988630827302962256e-01,2.685517168822603389e-05,9.801424316096754019e-01,-1.777116693158776295e+00,2.686736243000709297e-05,9.802363646483779336e-01,-1.777340452199783094e+00,6.262691624427983183e-07,1.094103165164395097e+00,-1.991071578245229956e+00,6.365247137212443541e-07,1.094170993484151033e+00,-1.991250857478231717e+00
1.900000000000001243e+00,1.015671669515207265e+00,-3.425369224312574233e-05,2.530010571249151075e-01,6.087771879982065636e-05,-4.882817466540315815e-02,-7.649660451016422703e-06,9.988071914009384322e-01,1.884435933258124906e-05,9.732505791845712517e-01,-1.757200575870822234e+00,1.885667015954785761e-05,9.733585451078586859e-01,-1.757434289304053543e+00,6.393994518188138637e-06,1.090870860798624387e+00,-1.977667719193748397e+00,6.406309467283289013e-06,1.090961802695327387e+00,-1.977869900184696439e+00
1.920000000000001261e+00,1.015810432054431445e+00,-3.684614049069849431e-05,2.557649612630941705e-01,6.660616858775742096e-05,-4.996731607896971739e-02,-2.729342811686807176e-06,9.987508512537215388e-01,9.181296114842099580e-06,9.661007279746880450e-01,-1.737585698541709966e+00,9.193683485424592077e-06,9.662239920785726799e-01,-1.737829234537286549e+00,1.266932976133275419e-05,1.087317982549921735e+00,-1.964556771852209671e+00,1.268431617318337072e-05,1.087434954891545180e+00,-1.964784054377630707e+00
1.940000000000001279e+00,1.015858113085449377e+00,-3.953350963921384206e-05,2.584708426049004415e-01,7.277941296869010342e-05,-5.106751298221444413e-02,3.033305063317932208e-06,9.986952006552186623e-01,-2.049489330528103518e-06,9.586813739995154737e-01,-1.718258622814262226e+00,-2.037053895902842771e-06,9.588211426428429052e-01,-1.718511668533998060e+00,1.959374107078674053e-05,1.083382975231685252e+00,-1.951632901959813982e+00,1.961214541475018533e-05,1.083528897220356280e+00,-1.951887417781950296e+00
1.960000000000001297e+00,1.015819429888152436e+00,-4.230132792424146565e-05,2.611322740642684215e-01,7.926852613372061657e-05,-5.210573460787371047e-02,9.661285878893777261e-06,9.986415703565189039e-01,-1.466424501502665661e-05,9.509662039583817172e-01,-1.699195612630467034e+00,-1.465176530949434992e-05,9.511235676270144435e-01,-1.699457618265282965e+00,2.736151686902092573e-05,1.078983305969273498e+00,-1.938770769645430159e+00,2.738422281596264508e-05,1.079161005786615890e+00,-1.939054492418059494e+00
1.980000000000001315e+00,1.015698031602859430e+00,-4.513018041794850148e-05,2.637643423518241659e-01,8.589082413329628064e-05,-5.305599684461965310e-02,1.715711987892542915e-05,9.985915348766097877e-01,-2.837017069305858944e-05,9.429162973304400230e-01,-1.680369334233186240e+00,-2.835761382654839724e-05,9.430921641114358156e-01,-1.680639453521777238e+00,3.621491761440578813e-05,1.074015191836665606e+00,-1.925827220766231251e+00,3.624293581140851074e-05,1.074227291522705796e+00,-1.926141860046571175e+00
2.000000000000001332e+00,1.015496527728304788e+00,-4.799439169523501183e-05,2.663829176849942804e-01,9.241656774377085082e-05,-5.388817663036953032e-02,2.549751023136844725e-05,9.985469719690250878e-01,-4.277722100776625377e-05,9.344821212132986554e-01,-1.661756350925686965e+00,-4.276450416642425204e-05,9.346771465054172223e-01,-1.662033390322736004e+00,4.641547132393355818e-05,1.068352435144994672e+00,-1.912642470862009114e+00,4.644991046166741823e-05,1.068601217264275594e+00,-1.912989358902854153e+00
2.020000000000001350e+00,1.015216480328954285e+00,-5.086030802296672251e-05,2.690039109789997829e-01,9.859125686797593727e-05,-5.456664518750117820e-02,3.462799901827291819e-05,9.985101252935030258e-01,-5.744150641387045422e-05,9.256053994706567867e-01,-1.643345488223841855e+00,-5.742848522217622683e-05,9.258199212849751447e-01,-1.643627883144759494e+00,5.818163752742619297e-05,1.061844496951730887e+00,-1.899040838594751923e+00,5.822365090593166053e-05,1.062131759957476662e+00,-1.899420823757072219e+00
2.040000000000001368e+00,1.014858372404662701e+00,-5.368413921754402400e-05,2.716425087043493058e-01,1.041773921492350973e-04,-5.504878992813280053e-02,4.445787897989360207e-05,9.984836593044557063e-01,-7.194814387329898574e-05,9.162209810041024305e-01,-1.625147017233152802e+00,-7.193460724956072757e-05,9.164549733301242673e-01,-1.625432859456740653e+00,7.158548253393857367e-05,1.054314134129168856e+00,-1.884831187577955980e+00,7.163618566692437023e-05,1.054641046539942062e+00,-1.885244552775771298e+00
2.060000000000001386e+00,1.014421572189237564e+00,-5.640937283921586899e-05,2.743123767378310984e-01,1.090173702982133469e-04,-5.528356079862138672e-02,5.485551047088887581e-05,9.984706871067928757e-01,-8.603682275057760180e-05,9.062588794357648858e-01,-1.607202426134987983e+00,-8.602250090545468509e-05,9.065119380172318442e-01,-1.607489570019112302e+00,8.640611476476824440e-05,1.045555175936766057e+00,-1.869807375274884720e+00,8.646647298910099236e-05,1.045922141969723551e+00,-1.870253802789513697e+00
2.080000000000001403e+00,1.013904322449400652e+00,-5.896384404534723005e-05,2.770248255026768747e-01,1.131156484649184577e-04,-5.521026013367480445e-02,6.564395599697180636e-05,9.984747418296033850e-01,-9.976606298235042082e-05,8.956467084092786246e-01,-1.589594307077245361e+00,-9.975065588737866862e-05,8.959180828258078710e-01,-1.589880581881715438e+00,1.019456637713671765e-04,1.035331330905420844e+00,-1.853749198393962461e+00,1.020163545644756737e-04,1.035737881441644914e+00,-1.854227802463691122e+00
2.100000000000001421e+00,1.013303795325905643e+00,-6.125662795314377269e-05,2.797879286108569397e-01,1.167334549040470031e-04,-5.475789660873266185e-02,7.659642029441850034e-05,9.984996511092411042e-01,-1.137020974962020466e-04,8.843127938183656944e-01,-1.572455568696848438e+00,-1.136853304667137201e-04,8.846014757057815148e-01,-1.572739117869616177e+00,1.168244297265300541e-04,1.023377295767566642e+00,-1.836424583276025979e+00,1.169056911138413872e-04,1.023822017588312594e+00,-1.836934027674534731e+00
2.120000000000001439e+00,1.012616266690473443e+00,-6.317501864055358239e-05,2.826055848343783095e-01,1.204826586884619991e-04,-5.384554120194526283e-02,8.743031749718911097e-05,9.985492654509030563e-01,-1.291044957315817636e-04,8.721903090691528471e-01,-1.555976794840031818e+00,-1.290862074859886399e-04,8.724951768003900154e-01,-1.556256547524883960e+00,1.287862373810050537e-04,1.009403873539307606e+00,-1.817594116969595275e+00,1.288777178217854710e-04,1.009884385210052971e+00,-1.818132824104942591e+00
2.140000000000001457e+00,1.011837478542049418e+00,-6.458198888347649899e-05,2.854765080276239209e-01,1.253960383638623292e-04,-5.238424941059801471e-02,9.779810297910106415e-05,9.986269899842747932e-01,-1.480614104488494460e-04,8.592228564942437918e-01,-1.540410124125076718e+00,-1.480416790408278674e-04,8.595428593710114917e-01,-1.540686374539770531e+00,1.345648271567383614e-04,9.931092652526681830e-01,-1.797019465521352721e+00,1.346654479796667212e-04,9.936222381435697582e-01,-1.797585903022739240e+00
2.160000000000001474e+00,1.010963271834534494e+00,-6.531477105413615333e-05,2.883931253867108024e-01,1.329361343204462612e-04,-5.028123720371562022e-02,1.072730546654864262e-04,9.987350839966220306e-01,-1.734972149428746114e-04,8.453720083215937597e-01,-1.526067544350974803e+00,-1.734765294595409519e-04,8.457063449722855841e-01,-1.526342561611334636e+00,1.298938837683017431e-04,9.741991147089592573e-01,-1.774477769626825241e+00,1.300017084254909085e-04,9.747403205070941379e-01,-1.775070763498514781e+00
2.180000000000001492e+00,1.009990583063319125e+00,-6.518566199492110004e-05,2.913403750987380580e-01,1.448813052152962580e-04,-4.744710350270205101e-02,1.153299706240172969e-04,9.988737348021566875e-01,-2.089290052765809891e-04,8.306274127202285529e-01,-1.513310972389405373e+00,-2.089084914568026621e-04,8.309756154216761947e-01,-1.513589473890037729e+00,1.097926478974994396e-04,9.524181614101907556e-01,-1.749784671597616192e+00,1.099047276499222738e-04,9.529825003440204334e-01,-1.750403631290096129e+00
2.200000000000001510e+00,1.008918907333434145e+00,-6.398671751982231890e-05,2.942944410532642996e-01,1.629992235476355241e-04,-4.380697746615112853e-02,1.213234187378347341e-04,9.990399929117759203e-01,-2.577912942920500923e-04,8.150201768095922672e-01,-1.502530871803586132e+00,-2.577729820221204933e-04,8.153819551564441825e-01,-1.502820064648185516e+00,6.931344876605550391e-05,9.275964510082851389e-01,-1.722829113216654662e+00,6.942560592416993572e-05,9.281778696213035529e-01,-1.723473949681370465e+00
2.220000000000001528e+00,1.007752352683410013e+00,-6.149995644873961420e-05,2.972215248039341562e-01,1.884087162710099681e-04,-3.931656870590323483e-02,1.244659903791464585e-04,9.992267792826445838e-01,-3.221227971424099048e-04,7.986405953737351071e-01,-1.494109619266014155e+00,-3.221098408660834161e-04,7.990152320086820747e-01,-1.494418387020632899e+00,4.937859622355456574e-06,8.997132328479617858e-01,-1.693623647725128745e+00,5.044428260820192122e-06,9.003043637163874457e-01,-1.694294018199907770e+00
2.240000000000001545e+00,1.006502474929614754e+00,-5.751339612125127529e-05,3.000766544634567712e-01,2.205833194898545741e-04,-3.398427707267812070e-02,1.238097829055270359e-04,9.994223356149212201e-01,-4.005045102337087852e-04,7.816627416188516309e-01,-1.488366604143574135e+00,-4.005011003214689527e-04,7.820478161921663451e-01,-1.488703387441384862e+00,-8.332496885650926566e-05,8.689828492115471148e-01,-1.662375943504016629e+00,-8.323123026256081219e-05,8.695741195763040388e-01,-1.663069316739528070e+00
2.260000000000001563e+00,1.005192192066126644e+00,-5.184282623393987707e-05,3.028019565041770167e-01,2.560791148364882858e-04,-2.790082923776760968e-02,1.182678784687972960e-04,9.996106562877572488e-01,-4.854206050977044433e-04,7.643820802066996212e-01,-1.485486325798731855e+00,-4.854310616288388404e-04,7.647714168254187150e-01,-1.485855384119245004e+00,-1.893179743943001808e-04,8.359702828825377185e-01,-1.629592487312847560e+00,-1.892452335362104386e-04,8.365482844610125923e-01,-1.630300542722792345e+00
2.280000000000001581e+00,1.003861054444138645e+00,-4.436258360023032950e-05,3.053232900975151876e-01,2.871854551917622897e-04,-2.127794753697714522e-02,1.067802047605280902e-04,9.997735518961861079e-01,-5.605210750981012629e-04,7.472752442933510153e-01,-1.485435877244567715e+00,-5.605475152141933554e-04,7.476562674055523550e-01,-1.485831852557106592e+00,-2.979108510816387838e-04,8.017462088894738992e-01,-1.596229818634624653e+00,-2.978659721890432126e-04,8.022914161003276146e-01,-1.596932993539723178e+00
2.300000000000001599e+00,1.002571298810457145e+00,-3.504253606927126293e-05,3.075474939107623040e-01,3.007257452686427023e-04,-1.449340463211725404e-02,8.861404707054725070e-05,9.998949159455440272e-01,-5.982547589554168457e-04,7.310748505209169190e-01,-1.487866958473814227e+00,-5.982933471377765988e-04,7.314257231870675557e-01,-1.488268052319102086e+00,-3.824930053239551696e-04,7.680652302336514747e-01,-1.563874940946561543e+00,-3.824774366153532918e-04,7.685491986312676937e-01,-1.564535226800691126e+00
2.320000000000001616e+00,1.001411636035413943e+00,-2.399376609478904568e-05,3.093705813539459615e-01,2.768757425841191899e-04,-8.122585696671893660e-03,6.354564476803670702e-05,9.999669709062266598e-01,-5.574081200215788437e-04,7.168027569394956888e-01,-1.491986418113644630e+00,-5.574458749394333498e-04,7.170893444996869759e-01,-1.492346622440703596e+00,-4.027516763845766234e-04,7.374596763917490305e-01,-1.534826564682008065e+00,-4.027569469702687384e-04,7.378412992869983755e-01,-1.535378499045589207e+00
2.340000000000001634e+00,1.000500261034303229e+00,-1.168064588074817998e-05,3.106758490989176558e-01,1.856756082127569056e-04,-2.945417805781102519e-03,3.238482263978113802e-05,9.999956444853853599e-01,-3.762689108483893577e-04,7.058203976766338483e-01,-1.496571136617541820e+00,-3.762864742742684943e-04,7.059923270978150089e-01,-1.496808390039188863e+00,-2.967621567905598130e-04,7.132821331949019683e-01,-1.512160016800392581e+00,-2.967693081105033152e-04,7.135032632119922003e-01,-1.512499153240532523e+00
2.360000000000001652e+00,1.000000000322373683e+00,2.594068562432687433e-14,3.113099468979691475e-01,-1.377592189739273077e-14,3.310642828976887853e-10,-2.318005082975739204e-16,1.000000000000000000e+00,-1.220067668108035350e-09,7.000000001806253591e-01,-1.499999997996186885e+00,1.220058518276001383e-09,7.000000001806279126e-01,-1.499999997996207979e+00,-1.235863532132614431e-09,7.000000001828315943e-01,-1.499999997970792309e+00,1.235856719133001580e-09,7.000000001828315943e-01,-1.499999997970806076e+00
2.380000000000001670e+00,1.000000000000000000e+00,0.000000000000000000e+00,3.113099999999999756e-01,0.000000000000000000e+00,0.000000000000000000e+00,0.000000000000000000e+00,1.000000000000000000e+00,0.000000000000000000e+00,6.999999999999999556e-01,-1.500000000000000000e+00,0.000000000000000000e+00,6.999999999999999556e-01,-1.500000000000000000e+00,0.000000000000000000e+00,6.999999999999999556e-01,-1.500000000000000000e+00,0.000000000000000000e+00,6.999999999999999556e-01,-1.500000000000000000e+00
