yusongmin1/go2_flip_TO/datasets/go2/trajectories/quad_backflip/joints_only.csv
FL_hip_joint,FL_thigh_joint,FL_calf_joint,FR_hip_joint,FR_thigh_joint,FR_calf_joint,RL_hip_joint,RL_thigh_joint,RL_calf_joint,RR_hip_joint,RR_thigh_joint,RR_calf_joint
0.000000000000000000e+00,6.999999999999999556e-01,-1.500000000000000000e+00,0.000000000000000000e+00,6.999999999999999556e-01,-1.500000000000000000e+00,0.000000000000000000e+00,6.999999999999999556e-01,-1.500000000000000000e+00,0.000000000000000000e+00,6.999999999999999556e-01,-1.500000000000000000e+00
3.333934151485408947e-05,8.564531843794237487e-01,-1.802844856830380760e+00,3.333932666285481359e-05,8.564531847075284032e-01,-1.802844856947986685e+00,3.322684063698743258e-05,8.616782164134948463e-01,-1.813967676361301962e+00,3.322665022369046593e-05,8.616782168011597465e-01,-1.813967675365826260e+00
5.778100220714354714e-05,8.598052092738316388e-01,-1.776262171436688408e+00,5.778096497461664399e-05,8.598052095175395815e-01,-1.776262171710786264e+00,5.772885844601131119e-05,8.707840909892989867e-01,-1.799175002704724191e+00,5.772890899453420494e-05,8.707840912380229170e-01,-1.799175002432087167e+00
7.271348910836769196e-05,8.587939296627927765e-01,-1.741880073196963474e+00,7.271356593847837907e-05,8.587939295332517320e-01,-1.741880073094469017e+00,7.276194608269820297e-05,8.766272821808545057e-01,-1.778437153407617988e+00,7.276200318829906353e-05,8.766272820200445848e-01,-1.778437153686992289e+00
7.431110244563487511e-05,8.540868352190277291e-01,-1.697801847073826309e+00,7.431109332256368013e-05,8.540868346522826338e-01,-1.697801846642061907e+00,7.447203680433269466e-05,8.813396853479972259e-01,-1.752718040009479283e+00,7.447200225639091678e-05,8.813396847729186856e-01,-1.752718041000183469e+00
6.674425407342296881e-05,8.469550144833837280e-01,-1.650190938614117364e+00,6.674426383357355585e-05,8.469550137475490015e-01,-1.650190938119191264e+00,6.694685560480548986e-05,8.842461074112862862e-01,-1.724209317200719571e+00,6.694684796473825432e-05,8.842461067227933569e-01,-1.724209318422246895e+00
5.601493528245805122e-05,8.377839149124056695e-01,-1.602032667261913401e+00,5.601490151482637535e-05,8.377839142813076068e-01,-1.602032666886330281e+00,5.618784251873956437e-05,8.847666971465417696e-01,-1.694144860029164645e+00,5.618785697053368911e-05,8.847666965917786452e-01,-1.694144861037590877e+00
4.561050263427950628e-05,8.270407533437196257e-01,-1.555442319925431471e+00,4.561052088951589946e-05,8.270407530007518604e-01,-1.555442319736250356e+00,4.570886154301228909e-05,8.824273152738185688e-01,-1.662997029521034120e+00,4.570884198889915896e-05,8.824273149823786966e-01,-1.662997030052212777e+00
3.755138315332739128e-05,8.152847319277241045e-01,-1.511549644784337731e+00,3.755137821974586674e-05,8.152847319012258565e-01,-1.511549644764443645e+00,3.756898964984096886e-05,8.773901383735821513e-01,-1.631288396508236982e+00,3.756899763056209432e-05,8.773901383417548328e-01,-1.631288396558894682e+00
3.292158754109585241e-05,8.029985858143929844e-01,-1.471067336258834013e+00,3.292157812666527967e-05,8.029985859992753161e-01,-1.471067336337430476e+00,3.288293865506213242e-05,8.699657140730592264e-01,-1.599509550800056523e+00,3.288295295066216196e-05,8.699657142057662940e-01,-1.599509550546422298e+00
3.164551192457857362e-05,7.906443312182835914e-01,-1.434696543895020771e+00,3.164550971687277403e-05,7.906443314794366906e-01,-1.434696544004517627e+00,3.158257717404283637e-05,8.604840925475016888e-01,-1.568173215460882730e+00,3.158257912938958244e-05,8.604840927400436712e-01,-1.568173215100687523e+00
3.295376024842637449e-05,7.786069500341586958e-01,-1.402580881525518297e+00,3.295375150744316327e-05,7.786069502790494701e-01,-1.402580881625909770e+00,3.288996093107558587e-05,8.495125796800441220e-01,-1.537785364698815327e+00,3.288996605963897879e-05,8.495125798644095338e-01,-1.537785364360225060e+00
3.599285417679420727e-05,7.671728195408954454e-01,-1.374696968485672688e+00,3.599286512881505267e-05,7.671728197370758506e-01,-1.374696968564869781e+00,3.593847500338279193e-05,8.376351096018473941e-01,-1.508880463208975398e+00,3.593846909370143085e-05,8.376351097531201662e-01,-1.508880462936363465e+00
4.025701360787011803e-05,7.565357315029533902e-01,-1.350949503099314164e+00,4.025701761111301851e-05,7.565357316555546552e-01,-1.350949503159586840e+00,4.021337662702545446e-05,8.252919082833574116e-01,-1.481811084562676406e+00,4.021337490030544372e-05,8.252919084026802965e-01,-1.481811084350736829e+00
4.562656872689751928e-05,7.468771483184230009e-01,-1.331066287641038182e+00,4.562656715428578172e-05,7.468771484381271364e-01,-1.331066287686609062e+00,4.559274166702122769e-05,8.130027953131946372e-01,-1.456915611096299079e+00,4.559274112633558771e-05,8.130027954062223339e-01,-1.456915610932260297e+00
5.222119893396016618e-05,7.383076058025755950e-01,-1.314708010062119348e+00,5.222120283489739052e-05,7.383076058901271166e-01,-1.314708010093789792e+00,5.219774236965754306e-05,8.012265201746592291e-01,-1.434488612586419798e+00,5.219774265125868792e-05,8.012265202410920883e-01,-1.434488612469258850e+00
6.020637975425953187e-05,7.309027820484926830e-01,-1.301478592638649623e+00,6.020638096329600388e-05,7.309027820916128571e-01,-1.301478592653109390e+00,6.019642602970857911e-05,7.903699790376577106e-01,-1.414739698860304928e+00,6.019642771906819593e-05,7.903699790687832571e-01,-1.414739698804818424e+00
6.961998277199110512e-05,7.246584324503368979e-01,-1.290994445516023825e+00,6.961998499622252428e-05,7.246584324301416080e-01,-1.290994445507962052e+00,6.962816411534443386e-05,7.806941263358502248e-01,-1.397776576012323524e+00,6.962816504532460713e-05,7.806941263183748703e-01,-1.397776576041309005e+00
8.023631090693325064e-05,7.195366787013620646e-01,-1.282884249609570482e+00,8.023631319570782145e-05,7.195366785989297798e-01,-1.282884249573583268e+00,8.026732494869727246e-05,7.723769542140377364e-01,-1.383631354243414657e+00,8.026732550491892648e-05,7.723769541344556178e-01,-1.383631354379677214e+00
9.149579623544354954e-05,7.154741155807238240e-01,-1.276809685045314557e+00,9.149579808305540254e-05,7.154741153815306065e-01,-1.276809684977279202e+00,9.155325972652528959e-05,7.655210466978982220e-01,-1.372278993508780243e+00,9.155325919782747652e-05,7.655210465457379376e-01,-1.372278993769657562e+00
1.025054995895043368e-04,7.123904423336948621e-01,-1.272479382436678907e+00,1.025054987596434714e-04,7.123904420300266604e-01,-1.272479382334585685e+00,1.025911626200775407e-04,7.601615643252710441e-01,-1.363648396459763212e+00,1.025911617794245134e-04,7.601615640951130404e-01,-1.363648396854047373e+00
1.121034749098096461e-04,7.102029618466825234e-01,-1.269663247010720974e+00,1.121034716638631115e-04,7.102029614391690560e-01,-1.269663246875227136e+00,1.122165982745298768e-04,7.562882632034018116e-01,-1.357649514266228374e+00,1.122165961930803892e-04,7.562882628963352172e-01,-1.357649514792048207e+00
1.189793860782572551e-04,7.088377208722260736e-01,-1.268197007403130794e+00,1.189793813169368346e-04,7.088377203726021758e-01,-1.268197007238543117e+00,1.191158407626064680e-04,7.538636503260673916e-01,-1.354190132279650349e+00,1.191158370853417442e-04,7.538636499519832945e-01,-1.354190132920787937e+00
1.218379020244115776e-04,7.082328657852493548e-01,-1.267970196442812059e+00,1.218378962740607798e-04,7.082328652207188213e-01,-1.267970196258647375e+00,1.219888728360354343e-04,7.528398435782590603e-01,-1.353189048768957736e+00,1.219888680217887767e-04,7.528398431593015250e-01,-1.353189049489065932e+00
1.195912890448727270e-04,7.083416720692199409e-01,-1.268926803868156927e+00,1.195912834279427644e-04,7.083416714898539412e-01,-1.268926803681688753e+00,1.197413889321205770e-04,7.531645323624284183e-01,-1.354582217328863081e+00,1.197413837968616733e-04,7.531645319385006365e-01,-1.354582218061864074e+00
1.115735464310551591e-04,7.091344634311272932e-01,-1.271072800885478582e+00,1.115735426231298028e-04,7.091344629199149985e-01,-1.271072800725136176e+00,1.116986431624600171e-04,7.547793672700947587e-01,-1.358323708312522138e+00,1.116986388171783685e-04,7.547793669059528199e-01,-1.358323708949776387e+00
9.777716333876712237e-05,7.105955968625103925e-01,-1.274476929928896940e+00,9.777716203110234405e-05,7.105955965440793332e-01,-1.274476929837250916e+00,9.784309405442159107e-05,7.576144186358633181e-01,-1.364382099097715573e+00,9.784309222145791927e-05,7.576144184267152859e-01,-1.364382099477016386e+00
7.912174799026169239e-05,7.127174617371935250e-01,-1.279270771242462024e+00,7.912174868744093164e-05,7.127174617775435816e-01,-1.279270771276285634e+00,7.908590764611118950e-05,7.615763903780901067e-01,-1.372730158836245051e+00,7.908590972131988742e-05,7.615763904478515256e-01,-1.372730158742543782e+00
5.774986695551257316e-05,7.154925805581590081e-01,-1.285650144417382457e+00,5.774987434696404450e-05,7.154925811415762116e-01,-1.285650144640129389e+00,5.756854471172265589e-05,7.665298579970566406e-01,-1.383326364125617713e+00,5.756854543110334697e-05,7.665298584792512582e-01,-1.383326363321165875e+00
3.728187383511846569e-05,7.188971837608559845e-01,-1.293885118922360133e+00,3.728187306225294980e-05,7.188971850263575769e-01,-1.293885119383073823e+00,3.692636726273177403e-05,7.722581310926102116e-01,-1.396083074707408667e+00,3.692637701563371739e-05,7.722581320824647433e-01,-1.396083073013125952e+00
2.282339610403158855e-05,7.228817320161637916e-01,-1.304305877133091762e+00,2.282342132782661930e-05,7.228817339504001183e-01,-1.304305877831080984e+00,2.230586263615929276e-05,7.784515208371713957e-01,-1.410848575233374813e+00,2.230585575843633969e-05,7.784515223158617880e-01,-1.410848572664988643e+00
2.040561239013868235e-05,7.273448719579188593e-01,-1.317304236823181762e+00,2.040559246372693151e-05,7.273448742847326010e-01,-1.317304237669849165e+00,1.980728798717304779e-05,7.846794062279101034e-01,-1.427406583307294863e+00,1.980732233116202796e-05,7.846794079877491557e-01,-1.427406580217839061e+00
3.573263892243786123e-05,7.321381622519730348e-01,-1.333268363144769264e+00,3.573267148396522209e-05,7.321381643784374837e-01,-1.333268363934885015e+00,3.521670745591010717e-05,7.903862029985034843e-01,-1.445387698464560833e+00,3.521671688350861345e-05,7.903862045983052198e-01,-1.445387695631979108e+00
7.246650350563698501e-05,7.370158883070987432e-01,-1.352619254977846630e+00,7.246653838866108015e-05,7.370158893629560337e-01,-1.352619255371753981e+00,7.225551049434723926e-05,7.948594024171720118e-01,-1.464340057265461237e+00,7.225553651938891229e-05,7.948594031818000394e-01,-1.464340055884127079e+00
1.309117081883655288e-04,7.416203549951281282e-01,-1.375799926968781728e+00,1.309117427728637172e-04,7.416203540466695943e-01,-1.375799926527599082e+00,1.312249613110621279e-04,7.971985753467523139e-01,-1.483672489279658890e+00,1.312250062218111300e-04,7.971985744947962527e-01,-1.483672490713048964e+00
2.071050188055272208e-04,7.454321359290826399e-01,-1.402949156083644677e+00,2.071050402697852176e-04,7.454321325137818199e-01,-1.402949154465979786e+00,2.080701613907780256e-04,7.964525597971151560e-01,-1.502660316228050519e+00,2.080701738682287931e-04,7.964525568717566451e-01,-1.502660321246455766e+00
2.868306187910331330e-04,7.478339191888473403e-01,-1.434329088628256255e+00,2.868305673053475721e-04,7.478339141496631592e-01,-1.434329086023923505e+00,2.882857139495072023e-04,7.914861039569585088e-01,-1.520458263235451524e+00,2.882856669093250687e-04,7.914860994734874700e-01,-1.520458270852532712e+00
3.375593951063578669e-04,7.479567809105522880e-01,-1.469928767880703591e+00,3.375592741991585211e-04,7.479567763364614041e-01,-1.469928765165203766e+00,3.388319886331098347e-04,7.810249585361594971e-01,-1.536030727260868201e+00,3.388318725684275555e-04,7.810249540566210902e-01,-1.536030734623035521e+00
3.141970861615448049e-04,7.448228613486977956e-01,-1.509650804195585394e+00,3.141969909936399982e-04,7.448228607176000660e-01,-1.509650803652871742e+00,3.144234576232820774e-04,7.638445725238270922e-01,-1.548346369219609553e+00,3.144233645662448495e-04,7.638445716237075578e-01,-1.548346370539569028e+00
1.848958741242131144e-04,7.371439930797621942e-01,-1.553026935326292435e+00,1.848959100857359365e-04,7.371439969965472017e-01,-1.553026938267247248e+00,1.838676282806472005e-04,7.385808701290341727e-01,-1.556019427302816283e+00,1.838676633385493927e-04,7.385808746159376881e-01,-1.556019420311929080e+00
-3.288588196388807296e-06,7.234400180756828114e-01,-1.599150064422828699e+00,-3.288512951241064745e-06,7.234400212788756335e-01,-1.599150067486063032e+00,-4.261033527861653281e-06,7.040845177888931383e-01,-1.557619414242720879e+00,-4.260955007047340142e-06,7.040845223826335264e-01,-1.557619407581449789e+00
-1.019343155036315113e-04,7.020362750202892022e-01,-1.646501884343207101e+00,-1.019343048965223804e-04,7.020362737105035889e-01,-1.646501882965198504e+00,-1.016097187045508923e-04,6.595038121426963773e-01,-1.551650953998730209e+00,-1.016097106529432125e-04,6.595038101678577513e-01,-1.551650956790638247e+00
-8.030794743431911092e-05,6.711481543603592392e-01,-1.692841609080526499e+00,-8.030794288204800744e-05,6.711481521557409735e-01,-1.692841605829693785e+00,-7.950586710573793862e-05,6.043851561555410035e-01,-1.536594145151905844e+00,-7.950586069165769350e-05,6.043851514126296065e-01,-1.536594151245384676e+00
-1.993393070494125716e-05,6.291214383307643931e-01,-1.734920753360171597e+00,-1.993391488770150693e-05,6.291214388031841631e-01,-1.734920754490223205e+00,-2.007146992631474091e-05,5.388979802866672442e-01,-1.511010777983254449e+00,-2.007145427216721717e-05,5.388979820100342488e-01,-1.511010775999829470e+00
-9.694896509624635196e-06,5.750388985509743422e-01,-1.768169166149913263e+00,-9.694879518222226453e-06,5.750388990742355544e-01,-1.768169168090069299e+00,-9.913101408730425342e-06,4.643000309038354256e-01,-1.473932953326961615e+00,-9.913079355118169328e-06,4.643000339095758044e-01,-1.473932950144918541e+00
-5.536795624935650682e-05,5.099574630308297829e-01,-1.785921622640522122e+00,-5.536792775113149353e-05,5.099574617950040079e-01,-1.785921612636305333e+00,-5.296727244887591531e-05,3.839290454899433880e-01,-1.425612125065723212e+00,-5.296725552216328638e-05,3.839290293143527433e-01,-1.425612140684541451e+00
2.992056648358488467e-06,4.394100986012773880e-01,-1.777594515383597695e+00,2.992132169715846840e-06,4.394101003771750391e-01,-1.777594516368049549e+00,2.650724193587772122e-06,3.057177012729744292e-01,-1.369520430085320983e+00,2.650867761429920199e-06,3.057177010056316147e-01,-1.369520429055407496e+00
3.077334565445145171e-04,3.767852849504637613e-01,-1.724672525506720122e+00,3.077334194267884694e-04,3.767852794516030057e-01,-1.724672543139525116e+00,2.873231248331563716e-04,2.473030744409232817e-01,-1.316764937602874941e+00,2.873230134784312889e-04,2.473031134383255059e-01,-1.316764909552267770e+00
-1.443271285295693413e-04,3.404142860917660496e-01,-1.589417953649378212e+00,-1.443269276570987745e-04,3.404142889955092954e-01,-1.589417939012123693e+00,-1.378263190574993517e-04,2.419632997466167890e-01,-1.290477931695966030e+00,-1.378260357774427672e-04,2.419632704095836806e-01,-1.290477954558520546e+00
-5.045145041588920036e-04,3.247450861701194902e-01,-1.278301055946394982e+00,-5.045148605069357415e-04,3.247450882211295187e-01,-1.278301063215728561e+00,-5.071807867316852026e-04,3.429348939802661644e-01,-1.327325852367813752e+00,-5.071811538441711210e-04,3.429349076869931956e-01,-1.327325838886294962e+00
-1.346346746472570606e-03,1.810790737576283282e-01,-1.528740407574429305e+00,-1.346346746867243399e-03,1.810790737559198893e-01,-1.528740407574280091e+00,-9.098016161286292050e-03,1.610897014405607286e-02,-1.571679268777784744e+00,-9.098016160854335496e-03,1.610897014285716383e-02,-1.571679268777287364e+00
-4.615985800406580825e-03,3.637501200767051523e-01,-1.657432182439954271e+00,-4.615985800364200663e-03,3.637501200762588982e-01,-1.657432182440420787e+00,-1.671271414766408586e-02,-1.690227368868733870e-01,-1.718857519968566949e+00,-1.671271414777572920e-02,-1.690227368872643243e-01,-1.718857519969156478e+00
-2.925172300100772112e-03,6.298536075350767982e-01,-1.683338801896451464e+00,-2.925172300077695086e-03,6.298536075326405248e-01,-1.683338801894966652e+00,-1.831808893817010037e-02,-2.866472377565945084e-01,-1.781379846618868834e+00,-1.831808893825801962e-02,-2.866472377552748418e-01,-1.781379846616828466e+00
6.813745437975381397e-04,8.902657079424031172e-01,-1.690571892967165146e+00,6.813745436839260036e-04,8.902657079423924591e-01,-1.690571892969127799e+00,-1.505136563821334733e-02,-3.013691717268431880e-01,-1.799934464225340758e+00,-1.505136563848911632e-02,-3.013691717316305807e-01,-1.799934464226646824e+00
2.265941341765840070e-03,1.119256038169549994e+00,-1.685392280179730307e+00,2.265941341762539325e-03,1.119256038171589696e+00,-1.685392280179911939e+00,-8.902550204054483773e-03,-2.950786169627215294e-01,-1.807823122124156079e+00,-8.902550203666790424e-03,-2.950786169631319789e-01,-1.807823122125032933e+00
3.181070202410747269e-03,1.317012707460060161e+00,-1.676904283320244993e+00,3.181070201789217532e-03,1.317012707461149068e+00,-1.676904283319946343e+00,-1.157837734084392551e-03,-2.836684041572499759e-01,-1.811825091108341335e+00,-1.157837733453065746e-03,-2.836684041568876546e-01,-1.811825091108756780e+00
6.886503430473697035e-03,1.507609191346257704e+00,-1.681767652509058353e+00,6.886503432846765790e-03,1.507609191342377697e+00,-1.681767652508940669e+00,6.248855813402230328e-03,-2.558643727305381921e-01,-1.811789048375698874e+00,6.248855812242804474e-03,-2.558643727296424641e-01,-1.811789048374283784e+00
1.350351619336480694e-02,1.697727516084567512e+00,-1.717561913426908449e+00,1.350351619114087756e-02,1.697727516087200517e+00,-1.717561913426862708e+00,1.199387499989897077e-02,-2.024027429885980056e-01,-1.809250710480734714e+00,1.199387499930552707e-02,-2.024027429897851671e-01,-1.809250710481398627e+00
1.876246758983642418e-02,1.821685161959366361e+00,-1.789596998071054434e+00,1.876246759057521515e-02,1.821685161961790866e+00,-1.789596998071014688e+00,1.475271038487924007e-02,-1.167902286937060330e-01,-1.806757007237419721e+00,1.475271038562111017e-02,-1.167902286941485263e-01,-1.806757007237470791e+00
1.909617607756512042e-02,1.728010405212552225e+00,-1.815055187816755122e+00,1.909617607761273511e-02,1.728010405214486678e+00,-1.815055187816608129e+00,1.442412475715356898e-02,2.434495443981309244e-03,-1.805281316318187557e+00,1.442412475764878570e-02,2.434495445193653271e-03,-1.805281316318146922e+00
1.364112821424677546e-02,1.483059119082889232e+00,-1.734505539656724160e+00,1.364112821372208580e-02,1.483059119080058830e+00,-1.734505539656675310e+00,1.313510869583028873e-02,1.455612952364677692e-01,-1.804792701919072373e+00,1.313510869512969116e-02,1.455612952364969126e-01,-1.804792701918600972e+00
6.243912016863467987e-03,1.309138097906346276e+00,-1.605204772524873702e+00,6.243912017373152296e-03,1.309138097904211095e+00,-1.605204772524840617e+00,8.344366156034521004e-03,3.064898272592908035e-01,-1.801256548097751820e+00,8.344366156405972137e-03,3.064898272588780781e-01,-1.801256548097585952e+00
2.114898327609385025e-04,1.246658579199030115e+00,-1.503541400406412487e+00,2.114898326650216842e-04,1.246658579200851324e+00,-1.503541400406150030e+00,2.246030530310444851e-03,4.839140857813020724e-01,-1.790712971566305045e+00,2.246030530246769658e-03,4.839140857824701936e-01,-1.790712971566933653e+00
-3.111995894172055622e-03,1.325715681371062438e+00,-1.447599574913223108e+00,-3.111995894275012327e-03,1.325715681369097343e+00,-1.447599574913006171e+00,-5.304688384059388570e-03,6.731013116218623749e-01,-1.775166257269310544e+00,-5.304688383922943028e-03,6.731013116213921954e-01,-1.775166257268655512e+00
-3.898558955031088818e-03,1.461905110950357578e+00,-1.402806516611335930e+00,-3.898558954956568134e-03,1.461905110950116882e+00,-1.402806516611323273e+00,-1.171099428762800189e-02,8.681675637300340087e-01,-1.755555588145140788e+00,-1.171099428769576886e-02,8.681675637299277604e-01,-1.755555588145067736e+00
9.708357088509479075e-05,1.587333666714396241e+00,-1.344514476105563849e+00,9.708357088815991161e-05,1.587333666715039504e+00,-1.344514476105489242e+00,-1.547420260517217393e-02,1.058146003646639910e+00,-1.727128870890932921e+00,-1.547420260513432226e-02,1.058146003647105537e+00,-1.727128870891016188e+00
5.024965036318795354e-03,1.677018962201453300e+00,-1.273246760043533987e+00,5.024965036290829010e-03,1.677018962199993135e+00,-1.273246760043343029e+00,-1.678852335177653810e-02,1.231645950717871862e+00,-1.679425382093397534e+00,-1.678852335182184560e-02,1.231645950717496829e+00,-1.679425382092826213e+00
-6.491362474659066262e-04,1.710907811562271119e+00,-1.183153891337867636e+00,-6.491362474901935138e-04,1.710907811562212277e+00,-1.183153891337642705e+00,-1.387101672903730785e-02,1.378303473324813400e+00,-1.592323048771804528e+00,-1.387101672910450063e-02,1.378303473325230621e+00,-1.592323048771598470e+00
-9.118505878213112315e-03,1.642701097302727620e+00,-1.048868811799005041e+00,-9.118505878343109022e-03,1.642701097298604473e+00,-1.048868811799972045e+00,-2.607979597334585294e-03,1.494616486010604373e+00,-1.454598574530109767e+00,-2.607979597111829886e-03,1.494616486007513290e+00,-1.454598574530448385e+00
-9.609680261169257012e-03,1.420718668162528120e+00,-8.408303702730195450e-01,-9.609680260932671955e-03,1.420718668167116672e+00,-8.408303702718327166e-01,1.751842782545309785e-03,1.592195431829335650e+00,-1.329489401843792606e+00,1.751842781843920968e-03,1.592195431832612140e+00,-1.329489401843042096e+00
3.439727688760622386e-06,1.069463245575237753e+00,-8.958761446828658048e-01,3.439733637780904042e-06,1.069463221882277049e+00,-8.958761526836935829e-01,5.644203378445794573e-06,1.503384181108009310e+00,-1.495657701841968334e+00,5.644219012019336104e-06,1.503384185893595681e+00,-1.495657707353271082e+00
-1.260754283365002630e-04,1.236193930141370689e+00,-1.071370706709964260e+00,-1.260754388518115681e-04,1.236193982957493942e+00,-1.071370690936944481e+00,-1.444570552559678949e-04,1.857161076304842506e+00,-1.809246058743641861e+00,-1.444570742007121329e-04,1.857161068414118210e+00,-1.809246047545105984e+00
-3.497757351333908621e-06,1.310576520135556144e+00,-1.208868702280266882e+00,-3.497760529622642976e-06,1.310576501991737253e+00,-1.208868707674615850e+00,-1.902319399516879139e-06,1.987556719535022109e+00,-1.957255969475525381e+00,-1.902311804218588735e-06,1.987556721812111737e+00,-1.957255976361684358e+00
1.942826216810089937e-05,1.328296167127896776e+00,-1.310971911941072765e+00,1.942827905666574950e-05,1.328296130110162787e+00,-1.310971921391704154e+00,2.529862667285002689e-05,1.982238313538254637e+00,-2.027605356879426779e+00,2.529862821462755610e-05,1.982238317423890894e+00,-2.027605370605305435e+00
-1.062130155416375106e-04,1.314735761327119112e+00,-1.384401828429279169e+00,-1.062130367274533211e-04,1.314735803626117860e+00,-1.384401820271468964e+00,-1.206510133692427050e-04,1.906408465875975011e+00,-2.052136198690086122e+00,-1.206510224784477809e-04,1.906408463025597744e+00,-2.052136179342859634e+00
-2.417948834456080736e-05,1.284073032848702889e+00,-1.435906946348305180e+00,-2.417947932826727012e-05,1.284073034083473619e+00,-1.435906946237633486e+00,-2.445688596269154406e-05,1.798523505250319010e+00,-2.045567343798321058e+00,-2.445687768006738478e-05,1.798523505275460899e+00,-2.045567342823910728e+00
-1.003124687765472035e-05,1.244118181484908936e+00,-1.470126225246933371e+00,-1.003124496687025906e-05,1.244118166715533436e+00,-1.470126227671294528e+00,-8.549888763689922818e-06,1.680854313161961988e+00,-2.017739707817836070e+00,-8.549883885099481443e-06,1.680854313908960007e+00,-2.017739715770531461e+00
-2.838543139346851426e-05,1.199408362928420235e+00,-1.490860954675501837e+00,-2.838542398140755563e-05,1.199408363410920053e+00,-1.490860954495794477e+00,-2.833461003126638700e-05,1.564593216051513469e+00,-1.975692807863360656e+00,-2.833461562580683274e-05,1.564593215893953948e+00,-1.975692807858477895e+00
-4.107704758365207924e-05,1.152635463765193435e+00,-1.500343143392508294e+00,-4.107705850593977104e-05,1.152635468316022482e+00,-1.500343143014100100e+00,-4.149259299975654645e-05,1.455421419015490603e+00,-1.924674498806461020e+00,-4.149258833020274710e-05,1.455421419092389090e+00,-1.924674495859010070e+00
-3.953054009237806356e-05,1.105709928296179090e+00,-1.500609321293957965e+00,-3.953053793322964740e-05,1.105709927400190917e+00,-1.500609321242157401e+00,-3.937171194125359692e-05,1.355862294197914153e+00,-1.868796795528606891e+00,-3.937170718243628752e-05,1.355862294028310489e+00,-1.868796796338910049e+00
-3.898293874419916271e-05,1.059950766019582602e+00,-1.493323117728578842e+00,-3.898292398996700458e-05,1.059950761912304085e+00,-1.493323117518579046e+00,-3.838648587877853066e-05,1.266735528798055954e+00,-1.811101836339547688e+00,-3.838649356162448758e-05,1.266735528064305116e+00,-1.811101839868914487e+00
-5.293855474225883667e-05,1.016273578587137960e+00,-1.480140253041616560e+00,-5.293855123259162974e-05,1.016273575775761273e+00,-1.480140252747034868e+00,-5.249103618890638010e-05,1.187837515634504237e+00,-1.753785092846770644e+00,-5.249102133694370282e-05,1.187837514910905945e+00,-1.753785095502579550e+00
-8.174122750464080664e-05,9.752675095304118580e-01,-1.462432834118218894e+00,-8.174121664356898554e-05,9.752675096352824147e-01,-1.462432834087207700e+00,-8.174375199762673255e-05,1.118587957222639373e+00,-1.698356660777456506e+00,-8.174374512614690697e-05,1.118587957175403824e+00,-1.698356660782965211e+00
-1.170237913145388050e-04,9.372694356098127955e-01,-1.441488057612864582e+00,-1.170237879534320833e-04,9.372694377745748318e-01,-1.441488057937163392e+00,-1.174111685967835249e-04,1.058211833435620308e+00,-1.645911793775221010e+00,-1.174111617075049351e-04,1.058211834148132802e+00,-1.645911791646970102e+00
-1.496900888247825292e-04,9.023452387862619384e-01,-1.418040988022063242e+00,-1.496900892642916896e-04,9.023452415661946668e-01,-1.418040988541368286e+00,-1.502449053780377660e-04,1.005964993398564600e+00,-1.597075999209566666e+00,-1.502449076169908211e-04,1.005964994513180999e+00,-1.597075996295695965e+00
-1.744160591210007570e-04,8.705968004919620862e-01,-1.393322660421824066e+00,-1.744160680410250356e-04,8.705968028992154828e-01,-1.393322660942236446e+00,-1.749411319752491607e-04,9.610187742682112511e-01,-1.552413532365357174e+00,-1.749411355147929815e-04,9.610187753863569382e-01,-1.552413529715321427e+00
-1.901355070472178737e-04,8.418993273353259088e-01,-1.368200154225018617e+00,-1.901355138405262755e-04,8.418993289550650294e-01,-1.368200154621032283e+00,-1.905238538938197254e-04,9.224436145156832412e-01,-1.512047059008042371e+00,-1.905238655408634878e-04,9.224436153752899603e-01,-1.512047057137743789e+00
-1.986548941506209619e-04,8.162275088778189192e-01,-1.343384854535483175e+00,-1.986549012028289006e-04,8.162275097463203011e-01,-1.343384854776002557e+00,-1.988909365526734824e-04,8.896906667617745512e-01,-1.476202912698837189e+00,-1.988909418009776608e-04,8.896906672903942548e-01,-1.476202911636280923e+00
-2.028255324825890924e-04,7.933405023035144943e-01,-1.319469371941328184e+00,-2.028255390455083814e-04,7.933405026479044553e-01,-1.319469372056507384e+00,-2.029427747234285396e-04,8.618812203218315648e-01,-1.444644474466433515e+00,-2.029427766562483834e-04,8.618812205778479951e-01,-1.444644473999281198e+00
-2.048779465128973670e-04,7.730673101798218871e-01,-1.297016172536093581e+00,-2.048779492311828703e-04,7.730673102525418283e-01,-1.297016172578955295e+00,-2.049258223763655536e-04,8.383315400840565257e-01,-1.417206493214320018e+00,-2.049258297039331428e-04,8.383315401773709930e-01,-1.417206493072905804e+00
-2.060371574703500795e-04,7.552048293503489385e-01,-1.276358834656363239e+00,-2.060371527802434051e-04,7.552048293658216727e-01,-1.276358834677555398e+00,-2.060630061809579354e-04,8.184503974631477385e-01,-1.393643832062263499e+00,-2.060630160545578386e-04,8.184503975087173977e-01,-1.393643832003720551e+00
-2.064982351569091910e-04,7.395395066234189407e-01,-1.257754198467719631e+00,-2.064982424460324348e-04,7.395395067173498038e-01,-1.257754198501958909e+00,-2.065355769366103162e-04,8.016668451226751646e-01,-1.373641153543002424e+00,-2.065355745502911195e-04,8.016668452046610271e-01,-1.373641153406705007e+00
-2.057023566162413284e-04,7.258675342767865191e-01,-1.241317630054603161e+00,-2.057023632567074730e-04,7.258675345092994169e-01,-1.241317630119033844e+00,-2.057684525102460699e-04,7.875234645387180210e-01,-1.356898848609993324e+00,-2.057684537091683248e-04,7.875234647014878187e-01,-1.356898848320176931e+00
-2.027774285960231334e-04,7.140116255673459866e-01,-1.227063723706573128e+00,-2.027774339308257472e-04,7.140116259398885390e-01,-1.227063723803657025e+00,-2.028753445624005959e-04,7.756882086970996459e-01,-1.343178987740411445e+00,-2.028753493267390422e-04,7.756882089489157694e-01,-1.343178987289770365e+00
-1.969660291119042911e-04,7.038190332582099362e-01,-1.214964690125253988e+00,-1.969660345884023168e-04,7.038190337298095844e-01,-1.214964690246502999e+00,-1.970878972744659146e-04,7.659025442000536588e-01,-1.332280250142415134e+00,-1.970879023591009117e-04,7.659025445200571269e-01,-1.332280249574506303e+00
-1.878820167398172159e-04,6.951627716386412636e-01,-1.204951785675531184e+00,-1.878820215164378026e-04,6.951627721482561695e-01,-1.204951785806812392e+00,-1.880138948441534513e-04,7.579865520791703171e-01,-1.324051387606383079e+00,-1.880138990633429836e-04,7.579865524299191915e-01,-1.324051386990648060e+00
-1.755818676392204643e-04,6.879412080325256751e-01,-1.196934535027507351e+00,-1.755818708382361965e-04,6.879412085168365998e-01,-1.196934535153285850e+00,-1.757080596142095977e-04,7.518255154687040198e-01,-1.318389438266277525e+00,-1.757080620896233519e-04,7.518255158075274336e-01,-1.318389437677571552e+00
-1.605152276514184586e-04,6.820732947715683059e-01,-1.190811464394048169e+00,-1.605152286357098017e-04,6.820732951762603635e-01,-1.190811464500081573e+00,-1.606213234233767905e-04,7.473526252732718422e-01,-1.315228985731860423e+00,-1.606213239246997320e-04,7.473526255604304724e-01,-1.315228985236931880e+00
-1.434109670824343808e-04,6.774934567881272240e-01,-1.186480303351350463e+00,-1.434109658302020677e-04,6.774934570725978933e-01,-1.186480303425955674e+00,-1.434853895166466383e-04,7.445308549359532790e-01,-1.314529028528663046e+00,-1.434853882819215340e-04,7.445308551389395735e-01,-1.314529028179970638e+00
-1.251443784003035973e-04,6.741491428688953791e-01,-1.183854212487342794e+00,-1.251443755030812860e-04,6.741491430056443246e-01,-1.183854212521514571e+00,-1.251786350540067363e-04,7.433357626469950796e-01,-1.316261921141460567e+00,-1.251786324730742796e-04,7.433357627413487156e-01,-1.316261920977102040e+00
-1.066192727879720242e-04,6.720000269250873126e-01,-1.182881730327722591e+00,-1.066192690975907039e-04,6.720000268961440204e-01,-1.182881730314562674e+00,-1.066074437464919485e-04,7.437390193321349319e-01,-1.320403880321008749e+00,-1.066074402096607338e-04,7.437390193001046645e-01,-1.320403880368136385e+00
-8.868504947672776388e-05,6.710158892996369584e-01,-1.183563727459205683e+00,-8.868504601903299427e-05,6.710158890927820918e-01,-1.183563727393278198e+00,-8.862319659264459714e-05,7.456915658625452581e-01,-1.326924200128056119e+00,-8.862319224757192850e-05,7.456915656914550050e-01,-1.326924200406528254e+00
-7.210116728761586805e-05,6.711716565601583140e-01,-1.185964055246400140e+00,-7.210116552636670830e-05,6.711716561678183757e-01,-1.185964055123884364e+00,-7.198738268713908536e-05,7.491056438633851844e-01,-1.335771587626887635e+00,-7.198737710066201720e-05,7.491056435457889018e-01,-1.335771588149710531e+00
-5.753808864521693016e-05,6.724404151661387274e-01,-1.190215538426112829e+00,-5.753808490120344198e-05,6.724404145890406914e-01,-1.190215538246239158e+00,-5.737365813429434400e-05,7.538349010313305509e-01,-1.346856289683853625e+00,-5.737365541347622566e-05,7.538349005685268667e-01,-1.346856290451871718e+00
-4.555888351548219019e-05,6.747825410820209591e-01,-1.196527831843229084e+00,-4.555887906994363486e-05,6.747825403334297700e-01,-1.196527831609373260e+00,-4.535011987689593069e-05,7.596441792918673386e-01,-1.360022348924252888e+00,-4.535011827778372384e-05,7.596441786979601929e-01,-1.360022349918307283e+00
-3.676422430702454920e-05,6.781405144885002123e-01,-1.205168171620862205e+00,-3.676423018893064284e-05,6.781405136177399706e-01,-1.205168171347732242e+00,-3.652753654079123855e-05,7.662297296549229753e-01,-1.375078255279433170e+00,-3.652752916413981127e-05,7.662297289731404559e-01,-1.375078256433046819e+00
-3.173434900144387212e-05,6.824274581892167957e-01,-1.216447176632834859e+00,-3.173434124285958330e-05,6.824274573038864311e-01,-1.216447176353238291e+00,-3.150085978399015836e-05,7.732004545606668833e-01,-1.391769491468806130e+00,-3.150086193430247589e-05,7.732004538771400926e-01,-1.391769492639024275e+00
-3.082689549058452297e-05,6.875212592405633982e-01,-1.230673856961331136e+00,-3.082692397403759336e-05,6.875212585133168020e-01,-1.230673856729227467e+00,-3.064269645336651737e-05,7.800610068810898134e-01,-1.409708629049126749e+00,-3.064267143111601720e-05,7.800610063284392215e-01,-1.409708630006533792e+00
-3.387506009722635926e-05,6.932466320161756457e-01,-1.248156328215557886e+00,-3.387499176496100320e-05,6.932466316585137456e-01,-1.248156328103084967e+00,-3.379305184521824967e-05,7.862541395996590632e-01,-1.428493696459040896e+00,-3.379310523420185240e-05,7.862541393394250067e-01,-1.428493696921725231e+00
-4.026204716307818640e-05,6.993228658551934318e-01,-1.269022166747969527e+00,-4.026211802917383864e-05,6.993228660917393258e-01,-1.269022166841475174e+00,-4.033250573436517235e-05,7.911410856074961861e-01,-1.447582498261981820e+00,-4.033244393913472029e-05,7.911410858097238652e-01,-1.447582497922184297e+00
-4.756528023650818249e-05,7.054379554029311938e-01,-1.293509782226840876e+00,-4.756521055650882250e-05,7.054379562789150349e-01,-1.293509782567011879e+00,-4.779504540176348379e-05,7.939719464606054267e-01,-1.466376549495896020e+00,-4.779511205287071101e-05,7.939719471738277967e-01,-1.466376548268729652e+00
-5.224865851415240589e-05,7.112247023099456111e-01,-1.321437637302073975e+00,-5.224870049477774175e-05,7.112247035924664784e-01,-1.321437637834760759e+00,-5.257903014730399107e-05,7.941235187532414974e-01,-1.484160691970604073e+00,-5.257900308392993410e-05,7.941235198216847202e-01,-1.484160690136576033e+00
-5.028923967356863588e-05,7.162666247735228753e-01,-1.352546484191141651e+00,-5.028923847018641372e-05,7.162666259618604148e-01,-1.352546484740720256e+00,-5.059494268891212375e-05,7.909659423674426648e-01,-1.500177300348661369e+00,-5.059495131778592332e-05,7.909659434092837227e-01,-1.500177298590199548e+00
-3.828922013062364163e-05,7.201607818121280591e-01,-1.386141011552895153e+00,-3.828923074088731976e-05,7.201607823254329022e-01,-1.386141011836072856e+00,-3.842278822926298716e-05,7.842228524109411403e-01,-1.513825898476333309e+00,-3.842279392194795803e-05,7.842228529120720548e-01,-1.513825897666235099e+00
-1.489101794784377464e-05,7.225149703701165826e-01,-1.420564802575849050e+00,-1.489099725023398544e-05,7.225149698454987890e-01,-1.420564802313273312e+00,-1.475909255182789810e-05,7.741223348141770266e-01,-1.524452847328611194e+00,-1.475911473125518057e-05,7.741223343553389480e-01,-1.524452848109996150e+00
1.387473958471235379e-05,7.228472129799138335e-01,-1.453646841023320757e+00,1.387477331539320158e-05,7.228472117197358715e-01,-1.453646840259882111e+00,1.420895160924150004e-05,7.608125416636153382e-01,-1.530917978003187407e+00,1.420901746573171022e-05,7.608125403982136659e-01,-1.530917980044241622e+00
3.016865619761663651e-05,7.198182349190487272e-01,-1.480489587559922215e+00,3.016765211341854974e-05,7.198182338754669507e-01,-1.480489586835352922e+00,3.047631099192307159e-05,7.442267525206180956e-01,-1.530730891756902468e+00,3.047529554592326388e-05,7.442267513539925217e-01,-1.530730893566859985e+00
1.841259139964732157e-05,7.145703628606366875e-01,-1.501464206636295096e+00,1.841561353224307546e-05,7.145703625842683149e-01,-1.501464206403027246e+00,1.853904326351836447e-05,7.265845915775855923e-01,-1.526464762515335138e+00,1.854210196062889085e-05,7.265845912026167586e-01,-1.526464763070817021e+00
9.245500457880397402e-10,6.999999998625068276e-01,-1.500000003489018852e+00,-1.945298441392332712e-09,6.999999994433712125e-01,-1.500000003774779822e+00,1.971710755360419716e-09,6.999999998674565349e-01,-1.500000003635920676e+00,-9.354761806332629059e-10,6.999999994417398508e-01,-1.500000003751872590e+00
0.000000000000000000e+00,6.999999999999999556e-01,-1.500000000000000000e+00,0.000000000000000000e+00,6.999999999999999556e-01,-1.500000000000000000e+00,0.000000000000000000e+00,6.999999999999999556e-01,-1.500000000000000000e+00,0.000000000000000000e+00,6.999999999999999556e-01,-1.500000000000000000e+00
