yusongmin1/go2_flip_TO/datasets/go2/trajectories/quad_backflip/trajectory_full.csv
t,base_tx,base_ty,base_tz,quat_x,quat_y,quat_z,quat_w,FL_hip_joint,FL_thigh_joint,FL_calf_joint,FR_hip_joint,FR_thigh_joint,FR_calf_joint,RL_hip_joint,RL_thigh_joint,RL_calf_joint,RR_hip_joint,RR_thigh_joint,RR_calf_joint
0.000000000000000000e+00,0.000000000000000000e+00,0.000000000000000000e+00,3.113099999999999756e-01,0.000000000000000000e+00,0.000000000000000000e+00,0.000000000000000000e+00,1.000000000000000000e+00,0.000000000000000000e+00,6.999999999999999556e-01,-1.500000000000000000e+00,0.000000000000000000e+00,6.999999999999999556e-01,-1.500000000000000000e+00,0.000000000000000000e+00,6.999999999999999556e-01,-1.500000000000000000e+00,0.000000000000000000e+00,6.999999999999999556e-01,-1.500000000000000000e+00
2.000000000000000042e-02,2.425506316364432931e-03,-2.860504284335884828e-06,3.130712826431469309e-01,-1.120109037594362660e-05,-2.409656825022245003e-03,-7.042752280516293100e-08,9.999970967100435537e-01,3.333934151485408947e-05,8.564531843794237487e-01,-1.802844856830380760e+00,3.333932666285481359e-05,8.564531847075284032e-01,-1.802844856947986685e+00,3.322684063698743258e-05,8.616782164134948463e-01,-1.813967676361301962e+00,3.322665022369046593e-05,8.616782168011597465e-01,-1.813967675365826260e+00
4.000000000000000083e-02,5.333142232641965505e-03,-5.045009345313423680e-06,3.166488570376854716e-01,-1.941868925759381625e-05,-4.920385822440510870e-03,-1.687507166771702063e-07,9.999878946398522706e-01,5.778100220714354714e-05,8.598052092738316388e-01,-1.776262171436688408e+00,5.778096497461664399e-05,8.598052095175395815e-01,-1.776262171710786264e+00,5.772885844601131119e-05,8.707840909892989867e-01,-1.799175002704724191e+00,5.772890899453420494e-05,8.707840912380229170e-01,-1.799175002432087167e+00
5.999999999999999778e-02,8.011454894362286805e-03,-6.461686935706146850e-06,3.212835596078464362e-01,-2.445897332596642357e-05,-7.759932569635861685e-03,-3.002280366902212662e-07,9.999698909708147898e-01,7.271348910836769196e-05,8.587939296627927765e-01,-1.741880073196963474e+00,7.271356593847837907e-05,8.587939295332517320e-01,-1.741880073094469017e+00,7.276194608269820297e-05,8.766272821808545057e-01,-1.778437153407617988e+00,7.276200318829906353e-05,8.766272820200445848e-01,-1.778437153686992289e+00
8.000000000000000167e-02,1.062346217504017525e-02,-6.746945156406804989e-06,3.270180019366955571e-01,-2.501564210945359377e-05,-1.148480571479894990e-02,-4.334533242583065033e-07,9.999340471309711154e-01,7.431110244563487511e-05,8.540868352190277291e-01,-1.697801847073826309e+00,7.431109332256368013e-05,8.540868346522826338e-01,-1.697801846642061907e+00,7.447203680433269466e-05,8.813396853479972259e-01,-1.752718040009479283e+00,7.447200225639091678e-05,8.813396847729186856e-01,-1.752718041000183469e+00
1.000000000000000056e-01,1.318532587732588503e-02,-6.194968266745856405e-06,3.331368316305407529e-01,-2.247799956311329148e-05,-1.522430705689833269e-02,-5.128493540478431496e-07,9.998841032685307217e-01,6.674425407342296881e-05,8.469550144833837280e-01,-1.650190938614117364e+00,6.674426383357355585e-05,8.469550137475490015e-01,-1.650190938119191264e+00,6.694685560480548986e-05,8.842461074112862862e-01,-1.724209317200719571e+00,6.694684796473825432e-05,8.842461067227933569e-01,-1.724209318422246895e+00
1.200000000000000094e-01,1.557493662821713039e-02,-5.310312412139539709e-06,3.392875572573330056e-01,-1.886498371491342912e-05,-1.861482600192975595e-02,-5.338675812346159654e-07,9.998267289369420219e-01,5.601493528245805122e-05,8.377839149124056695e-01,-1.602032667261913401e+00,5.601490151482637535e-05,8.377839142813076068e-01,-1.602032666886330281e+00,5.618784251873956437e-05,8.847666971465417696e-01,-1.694144860029164645e+00,5.618785697053368911e-05,8.847666965917786452e-01,-1.694144861037590877e+00
1.400000000000000133e-01,1.776606243311118147e-02,-4.409637816397837032e-06,3.452703731737861714e-01,-1.535423294128905280e-05,-2.134501952274857686e-02,-5.132930196125062583e-07,9.997721689992963290e-01,4.561050263427950628e-05,8.270407533437196257e-01,-1.555442319925431471e+00,4.561052088951589946e-05,8.270407530007518604e-01,-1.555442319736250356e+00,4.570886154301228909e-05,8.824273152738185688e-01,-1.662997029521034120e+00,4.570884198889915896e-05,8.824273149823786966e-01,-1.662997030052212777e+00
1.600000000000000033e-01,1.976984821257285821e-02,-3.696450721638312128e-06,3.509696151889970528e-01,-1.263114638829827608e-05,-2.333254400237060044e-02,-4.793068806797790721e-07,9.997277590577355877e-01,3.755138315332739128e-05,8.152847319277241045e-01,-1.511549644784337731e+00,3.755137821974586674e-05,8.152847319012258565e-01,-1.511549644764443645e+00,3.756898964984096886e-05,8.773901383735821513e-01,-1.631288396508236982e+00,3.756899763056209432e-05,8.773901383417548328e-01,-1.631288396558894682e+00
1.799999999999999933e-01,2.159290826379248532e-02,-3.295057221102181976e-06,3.563106116019708058e-01,-1.106520260522145886e-05,-2.457906249511236998e-02,-4.566139820524477532e-07,9.996978891466231643e-01,3.292158754109585241e-05,8.029985858143929844e-01,-1.471067336258834013e+00,3.292157812666527967e-05,8.029985859992753161e-01,-1.471067336337430476e+00,3.288293865506213242e-05,8.699657140730592264e-01,-1.599509550800056523e+00,3.288295295066216196e-05,8.699657142057662940e-01,-1.599509550546422298e+00
1.999999999999999833e-01,2.323596839856885074e-02,-3.216593945997730904e-06,3.612233518892671302e-01,-1.063219004599199567e-05,-2.509701045961792651e-02,-4.548881633119722126e-07,9.996850203702861704e-01,3.164551192457857362e-05,7.906443312182835914e-01,-1.434696543895020771e+00,3.164550971687277403e-05,7.906443314794366906e-01,-1.434696544004517627e+00,3.158257717404283637e-05,8.604840925475016888e-01,-1.568173215460882730e+00,3.158257912938958244e-05,8.604840927400436712e-01,-1.568173215100687523e+00
2.199999999999999734e-01,2.470930526916340075e-02,-3.397465885361542775e-06,3.656810975288916077e-01,-1.107200501853838709e-05,-2.499838816246617232e-02,-4.717776757521969051e-07,9.996874914024216352e-01,3.295376024842637449e-05,7.786069500341586958e-01,-1.402580881525518297e+00,3.295375150744316327e-05,7.786069502790494701e-01,-1.402580881625909770e+00,3.288996093107558587e-05,8.495125796800441220e-01,-1.537785364698815327e+00,3.288996605963897879e-05,8.495125798644095338e-01,-1.537785364360225060e+00
2.399999999999999634e-01,2.600712374092729526e-02,-3.758376271395552833e-06,3.696676661482724557e-01,-1.209551046471554158e-05,-2.442187925828850567e-02,-5.000533554816955422e-07,9.997017413543611841e-01,3.599285417679420727e-05,7.671728195408954454e-01,-1.374696968485672688e+00,3.599286512881505267e-05,7.671728197370758506e-01,-1.374696968564869781e+00,3.593847500338279193e-05,8.376351096018473941e-01,-1.508880463208975398e+00,3.593846909370143085e-05,8.376351097531201662e-01,-1.508880462936363465e+00
2.599999999999999534e-01,2.712917621370477053e-02,-4.250913062730505337e-06,3.731846318151769148e-01,-1.353116858311106825e-05,-2.347418133225359638e-02,-5.338485622153146675e-07,9.997244433479672843e-01,4.025701360787011803e-05,7.565357315029533902e-01,-1.350949503099314164e+00,4.025701761111301851e-05,7.565357316555546552e-01,-1.350949503159586840e+00,4.021337662702545446e-05,8.252919082833574116e-01,-1.481811084562676406e+00,4.021337490030544372e-05,8.252919084026802965e-01,-1.481811084350736829e+00
2.799999999999999711e-01,2.809211687438917943e-02,-4.864701204963457531e-06,3.762442775740154621e-01,-1.533836923677005308e-05,-2.228076016631713036e-02,-5.709279126098903379e-07,9.997517529321063856e-01,4.562656872689751928e-05,7.468771483184230009e-01,-1.331066287641038182e+00,4.562656715428578172e-05,7.468771484381271364e-01,-1.331066287686609062e+00,4.559274166702122769e-05,8.130027953131946372e-01,-1.456915611096299079e+00,4.559274112633558771e-05,8.130027954062223339e-01,-1.456915610932260297e+00
2.999999999999999889e-01,2.890681377663909674e-02,-5.613900375054800418e-06,3.788644308030642005e-01,-1.755760969028913855e-05,-2.096112267760874212e-02,-6.112907507538851417e-07,9.997802913777861233e-01,5.222119893396016618e-05,7.383076058025755950e-01,-1.314708010062119348e+00,5.222120283489739052e-05,7.383076058901271166e-01,-1.314708010093789792e+00,5.219774236965754306e-05,8.012265201746592291e-01,-1.434488612586419798e+00,5.219774265125868792e-05,8.012265202410920883e-01,-1.434488612469258850e+00
3.200000000000000067e-01,2.959280122725753415e-02,-6.517307849221498524e-06,3.810698437742591205e-01,-2.024495865466950022e-05,-1.962131648914903354e-02,-6.555335223562808631e-07,9.998074832331195205e-01,6.020637975425953187e-05,7.309027820484926830e-01,-1.301478592638649623e+00,6.020638096329600388e-05,7.309027820916128571e-01,-1.301478592653109390e+00,6.019642602970857911e-05,7.903699790376577106e-01,-1.414739698860304928e+00,6.019642771906819593e-05,7.903699790687832571e-01,-1.414739698804818424e+00
3.400000000000000244e-01,3.015872948855138555e-02,-7.579517495760593722e-06,3.828894465441374240e-01,-2.341340296687860622e-05,-1.834163391239826413e-02,-7.033673398711324242e-07,9.998317778090178853e-01,6.961998277199110512e-05,7.246584324503368979e-01,-1.290994445516023825e+00,6.961998499622252428e-05,7.246584324301416080e-01,-1.290994445507962052e+00,6.962816411534443386e-05,7.806941263358502248e-01,-1.397776576012323524e+00,6.962816504532460713e-05,7.806941263183748703e-01,-1.397776576041309005e+00
3.600000000000000422e-01,3.061278929056300557e-02,-8.775622072648855097e-06,3.843541651210058419e-01,-2.698706432463618453e-05,-1.718394710713608275e-02,-7.532930029811808124e-07,9.998523447154334942e-01,8.023631090693325064e-05,7.195366787013620646e-01,-1.282884249609570482e+00,8.023631319570782145e-05,7.195366785989297798e-01,-1.282884249573583268e+00,8.026732494869727246e-05,7.723769542140377364e-01,-1.383631354243414657e+00,8.026732550491892648e-05,7.723769541344556178e-01,-1.383631354379677214e+00
3.800000000000000600e-01,3.096051535178879002e-02,-1.004306909788534896e-05,3.854945700163631139e-01,-3.077760356732132599e-05,-1.619342852012207665e-02,-8.027561580090463740e-07,9.998688773658566120e-01,9.149579623544354954e-05,7.154741155807238240e-01,-1.276809685045314557e+00,9.149579808305540254e-05,7.154741153815306065e-01,-1.276809684977279202e+00,9.155325972652528959e-05,7.655210466978982220e-01,-1.372278993508780243e+00,9.155325919782747652e-05,7.655210465457379376e-01,-1.372278993769657562e+00
4.000000000000000777e-01,3.120445963654715910e-02,-1.128157414541470588e-05,3.863394920847143532e-01,-3.448444657809322773e-05,-1.539957528320956906e-02,-8.484568293569755773e-07,9.998814189148630405e-01,1.025054995895043368e-04,7.123904423336948621e-01,-1.272479382436678907e+00,1.025054987596434714e-04,7.123904420300266604e-01,-1.272479382334585685e+00,1.025911626200775407e-04,7.601615643252710441e-01,-1.363648396459763212e+00,1.025911617794245134e-04,7.601615640951130404e-01,-1.363648396854047373e+00
4.200000000000000955e-01,3.134434907170335211e-02,-1.236039138285691669e-05,3.869135558507812434e-01,-3.771645657328751472e-05,-1.481946401248055226e-02,-8.866022388587628482e-07,9.998901850018658832e-01,1.121034749098096461e-04,7.102029618466825234e-01,-1.269663247010720974e+00,1.121034716638631115e-04,7.102029614391690560e-01,-1.269663246875227136e+00,1.122165982745298768e-04,7.562882632034018116e-01,-1.357649514266228374e+00,1.122165961930803892e-04,7.562882628963352172e-01,-1.357649514792048207e+00
4.400000000000001132e-01,3.137828491351701832e-02,-1.313213775425186055e-05,3.872359857768939984e-01,-4.003244801326384249e-05,-1.446035757196377676e-02,-9.129562369787999817e-07,9.998954427616222329e-01,1.189793860782572551e-04,7.088377208722260736e-01,-1.268197007403130794e+00,1.189793813169368346e-04,7.088377203726021758e-01,-1.268197007238543117e+00,1.191158407626064680e-04,7.538636503260673916e-01,-1.354190132279650349e+00,1.191158370853417442e-04,7.538636499519832945e-01,-1.354190132920787937e+00
4.600000000000001310e-01,3.130302685687490899e-02,-1.345160370437933606e-05,3.873206943659501800e-01,-4.099606635361846682e-05,-1.432409721044694724e-02,-9.228861522874802741e-07,9.998974040158202792e-01,1.218379020244115776e-04,7.082328657852493548e-01,-1.267970196442812059e+00,1.218378962740607798e-04,7.082328652207188213e-01,-1.267970196258647375e+00,1.219888728360354343e-04,7.528398435782590603e-01,-1.353189048768957736e+00,1.219888680217887767e-04,7.528398431593015250e-01,-1.353189049489065932e+00
4.800000000000001488e-01,3.111426622666687777e-02,-1.319782699314508749e-05,3.871759733745236964e-01,-4.024045506052070629e-05,-1.440804116442867717e-02,-9.113934678841507653e-07,9.998961979774096953e-01,1.195912890448727270e-04,7.083416720692199409e-01,-1.268926803868156927e+00,1.195912834279427644e-04,7.083416714898539412e-01,-1.268926803681688753e+00,1.197413889321205770e-04,7.531645323624284183e-01,-1.354582217328863081e+00,1.197413837968616733e-04,7.531645319385006365e-01,-1.354582218061864074e+00
5.000000000000001110e-01,3.080673749877357523e-02,-1.229839637534197086e-05,3.868040318277256584e-01,-3.754021792397698988e-05,-1.470391029057264813e-02,-8.734758657531394435e-07,9.998918909622859230e-01,1.115735464310551591e-04,7.091344634311272932e-01,-1.271072800885478582e+00,1.115735426231298028e-04,7.091344629199149985e-01,-1.271072800725136176e+00,1.116986431624600171e-04,7.547793672700947587e-01,-1.358323708312522138e+00,1.116986388171783685e-04,7.547793669059528199e-01,-1.358323708949776387e+00
5.200000000000001288e-01,3.037369476627052936e-02,-1.075591939318411548e-05,3.862012180191433663e-01,-3.289118423801170183e-05,-1.519687767113712430e-02,-8.053743961349079199e-07,9.998845202454981207e-01,9.777716333876712237e-05,7.105955968625103925e-01,-1.274476929928896940e+00,9.777716203110234405e-05,7.105955965440793332e-01,-1.274476929837250916e+00,9.784309405442159107e-05,7.576144186358633181e-01,-1.364382099097715573e+00,9.784309222145791927e-05,7.576144184267152859e-01,-1.364382099477016386e+00
5.400000000000001465e-01,2.980629741671123739e-02,-8.677349421905038968e-06,3.853586678496047635e-01,-2.660121912904199058e-05,-1.586351740146433806e-02,-7.071271551518577702e-07,9.998741661366836730e-01,7.912174799026169239e-05,7.127174617371935250e-01,-1.279270771242462024e+00,7.912174868744093164e-05,7.127174617775435816e-01,-1.279270771276285634e+00,7.908590764611118950e-05,7.615763903780901067e-01,-1.372730158836245051e+00,7.908590972131988742e-05,7.615763904478515256e-01,-1.372730158742543782e+00
5.600000000000001643e-01,2.909338221326024029e-02,-6.305172751439406116e-06,3.842633437447646183e-01,-1.939065520864008231e-05,-1.666792974047148768e-02,-5.867026400118202129e-07,9.998610802215600613e-01,5.774986695551257316e-05,7.154925805581590081e-01,-1.285650144417382457e+00,5.774987434696404450e-05,7.154925811415762116e-01,-1.285650144640129389e+00,5.756854471172265589e-05,7.665298579970566406e-01,-1.383326364125617713e+00,5.756854543110334697e-05,7.665298584792512582e-01,-1.383326363321165875e+00
5.800000000000001821e-01,2.821963595979422659e-02,-4.042326485333213942e-06,3.828994564665190170e-01,-1.247942488065714165e-05,-1.755374982094773731e-02,-4.652118674553910821e-07,9.998459209854642094e-01,3.728187383511846569e-05,7.188971837608559845e-01,-1.293885118922360133e+00,3.728187306225294980e-05,7.188971850263575769e-01,-1.293885119383073823e+00,3.692636726273177403e-05,7.722581310926102116e-01,-1.396083074707408667e+00,3.692637701563371739e-05,7.722581320824647433e-01,-1.396083073013125952e+00
6.000000000000001998e-01,2.716652624938877686e-02,-2.447825853884978079e-06,3.812503660047243947e-01,-7.591140464868951911e-06,-1.844205911245412263e-02,-3.808861482786897424e-07,9.998299307371840694e-01,2.282339610403158855e-05,7.228817320161637916e-01,-1.304305877133091762e+00,2.282342132782661930e-05,7.228817339504001183e-01,-1.304305877831080984e+00,2.230586263615929276e-05,7.784515208371713957e-01,-1.410848575233374813e+00,2.230585575843633969e-05,7.784515223158617880e-01,-1.410848572664988643e+00
6.200000000000002176e-01,2.590511187191128425e-02,-2.168582753930657851e-06,3.792985248709516144e-01,-6.765198310169392243e-06,-1.922925641866772908e-02,-3.866958833947953165e-07,9.998151007319642236e-01,2.040561239013868235e-05,7.273448719579188593e-01,-1.317304236823181762e+00,2.040559246372693151e-05,7.273448742847326010e-01,-1.317304237669849165e+00,1.980728798717304779e-05,7.846794062279101034e-01,-1.427406583307294863e+00,1.980732233116202796e-05,7.846794079877491557e-01,-1.427406580217839061e+00
6.400000000000002354e-01,2.441432962348244820e-02,-3.796493421108019305e-06,3.770350002264564182e-01,-1.193296278253311303e-05,-1.977997372370269083e-02,-5.364987254452563157e-07,9.998043571103329974e-01,3.573263892243786123e-05,7.321381622519730348e-01,-1.333268363144769264e+00,3.573267148396522209e-05,7.321381643784374837e-01,-1.333268363934885015e+00,3.521670745591010717e-05,7.903862029985034843e-01,-1.445387698464560833e+00,3.521671688350861345e-05,7.903862045983052198e-01,-1.445387695631979108e+00
6.600000000000002531e-01,2.265637988824846516e-02,-7.679492037820869512e-06,3.744528729599766459e-01,-2.433534342246559192e-05,-1.993081573090656894e-02,-8.595712485917535101e-07,9.998013612670032524e-01,7.246650350563698501e-05,7.370158883070987432e-01,-1.352619254977846630e+00,7.246653838866108015e-05,7.370158893629560337e-01,-1.352619255371753981e+00,7.225551049434723926e-05,7.948594024171720118e-01,-1.464340057265461237e+00,7.225553651938891229e-05,7.948594031818000394e-01,-1.464340055884127079e+00
6.800000000000002709e-01,2.058313536386351117e-02,-1.378499698292940225e-05,3.715510665526149947e-01,-4.407427891395592840e-05,-1.947910481746474923e-02,-1.328018609504596889e-06,9.998102632655880839e-01,1.309117081883655288e-04,7.416203549951281282e-01,-1.375799926968781728e+00,1.309117427728637172e-04,7.416203540466695943e-01,-1.375799926527599082e+00,1.312249613110621279e-04,7.971985753467523139e-01,-1.483672489279658890e+00,1.312250062218111300e-04,7.971985744947962527e-01,-1.483672490713048964e+00
7.000000000000002887e-01,1.814090519423086287e-02,-2.161856564618363515e-05,3.683554827768224516e-01,-6.980283334736647576e-05,-1.823881934928892751e-02,-1.832932334636333328e-06,9.998336564613879984e-01,2.071050188055272208e-04,7.454321359290826399e-01,-1.402949156083644677e+00,2.071050402697852176e-04,7.454321325137818199e-01,-1.402949154465979786e+00,2.080701613907780256e-04,7.964525597971151560e-01,-1.502660316228050519e+00,2.080701738682287931e-04,7.964525568717566451e-01,-1.502660321246455766e+00
7.200000000000003064e-01,1.527035951422931088e-02,-2.962859654802739827e-05,3.648889744370352184e-01,-9.669348973403354963e-05,-1.596793782579675886e-02,-2.151564513513795141e-06,9.998724996754992933e-01,2.868306187910331330e-04,7.478339191888473403e-01,-1.434329088628256255e+00,2.868305673053475721e-04,7.478339141496631592e-01,-1.434329086023923505e+00,2.882857139495072023e-04,7.914861039569585088e-01,-1.520458263235451524e+00,2.882856669093250687e-04,7.914860994734874700e-01,-1.520458270852532712e+00
7.400000000000003242e-01,1.189095394248228590e-02,-3.445070754691193301e-05,3.612025843790271362e-01,-1.137224324069730815e-04,-1.242510203818946585e-02,-1.993018698092000567e-06,9.999227989712889952e-01,3.375593951063578669e-04,7.479567809105522880e-01,-1.469928767880703591e+00,3.375592741991585211e-04,7.479567763364614041e-01,-1.469928765165203766e+00,3.388319886331098347e-04,7.810249585361594971e-01,-1.536030727260868201e+00,3.388318725684275555e-04,7.810249540566210902e-01,-1.536030734623035521e+00
7.600000000000003419e-01,7.919642607624509043e-03,-3.162894121931498722e-05,3.573471730386457712e-01,-1.056924446470913266e-04,-7.375504494954011545e-03,-1.232300257294556577e-06,9.999727950104609908e-01,3.141970861615448049e-04,7.448228613486977956e-01,-1.509650804195585394e+00,3.141969909936399982e-04,7.448228607176000660e-01,-1.509650803652871742e+00,3.144234576232820774e-04,7.638445725238270922e-01,-1.548346369219609553e+00,3.144233645662448495e-04,7.638445716237075578e-01,-1.548346370539569028e+00
7.800000000000003597e-01,3.266757720175113028e-03,-1.831014047866495127e-05,3.534190546930535692e-01,-6.200242934743922742e-05,-5.781759322334428927e-04,-3.328280941450674859e-07,9.999998309340754066e-01,1.848958741242131144e-04,7.371439930797621942e-01,-1.553026935326292435e+00,1.848959100857359365e-04,7.371439969965472017e-01,-1.553026938267247248e+00,1.838676282806472005e-04,7.385808701290341727e-01,-1.556019427302816283e+00,1.838676633385493927e-04,7.385808746159376881e-01,-1.556019420311929080e+00
8.000000000000003775e-01,-2.160751258867798109e-03,3.815030241042010727e-07,3.495416730857050513e-01,1.270469963154916547e-06,8.134693539315099656e-03,-2.693837965876833171e-07,9.999669128322870026e-01,-3.288588196388807296e-06,7.234400180756828114e-01,-1.599150064422828699e+00,-3.288512951241064745e-06,7.234400212788756335e-01,-1.599150067486063032e+00,-4.261033527861653281e-06,7.040845177888931383e-01,-1.557619414242720879e+00,-4.260955007047340142e-06,7.040845223826335264e-01,-1.557619407581449789e+00
8.200000000000003952e-01,-8.460832359030796140e-03,9.837713544634015870e-06,3.458791046913828326e-01,3.422325805467933766e-05,1.881818791272066652e-02,-9.790191665165233713e-07,9.998229216373726302e-01,-1.019343155036315113e-04,7.020362750202892022e-01,-1.646501884343207101e+00,-1.019343048965223804e-04,7.020362737105035889e-01,-1.646501882965198504e+00,-1.016097187045508923e-04,6.595038121426963773e-01,-1.551650953998730209e+00,-1.016097106529432125e-04,6.595038101678577513e-01,-1.551650956790638247e+00
8.400000000000004130e-01,-1.573744563144512110e-02,7.606924830537212472e-06,3.426401937609943049e-01,2.686934596703799023e-05,3.137164122861210019e-02,-1.190499879111522221e-06,9.995077885655739847e-01,-8.030794743431911092e-05,6.711481543603592392e-01,-1.692841609080526499e+00,-8.030794288204800744e-05,6.711481521557409735e-01,-1.692841605829693785e+00,-7.950586710573793862e-05,6.043851561555410035e-01,-1.536594145151905844e+00,-7.950586069165769350e-05,6.043851514126296065e-01,-1.536594151245384676e+00
8.600000000000004308e-01,-2.409511960907257874e-02,1.889924038194317466e-06,3.400917218343916804e-01,6.729207680836296591e-06,4.544036240074018906e-02,-5.416274378609312031e-07,9.989670532201319064e-01,-1.993393070494125716e-05,6.291214383307643931e-01,-1.734920753360171597e+00,-1.993391488770150693e-05,6.291214388031841631e-01,-1.734920754490223205e+00,-2.007146992631474091e-05,5.388979802866672442e-01,-1.511010777983254449e+00,-2.007145427216721717e-05,5.388979820100342488e-01,-1.511010775999829470e+00
8.800000000000004485e-01,-3.362651338561001985e-02,9.231018253000768304e-07,3.385571006341586697e-01,3.301021848799637095e-06,6.023832155068641059e-02,-3.852541533922730437e-07,9.981840234173812165e-01,-9.694896509624635196e-06,5.750388985509743422e-01,-1.768169166149913263e+00,-9.694879518222226453e-06,5.750388990742355544e-01,-1.768169168090069299e+00,-9.913101408730425342e-06,4.643000309038354256e-01,-1.473932953326961615e+00,-9.913079355118169328e-06,4.643000339095758044e-01,-1.473932950144918541e+00
9.000000000000004663e-01,-4.437659084518585234e-02,4.902899578164878405e-06,3.384429298182105583e-01,1.819372996922353935e-05,7.416603953949753303e-02,-1.660021918000919753e-06,9.972459066074216283e-01,-5.536795624935650682e-05,5.099574630308297829e-01,-1.785921622640522122e+00,-5.536792775113149353e-05,5.099574617950040079e-01,-1.785921612636305333e+00,-5.296727244887591531e-05,3.839290454899433880e-01,-1.425612125065723212e+00,-5.296725552216328638e-05,3.839290293143527433e-01,-1.425612140684541451e+00
9.200000000000004841e-01,-5.626382177991540862e-02,-2.433087337890575482e-07,3.403069333466306468e-01,-9.407409486349430338e-07,8.390436671422589476e-02,4.501720315448347090e-08,9.964738116204547858e-01,2.992056648358488467e-06,4.394100986012773880e-01,-1.777594515383597695e+00,2.992132169715846840e-06,4.394101003771750391e-01,-1.777594516368049549e+00,2.650724193587772122e-06,3.057177012729744292e-01,-1.369520430085320983e+00,2.650867761429920199e-06,3.057177010056316147e-01,-1.369520429055407496e+00
9.400000000000005018e-01,-6.897067966717193577e-02,-2.607430019593206185e-05,3.449831386508349085e-01,-1.009143196359532473e-04,8.267968206455086899e-02,8.751625532307961766e-06,9.965761686461370727e-01,3.077334565445145171e-04,3.767852849504637613e-01,-1.724672525506720122e+00,3.077334194267884694e-04,3.767852794516030057e-01,-1.724672543139525116e+00,2.873231248331563716e-04,2.473030744409232817e-01,-1.316764937602874941e+00,2.873230134784312889e-04,2.473031134383255059e-01,-1.316764909552267770e+00
9.600000000000005196e-01,-8.204587696622125947e-02,1.341510703937311242e-05,3.539877906877170743e-01,4.732488469641067653e-05,5.815113312968018394e-02,-2.942313647180097663e-06,9.983077899462832194e-01,-1.443271285295693413e-04,3.404142860917660496e-01,-1.589417953649378212e+00,-1.443269276570987745e-04,3.404142889955092954e-01,-1.589417939012123693e+00,-1.378263190574993517e-04,2.419632997466167890e-01,-1.290477931695966030e+00,-1.378260357774427672e-04,2.419632704095836806e-01,-1.290477954558520546e+00
9.800000000000005373e-01,-9.573052912867723030e-02,5.326060319632401358e-05,3.699315061102422808e-01,1.700882166608354740e-04,-8.639440197992771450e-03,1.677920608814212817e-06,9.999626648731684275e-01,-5.045145041588920036e-04,3.247450861701194902e-01,-1.278301055946394982e+00,-5.045148605069357415e-04,3.247450882211295187e-01,-1.278301063215728561e+00,-5.071807867316852026e-04,3.429348939802661644e-01,-1.327325852367813752e+00,-5.071811538441711210e-04,3.429349076869931956e-01,-1.327325838886294962e+00
1.000000000000000444e+00,-1.122626291874046639e-01,1.121392183222980976e-04,3.974717225977782986e-01,1.451020967958578656e-03,-1.202185725776723224e-01,-4.271966365220587151e-04,9.927462953084091879e-01,-1.346346746472570606e-03,1.810790737576283282e-01,-1.528740407574429305e+00,-1.346346746867243399e-03,1.810790737559198893e-01,-1.528740407574280091e+00,-9.098016161286292050e-03,1.610897014405607286e-02,-1.571679268777784744e+00,-9.098016160854335496e-03,1.610897014285716383e-02,-1.571679268777287364e+00
1.020000000000000462e+00,-1.219645129794994509e-01,1.560367986189392577e-04,4.199776583633952343e-01,2.872931734346459518e-03,-2.599810215072043684e-01,-3.670792915527444308e-04,9.656093827071658975e-01,-4.615985800406580825e-03,3.637501200767051523e-01,-1.657432182439954271e+00,-4.615985800364200663e-03,3.637501200762588982e-01,-1.657432182440420787e+00,-1.671271414766408586e-02,-1.690227368868733870e-01,-1.718857519968566949e+00,-1.671271414777572920e-02,-1.690227368872643243e-01,-1.718857519969156478e+00
1.040000000000000480e+00,-1.285278052783089264e-01,2.013487039789801285e-04,4.399885146316547813e-01,2.438094878080205360e-03,-4.071389438979264308e-01,-2.975684476265741613e-04,9.133629330710030247e-01,-2.925172300100772112e-03,6.298536075350767982e-01,-1.683338801896451464e+00,-2.925172300077695086e-03,6.298536075326405248e-01,-1.683338801894966652e+00,-1.831808893817010037e-02,-2.866472377565945084e-01,-1.781379846618868834e+00,-1.831808893825801962e-02,-2.866472377552748418e-01,-1.781379846616828466e+00
1.060000000000000497e+00,-1.329285355878284391e-01,2.373157357035950914e-04,4.584319884545861590e-01,1.067701282285189908e-03,-5.506639852605439422e-01,-5.450630672119419944e-04,8.347261456652714795e-01,6.813745437975381397e-04,8.902657079424031172e-01,-1.690571892967165146e+00,6.813745436839260036e-04,8.902657079423924591e-01,-1.690571892969127799e+00,-1.505136563821334733e-02,-3.013691717268431880e-01,-1.799934464225340758e+00,-1.505136563848911632e-02,-3.013691717316305807e-01,-1.799934464226646824e+00
1.080000000000000515e+00,-1.359895844365657525e-01,2.525866719193368580e-04,4.750831240171303760e-01,-1.576230484392689179e-04,-6.815177853007687858e-01,-9.608653096500729268e-04,7.318009020297573386e-01,2.265941341765840070e-03,1.119256038169549994e+00,-1.685392280179730307e+00,2.265941341762539325e-03,1.119256038171589696e+00,-1.685392280179911939e+00,-8.902550204054483773e-03,-2.950786169627215294e-01,-1.807823122124156079e+00,-8.902550203666790424e-03,-2.950786169631319789e-01,-1.807823122125032933e+00
1.100000000000000533e+00,-1.380187069084770901e-01,2.417392019649525041e-04,4.900940952470892453e-01,-1.203472351274554068e-03,-7.944325700594205841e-01,-1.609993035888698798e-03,6.073490357327554490e-01,3.181070202410747269e-03,1.317012707460060161e+00,-1.676904283320244993e+00,3.181070201789217532e-03,1.317012707461149068e+00,-1.676904283319946343e+00,-1.157837734084392551e-03,-2.836684041572499759e-01,-1.811825091108341335e+00,-1.157837733453065746e-03,-2.836684041568876546e-01,-1.811825091108756780e+00
1.120000000000000551e+00,-1.393476885613508243e-01,2.061147432568745299e-04,5.037682401480658712e-01,-2.095714902898497111e-03,-8.855149781582364321e-01,-2.678192452003897231e-03,4.645983843295774518e-01,6.886503430473697035e-03,1.507609191346257704e+00,-1.681767652509058353e+00,6.886503432846765790e-03,1.507609191342377697e+00,-1.681767652508940669e+00,6.248855813402230328e-03,-2.558643727305381921e-01,-1.811789048375698874e+00,6.248855812242804474e-03,-2.558643727296424641e-01,-1.811789048374283784e+00
1.140000000000000568e+00,-1.405261195790372675e-01,1.620902877903958317e-04,5.160354227454782006e-01,-2.531527651845052324e-03,-9.513794542091927875e-01,-3.948430166721807535e-03,3.079856090397486978e-01,1.350351619336480694e-02,1.697727516084567512e+00,-1.717561913426908449e+00,1.350351619114087756e-02,1.697727516087200517e+00,-1.717561913426862708e+00,1.199387499989897077e-02,-2.024027429885980056e-01,-1.809250710480734714e+00,1.199387499930552707e-02,-2.024027429897851671e-01,-1.809250710481398627e+00
1.160000000000000586e+00,-1.422827900474795682e-01,1.329783513048395614e-04,5.259114901735570946e-01,-2.191756985178200303e-03,-9.896491785619435655e-01,-4.580985378998912207e-03,1.434179700942170566e-01,1.876246758983642418e-02,1.821685161959366361e+00,-1.789596998071054434e+00,1.876246759057521515e-02,1.821685161961790866e+00,-1.789596998071014688e+00,1.475271038487924007e-02,-1.167902286937060330e-01,-1.806757007237419721e+00,1.475271038562111017e-02,-1.167902286941485263e-01,-1.806757007237470791e+00
1.180000000000000604e+00,-1.449913515048347756e-01,1.013530429422699556e-04,5.314079965322154875e-01,-1.363928753247383883e-03,-9.997276767682471421e-01,-4.025570888581042096e-03,-2.294573557199969249e-02,1.909617607756512042e-02,1.728010405212552225e+00,-1.815055187816755122e+00,1.909617607761273511e-02,1.728010405214486678e+00,-1.815055187816608129e+00,1.442412475715356898e-02,2.434495443981309244e-03,-1.805281316318187557e+00,1.442412475764878570e-02,2.434495445193653271e-03,-1.805281316318146922e+00
1.200000000000000622e+00,-1.470348025487400179e-01,4.815262026109138564e-05,5.328150091990326853e-01,-6.255717313279879734e-04,-9.823863282245007822e-01,-2.579596840614945680e-03,-1.868423304760788162e-01,1.364112821424677546e-02,1.483059119082889232e+00,-1.734505539656724160e+00,1.364112821372208580e-02,1.483059119080058830e+00,-1.734505539656675310e+00,1.313510869583028873e-02,1.455612952364677692e-01,-1.804792701919072373e+00,1.313510869512969116e-02,1.455612952364969126e-01,-1.804792701918600972e+00
1.220000000000000639e+00,-1.484394665709403149e-01,3.345882845321991551e-05,5.328165941020612806e-01,3.343890930436224347e-04,9.393189622533354433e-01,3.732082822341363255e-04,3.430446560592800842e-01,6.243912016863467987e-03,1.309138097906346276e+00,-1.605204772524873702e+00,6.243912017373152296e-03,1.309138097904211095e+00,-1.605204772524840617e+00,8.344366156034521004e-03,3.064898272592908035e-01,-1.801256548097751820e+00,8.344366156405972137e-03,3.064898272588780781e-01,-1.801256548097585952e+00
1.240000000000000657e+00,-1.507327060152058307e-01,4.918962772791261135e-05,5.309147700746171816e-01,5.608486819653217461e-04,8.730862856317889165e-01,-1.641822963770948711e-03,4.875626397785188249e-01,2.114898327609385025e-04,1.246658579199030115e+00,-1.503541400406412487e+00,2.114898326650216842e-04,1.246658579200851324e+00,-1.503541400406150030e+00,2.246030530310444851e-03,4.839140857813020724e-01,-1.790712971566305045e+00,2.246030530246769658e-03,4.839140857824701936e-01,-1.790712971566933653e+00
1.260000000000000675e+00,-1.547787280692032863e-01,8.250361902591846208e-05,5.255477069092235887e-01,1.132479554941951370e-03,7.856111518754421708e-01,-3.191193025824451239e-03,6.187112830925831641e-01,-3.111995894172055622e-03,1.325715681371062438e+00,-1.447599574913223108e+00,-3.111995894275012327e-03,1.325715681369097343e+00,-1.447599574913006171e+00,-5.304688384059388570e-03,6.731013116218623749e-01,-1.775166257269310544e+00,-5.304688383922943028e-03,6.731013116213921954e-01,-1.775166257268655512e+00
1.280000000000000693e+00,-1.595248496786643155e-01,1.123560871116265937e-04,5.154577706357335032e-01,1.706307337509381777e-03,6.792871099647959099e-01,-3.849587618624596662e-03,7.338605394937868232e-01,-3.898558955031088818e-03,1.461905110950357578e+00,-1.402806516611335930e+00,-3.898558954956568134e-03,1.461905110950116882e+00,-1.402806516611323273e+00,-1.171099428762800189e-02,8.681675637300340087e-01,-1.755555588145140788e+00,-1.171099428769576886e-02,8.681675637299277604e-01,-1.755555588145067736e+00
1.300000000000000711e+00,-1.639559612251992038e-01,1.254421578530700481e-04,5.004012350565535394e-01,1.687730817195431466e-03,5.578134727067198817e-01,-3.392358465703662965e-03,8.299576935817862822e-01,9.708357088509479075e-05,1.587333666714396241e+00,-1.344514476105563849e+00,9.708357088815991161e-05,1.587333666715039504e+00,-1.344514476105489242e+00,-1.547420260517217393e-02,1.058146003646639910e+00,-1.727128870890932921e+00,-1.547420260513432226e-02,1.058146003647105537e+00,-1.727128870891016188e+00
1.320000000000000728e+00,-1.675889389641972982e-01,1.210500791225513264e-04,4.804920226900732949e-01,1.300254597656355865e-03,4.254661581029653417e-01,-2.553341884343757282e-03,9.049697995470928902e-01,5.024965036318795354e-03,1.677018962201453300e+00,-1.273246760043533987e+00,5.024965036290829010e-03,1.677018962199993135e+00,-1.273246760043343029e+00,-1.678852335177653810e-02,1.231645950717871862e+00,-1.679425382093397534e+00,-1.678852335182184560e-02,1.231645950717496829e+00,-1.679425382092826213e+00
1.340000000000000746e+00,-1.701830968133322131e-01,1.010323626014583036e-04,4.560248479647418529e-01,1.576745104759497357e-03,2.865805754598019783e-01,-2.014260285819725882e-03,9.580527284025156520e-01,-6.491362474659066262e-04,1.710907811562271119e+00,-1.183153891337867636e+00,-6.491362474901935138e-04,1.710907811562212277e+00,-1.183153891337642705e+00,-1.387101672903730785e-02,1.378303473324813400e+00,-1.592323048771804528e+00,-1.387101672910450063e-02,1.378303473325230621e+00,-1.592323048771598470e+00
1.360000000000000764e+00,-1.717653357777864376e-01,4.199609375233928871e-05,4.276087418722225308e-01,1.101685132020736608e-03,1.452099302970295824e-01,-1.035539907694141021e-03,9.893997119921257299e-01,-9.118505878213112315e-03,1.642701097302727620e+00,-1.048868811799005041e+00,-9.118505878343109022e-03,1.642701097298604473e+00,-1.048868811799972045e+00,-2.607979597334585294e-03,1.494616486010604373e+00,-1.454598574530109767e+00,-2.607979597111829886e-03,1.494616486007513290e+00,-1.454598574530448385e+00
1.380000000000000782e+00,-1.734610510980570675e-01,2.893740377387577208e-05,3.957909152344725179e-01,7.733829940851536877e-04,5.076152256855593660e-03,-4.117573240559701088e-04,9.999867324184434914e-01,-9.609680261169257012e-03,1.420718668162528120e+00,-8.408303702730195450e-01,-9.609680260932671955e-03,1.420718668167116672e+00,-8.408303702718327166e-01,1.751842782545309785e-03,1.592195431829335650e+00,-1.329489401843792606e+00,1.751842781843920968e-03,1.592195431832612140e+00,-1.329489401843042096e+00
1.400000000000000799e+00,-1.800356921730535409e-01,-2.341841968859768726e-07,3.611848078480117685e-01,-1.481625331860321641e-06,-1.103219587865676143e-01,2.088157716910206205e-07,9.938959027017145731e-01,3.439727688760622386e-06,1.069463245575237753e+00,-8.958761446828658048e-01,3.439733637780904042e-06,1.069463221882277049e+00,-8.958761526836935829e-01,5.644203378445794573e-06,1.503384181108009310e+00,-1.495657701841968334e+00,5.644219012019336104e-06,1.503384185893595681e+00,-1.495657707353271082e+00
1.420000000000000817e+00,-1.929679648157090754e-01,9.333808884506673021e-06,3.284997953381625924e-01,4.537552130639011661e-05,-1.671269854547087763e-01,9.225213090647065454e-06,9.859353774912325008e-01,-1.260754283365002630e-04,1.236193930141370689e+00,-1.071370706709964260e+00,-1.260754388518115681e-04,1.236193982957493942e+00,-1.071370690936944481e+00,-1.444570552559678949e-04,1.857161076304842506e+00,-1.809246058743641861e+00,-1.444570742007121329e-04,1.857161068414118210e+00,-1.809246047545105984e+00
1.440000000000000835e+00,-2.058230975569548260e-01,3.220377341538689639e-07,3.109422240785083003e-01,9.517905567647671818e-07,-1.841510783603027557e-01,5.116217410075183576e-07,9.828979501136270169e-01,-3.497757351333908621e-06,1.310576520135556144e+00,-1.208868702280266882e+00,-3.497760529622642976e-06,1.310576501991737253e+00,-1.208868707674615850e+00,-1.902319399516879139e-06,1.987556719535022109e+00,-1.957255969475525381e+00,-1.902311804218588735e-06,1.987556721812111737e+00,-1.957255976361684358e+00
1.460000000000000853e+00,-2.182808811231577717e-01,-1.204834442306416170e-06,3.031385432908331179e-01,-7.424135657873472930e-06,-1.793838921825963995e-01,-1.292289492515641785e-06,9.837791516232872180e-01,1.942826216810089937e-05,1.328296167127896776e+00,-1.310971911941072765e+00,1.942827905666574950e-05,1.328296130110162787e+00,-1.310971921391704154e+00,2.529862667285002689e-05,1.982238313538254637e+00,-2.027605356879426779e+00,2.529862821462755610e-05,1.982238317423890894e+00,-2.027605370605305435e+00
1.480000000000000870e+00,-2.297539062402902676e-01,7.448362135032283909e-06,3.012299904509235793e-01,3.792212865196895456e-05,-1.649257426907521917e-01,7.948729697285638422e-06,9.863059859377482086e-01,-1.062130155416375106e-04,1.314735761327119112e+00,-1.384401828429279169e+00,-1.062130367274533211e-04,1.314735803626117860e+00,-1.384401820271468964e+00,-1.206510133692427050e-04,1.906408465875975011e+00,-2.052136198690086122e+00,-1.206510224784477809e-04,1.906408463025597744e+00,-2.052136179342859634e+00
1.500000000000000888e+00,-2.400629813969902826e-01,1.835344774646148101e-06,3.029254130291478275e-01,8.193426526099142730e-06,-1.468114976902126501e-01,1.905015158847881998e-06,9.891644878761041149e-01,-2.417948834456080736e-05,1.284073032848702889e+00,-1.435906946348305180e+00,-2.417947932826727012e-05,1.284073034083473619e+00,-1.435906946237633486e+00,-2.445688596269154406e-05,1.798523505250319010e+00,-2.045567343798321058e+00,-2.445687768006738478e-05,1.798523505275460899e+00,-2.045567342823910728e+00
1.520000000000000906e+00,-2.492506496704540164e-01,8.190011995769901847e-07,3.068625766589164749e-01,3.165245893716069929e-06,-1.281277554335252811e-01,9.350264106786792490e-07,9.917576711458669925e-01,-1.003124687765472035e-05,1.244118181484908936e+00,-1.470126225246933371e+00,-1.003124496687025906e-05,1.244118166715533436e+00,-1.470126227671294528e+00,-8.549888763689922818e-06,1.680854313161961988e+00,-2.017739707817836070e+00,-8.549883885099481443e-06,1.680854313908960007e+00,-2.017739715770531461e+00
1.540000000000000924e+00,-2.574161331256288876e-01,2.324601664266781336e-06,3.121862568639610092e-01,9.553671979614234203e-06,-1.102144977479896509e-01,1.727962633064439611e-06,9.939078248972084140e-01,-2.838543139346851426e-05,1.199408362928420235e+00,-1.490860954675501837e+00,-2.838542398140755563e-05,1.199408363410920053e+00,-1.490860954495794477e+00,-2.833461003126638700e-05,1.564593216051513469e+00,-1.975692807863360656e+00,-2.833461562580683274e-05,1.564593215893953948e+00,-1.975692807858477895e+00
1.560000000000000941e+00,-2.646600346858874464e-01,3.484095311304989308e-06,3.183773276932040375e-01,1.389133064020702466e-05,-9.381107253343053121e-02,2.042452695712430899e-06,9.955900172626214184e-01,-4.107704758365207924e-05,1.152635463765193435e+00,-1.500343143392508294e+00,-4.107705850593977104e-05,1.152635468316022482e+00,-1.500343143014100100e+00,-4.149259299975654645e-05,1.455421419015490603e+00,-1.924674498806461020e+00,-4.149258833020274710e-05,1.455421419092389090e+00,-1.924674495859010070e+00
1.580000000000000959e+00,-2.710839636997851021e-01,3.470933853113642565e-06,3.250411163285500393e-01,1.328046693560721099e-05,-7.925575216347595375e-02,1.756627738240130745e-06,9.968543151180844220e-01,-3.953054009237806356e-05,1.105709928296179090e+00,-1.500609321293957965e+00,-3.953053793322964740e-05,1.105709927400190917e+00,-1.500609321242157401e+00,-3.937171194125359692e-05,1.355862294197914153e+00,-1.868796795528606891e+00,-3.937170718243628752e-05,1.355862294028310489e+00,-1.868796796338910049e+00
1.600000000000000977e+00,-2.767741676778170401e-01,3.529002929467632430e-06,3.318925556806046617e-01,1.302579521080436712e-05,-6.667473130669056280e-02,1.558080948649052003e-06,9.977747641793119904e-01,-3.898293874419916271e-05,1.059950766019582602e+00,-1.493323117728578842e+00,-3.898292398996700458e-05,1.059950761912304085e+00,-1.493323117518579046e+00,-3.838648587877853066e-05,1.266735528798055954e+00,-1.811101836339547688e+00,-3.838649356162448758e-05,1.266735528064305116e+00,-1.811101839868914487e+00
1.620000000000000995e+00,-2.818137785261103367e-01,4.933169869468536609e-06,3.387088424747372595e-01,1.774026698723213700e-05,-5.601468083883875959e-02,1.733457185325682916e-06,9.984299450701591416e-01,-5.293855474225883667e-05,1.016273578587137960e+00,-1.480140253041616560e+00,-5.293855123259162974e-05,1.016273575775761273e+00,-1.480140252747034868e+00,-5.249103618890638010e-05,1.187837515634504237e+00,-1.753785092846770644e+00,-5.249102133694370282e-05,1.187837514910905945e+00,-1.753785095502579550e+00
1.640000000000001013e+00,-2.862664285914484630e-01,7.828154223961999387e-06,3.453334213704832290e-01,2.749598064932282738e-05,-4.715435007495204917e-02,2.123512304135810544e-06,9.988876145535445783e-01,-8.174122750464080664e-05,9.752675095304118580e-01,-1.462432834118218894e+00,-8.174121664356898554e-05,9.752675096352824147e-01,-1.462432834087207700e+00,-8.174375199762673255e-05,1.118587957222639373e+00,-1.698356660777456506e+00,-8.174374512614690697e-05,1.118587957175403824e+00,-1.698356660782965211e+00
1.660000000000001030e+00,-2.902046448416661373e-01,1.148351726111498141e-05,3.516459191658064531e-01,3.942124757860061330e-05,-3.992731336745804216e-02,2.482080856019621872e-06,9.992025861090739758e-01,-1.170237913145388050e-04,9.372694356098127955e-01,-1.441488057612864582e+00,-1.170237879534320833e-04,9.372694377745748318e-01,-1.441488057937163392e+00,-1.174111685967835249e-04,1.058211833435620308e+00,-1.645911793775221010e+00,-1.174111617075049351e-04,1.058211834148132802e+00,-1.645911791646970102e+00
1.680000000000001048e+00,-2.936842143626104407e-01,1.500851963472139195e-05,3.575958974862950002e-01,5.043233332215609155e-05,-3.419740475885129499e-02,2.684302025090499868e-06,9.994150964224692846e-01,-1.496900888247825292e-04,9.023452387862619384e-01,-1.418040988022063242e+00,-1.496900892642916896e-04,9.023452415661946668e-01,-1.418040988541368286e+00,-1.502449053780377660e-04,1.005964993398564600e+00,-1.597075999209566666e+00,-1.502449076169908211e-04,1.005964994513180999e+00,-1.597075996295695965e+00
1.700000000000001066e+00,-2.967706697382402337e-01,1.782138817061355618e-05,3.631008185838245361e-01,5.874161525857506360e-05,-2.974604867346873280e-02,2.727021265079909783e-06,9.995574866561210969e-01,-1.744160591210007570e-04,8.705968004919620862e-01,-1.393322660421824066e+00,-1.744160680410250356e-04,8.705968028992154828e-01,-1.393322660942236446e+00,-1.749411319752491607e-04,9.610187742682112511e-01,-1.552413532365357174e+00,-1.749411355147929815e-04,9.610187753863569382e-01,-1.552413529715321427e+00
1.720000000000001084e+00,-2.995242903796758727e-01,1.975297800873668941e-05,3.681345108344808437e-01,6.400493285729036235e-05,-2.635563018837275978e-02,2.662738302058617394e-06,9.996526279931704506e-01,-1.901355070472178737e-04,8.418993273353259088e-01,-1.368200154225018617e+00,-1.901355138405262755e-04,8.418993289550650294e-01,-1.368200154621032283e+00,-1.905238538938197254e-04,9.224436145156832412e-01,-1.512047059008042371e+00,-1.905238655408634878e-04,9.224436153752899603e-01,-1.512047057137743789e+00
1.740000000000001101e+00,-3.019797506923812547e-01,2.094030031095377067e-05,3.726683613845141463e-01,6.684448323754184546e-05,-2.387641562156168559e-02,2.554228176835796814e-06,9.997149155145967914e-01,-1.986548941506209619e-04,8.162275088778189192e-01,-1.343384854535483175e+00,-1.986549012028289006e-04,8.162275097463203011e-01,-1.343384854776002557e+00,-1.988909365526734824e-04,8.896906667617745512e-01,-1.476202912698837189e+00,-1.988909418009776608e-04,8.896906672903942548e-01,-1.476202911636280923e+00
1.760000000000001119e+00,-3.041847159832578584e-01,2.165333603346123020e-05,3.767145284618518830e-01,6.822715715606082504e-05,-2.210844077868300353e-02,2.442982316515465671e-06,9.997555762212193553e-01,-2.028255324825890924e-04,7.933405023035144943e-01,-1.319469371941328184e+00,-2.028255390455083814e-04,7.933405026479044553e-01,-1.319469372056507384e+00,-2.029427747234285396e-04,8.618812203218315648e-01,-1.444644474466433515e+00,-2.029427766562483834e-04,8.618812205778479951e-01,-1.444644473999281198e+00
1.780000000000001137e+00,-3.061792980405572684e-01,2.211511494927347575e-05,3.802776793004813416e-01,6.890567682855430786e-05,-2.088773736804039674e-02,2.349036964292918943e-06,9.997818250369094883e-01,-2.048779465128973670e-04,7.730673101798218871e-01,-1.297016172536093581e+00,-2.048779492311828703e-04,7.730673102525418283e-01,-1.297016172578955295e+00,-2.049258223763655536e-04,8.383315400840565257e-01,-1.417206493214320018e+00,-2.049258297039331428e-04,8.383315401773709930e-01,-1.417206493072905804e+00
1.800000000000001155e+00,-3.079975551441552217e-01,2.245294486893628091e-05,3.833792843703850428e-01,6.929163915778485607e-05,-2.008794436889908483e-02,2.277812112287429114e-06,9.997982144835588780e-01,-2.060371574703500795e-04,7.552048293503489385e-01,-1.276358834656363239e+00,-2.060371527802434051e-04,7.552048293658216727e-01,-1.276358834677555398e+00,-2.060630061809579354e-04,8.184503974631477385e-01,-1.393643832062263499e+00,-2.060630160545578386e-04,8.184503975087173977e-01,-1.393643832003720551e+00
1.820000000000001172e+00,-3.096711300803365874e-01,2.268705778466643385e-05,3.860468161695880807e-01,6.944837831434044263e-05,-1.959329944776217261e-02,2.223595288237010446e-06,9.998080304682137598e-01,-2.064982351569091910e-04,7.395395066234189407e-01,-1.257754198467719631e+00,-2.064982424460324348e-04,7.395395067173498038e-01,-1.257754198501958909e+00,-2.065355769366103162e-04,8.016668451226751646e-01,-1.373641153543002424e+00,-2.065355745502911195e-04,8.016668452046610271e-01,-1.373641153406705007e+00
1.840000000000001190e+00,-3.112268083714310740e-01,2.275554177401297929e-05,3.883117234720487310e-01,6.918531038548121517e-05,-1.932198230150927384e-02,2.176215784049152998e-06,9.998133106778470669e-01,-2.057023566162413284e-04,7.258675342767865191e-01,-1.241317630054603161e+00,-2.057023632567074730e-04,7.258675345092994169e-01,-1.241317630119033844e+00,-2.057684525102460699e-04,7.875234645387180210e-01,-1.356898848609993324e+00,-2.057684537091683248e-04,7.875234647014878187e-01,-1.356898848320176931e+00
1.860000000000001208e+00,-3.126872402562124176e-01,2.256056008596542061e-05,3.902040178815549543e-01,6.820683765977345807e-05,-1.922433699550459354e-02,2.125070096609888009e-06,9.998151930283889488e-01,-2.027774285960231334e-04,7.140116255673459866e-01,-1.227063723706573128e+00,-2.027774339308257472e-04,7.140116259398885390e-01,-1.227063723803657025e+00,-2.028753445624005959e-04,7.756882086970996459e-01,-1.343178987740411445e+00,-2.028753493267390422e-04,7.756882089489157694e-01,-1.343178987289770365e+00
1.880000000000001226e+00,-3.140713475197454696e-01,2.201600345033310525e-05,3.917507442785717608e-01,6.625645625801456168e-05,-1.926690688537379889e-02,2.061095371256864320e-06,9.998143737238949225e-01,-1.969660291119042911e-04,7.038190332582099362e-01,-1.214964690125253988e+00,-1.969660345884023168e-04,7.038190337298095844e-01,-1.214964690246502999e+00,-1.970878972744659146e-04,7.659025442000536588e-01,-1.332280250142415134e+00,-1.970879023591009117e-04,7.659025445200571269e-01,-1.332280249574506303e+00
1.900000000000001243e+00,-3.153944863889387440e-01,2.107738641165627852e-05,3.929754109300047649e-01,6.320331556556025275e-05,-1.943324380652578301e-02,1.978678989350880559e-06,9.998111546870147581e-01,-1.878820167398172159e-04,6.951627716386412636e-01,-1.204951785675531184e+00,-1.878820215164378026e-04,6.951627721482561695e-01,-1.204951785806812392e+00,-1.880138948441534513e-04,7.579865520791703171e-01,-1.324051387606383079e+00,-1.880138990633429836e-04,7.579865524299191915e-01,-1.324051386990648060e+00
1.920000000000001261e+00,-3.166689763821384784e-01,1.975103834486246975e-05,3.938973366981339264e-01,5.906611765601813398e-05,-1.971969059874470465e-02,1.875878126373702643e-06,9.998055462490517131e-01,-1.755818676392204643e-04,6.879412080325256751e-01,-1.196934535027507351e+00,-1.755818708382361965e-04,6.879412085168365998e-01,-1.196934535153285850e+00,-1.757080596142095977e-04,7.518255154687040198e-01,-1.318389438266277525e+00,-1.757080620896233519e-04,7.518255158075274336e-01,-1.318389437677571552e+00
1.940000000000001279e+00,-3.179047967453373369e-01,1.808924755219217407e-05,3.945320582213059368e-01,5.399627594405297007e-05,-2.013143899054183755e-02,1.753852975812874693e-06,9.997973405873293862e-01,-1.605152276514184586e-04,6.820732947715683059e-01,-1.190811464394048169e+00,-1.605152286357098017e-04,6.820732951762603635e-01,-1.190811464500081573e+00,-1.606213234233767905e-04,7.473526252732718422e-01,-1.315228985731860423e+00,-1.606213239246997320e-04,7.473526255604304724e-01,-1.315228985236931880e+00
1.960000000000001297e+00,-3.191103311861449021e-01,1.617748413309740926e-05,3.948918536603620022e-01,4.823935387314523396e-05,-2.067858888921847438e-02,1.615920790113913531e-06,9.997861739551633375e-01,-1.434109670824343808e-04,6.774934567881272240e-01,-1.186480303351350463e+00,-1.434109658302020677e-04,6.774934570725978933e-01,-1.186480303425955674e+00,-1.434853895166466383e-04,7.445308549359532790e-01,-1.314529028528663046e+00,-1.434853882819215340e-04,7.445308551389395735e-01,-1.314529028179970638e+00
1.980000000000001315e+00,-3.202930204065861375e-01,1.411896841313992426e-05,3.949857095236722904e-01,4.209019559947089741e-05,-2.137182217599563686e-02,1.466582689700189682e-06,9.997715956372946744e-01,-1.251443784003035973e-04,6.741491428688953791e-01,-1.183854212487342794e+00,-1.251443755030812860e-04,6.741491430056443246e-01,-1.183854212521514571e+00,-1.251786350540067363e-04,7.433357626469950796e-01,-1.316261921141460567e+00,-1.251786324730742796e-04,7.433357627413487156e-01,-1.316261920977102040e+00
2.000000000000001332e+00,-3.214599507275321955e-01,1.202067353145664115e-05,3.948189206148068342e-01,3.585315281388920490e-05,-2.221784503453094403e-02,1.310817022913182334e-06,9.997531525706007116e-01,-1.066192727879720242e-04,6.720000269250873126e-01,-1.182881730327722591e+00,-1.066192690975907039e-04,6.720000268961440204e-01,-1.182881730314562674e+00,-1.066074437464919485e-04,7.437390193321349319e-01,-1.320403880321008749e+00,-1.066074402096607338e-04,7.437390193001046645e-01,-1.320403880368136385e+00
2.020000000000001350e+00,-3.226185006109897890e-01,9.983277598560860364e-06,3.943929138781011590e-01,2.981418324377715297e-05,-2.321502230878514164e-02,1.153793527494414607e-06,9.997304946079147436e-01,-8.868504947672776388e-05,6.710158892996369584e-01,-1.183563727459205683e+00,-8.868504601903299427e-05,6.710158890927820918e-01,-1.183563727393278198e+00,-8.862319659264459714e-05,7.456915658625452581e-01,-1.326924200128056119e+00,-8.862319224757192850e-05,7.456915656914550050e-01,-1.326924200406528254e+00
2.040000000000001368e+00,-3.237770673682783262e-01,8.096587364006926210e-06,3.937055953224173899e-01,2.422901016653036232e-05,-2.434931028948648241e-02,1.001040850031144960e-06,9.997035112974143045e-01,-7.210116728761586805e-05,6.711716565601583140e-01,-1.185964055246400140e+00,-7.210116552636670830e-05,6.711716561678183757e-01,-1.185964055123884364e+00,-7.198738268713908536e-05,7.491056438633851844e-01,-1.335771587626887635e+00,-7.198737710066201720e-05,7.491056435457889018e-01,-1.335771588149710531e+00
2.060000000000001386e+00,-3.249454716171415458e-01,6.439210272075410603e-06,3.927522092738413573e-01,1.932362133698649464e-05,-2.558987602508318304e-02,8.588859874118263979e-07,9.996725253156059088e-01,-5.753808864521693016e-05,6.724404151661387274e-01,-1.190215538426112829e+00,-5.753808490120344198e-05,6.724404145890406914e-01,-1.190215538246239158e+00,-5.737365813429434400e-05,7.538349010313305509e-01,-1.346856289683853625e+00,-5.737365541347622566e-05,7.538349005685268667e-01,-1.346856290451871718e+00
2.080000000000001403e+00,-3.261354020613799198e-01,5.076145515065283819e-06,3.915267405516733579e-01,1.528815368857432152e-05,-2.688226660538590301e-02,7.344893601207851669e-07,9.996386064512964298e-01,-4.555888351548219019e-05,6.747825410820209591e-01,-1.196527831843229084e+00,-4.555887906994363486e-05,6.747825403334297700e-01,-1.196527831609373260e+00,-4.535011987689593069e-05,7.596441792918673386e-01,-1.360022348924252888e+00,-4.535011827778372384e-05,7.596441786979601929e-01,-1.360022349918307283e+00
2.100000000000001421e+00,-3.273633912579371197e-01,4.074535455192049566e-06,3.900210726866004118e-01,1.232624769072790181e-05,-2.815534234139993944e-02,6.373544425527532066e-07,9.996035596901883258e-01,-3.676422430702454920e-05,6.781405144885002123e-01,-1.205168171620862205e+00,-3.676423018893064284e-05,6.781405136177399706e-01,-1.205168171347732242e+00,-3.652753654079123855e-05,7.662297296549229753e-01,-1.375078255279433170e+00,-3.652752916413981127e-05,7.662297289731404559e-01,-1.375078256433046819e+00
2.120000000000001439e+00,-3.286492483451906033e-01,3.496766240771518329e-06,3.882275293030741925e-01,1.063537268674543482e-05,-2.931713996707194583e-02,5.781986510282854008e-07,9.995701602142320619e-01,-3.173434900144387212e-05,6.824274581892167957e-01,-1.216447176632834859e+00,-3.173434124285958330e-05,6.824274573038864311e-01,-1.216447176353238291e+00,-3.150085978399015836e-05,7.732004545606668833e-01,-1.391769491468806130e+00,-3.150086193430247589e-05,7.732004538771400926e-01,-1.391769492639024275e+00
2.140000000000001457e+00,-3.300049561428021749e-01,3.377622005569151249e-06,3.861461990814790135e-01,1.033814928557945960e-05,-3.024758903419352482e-02,5.652024410191808155e-07,9.995424369432354128e-01,-3.082689549058452297e-05,6.875212592405633982e-01,-1.230673856961331136e+00,-3.082692397403759336e-05,6.875212585133168020e-01,-1.230673856729227467e+00,-3.064269645336651737e-05,7.800610068810898134e-01,-1.409708629049126749e+00,-3.064267143111601720e-05,7.800610063284392215e-01,-1.409708630006533792e+00
2.160000000000001474e+00,-3.314533124414831278e-01,3.691026893361874011e-06,3.837772244268415345e-01,1.137959531832814948e-05,-3.081719308124212381e-02,5.981398433149354731e-07,9.995250374456562392e-01,-3.387506009722635926e-05,6.932466320161756457e-01,-1.248156328215557886e+00,-3.387499176496100320e-05,6.932466316585137456e-01,-1.248156328103084967e+00,-3.379305184521824967e-05,7.862541395996590632e-01,-1.428493696459040896e+00,-3.379310523420185240e-05,7.862541393394250067e-01,-1.428493696921725231e+00
2.180000000000001492e+00,-3.330172722172897171e-01,4.360701261136671989e-06,3.811404874839262047e-01,1.355181862227557073e-05,-3.089203807882371158e-02,6.666387375739591768e-07,9.995227270048642199e-01,-4.026204716307818640e-05,6.993228658551934318e-01,-1.269022166747969527e+00,-4.026211802917383864e-05,6.993228660917393258e-01,-1.269022166841475174e+00,-4.033250573436517235e-05,7.911410856074961861e-01,-1.447582498261981820e+00,-4.033244393913472029e-05,7.911410858097238652e-01,-1.447582497922184297e+00
2.200000000000001510e+00,-3.347221283984387896e-01,5.114970755200815472e-06,3.782520282000529366e-01,1.603322144601272513e-05,-3.030094363758315673e-02,7.326960110419395910e-07,9.995408208557922114e-01,-4.756528023650818249e-05,7.054379554029311938e-01,-1.293509782226840876e+00,-4.756521055650882250e-05,7.054379562789150349e-01,-1.293509782567011879e+00,-4.779504540176348379e-05,7.939719464606054267e-01,-1.466376549495896020e+00,-4.779511205287071101e-05,7.939719471738277967e-01,-1.466376548268729652e+00
2.220000000000001528e+00,-3.365622712667816763e-01,5.571542455180353106e-06,3.751624704822871248e-01,1.762417513712571121e-05,-2.891156752068989311e-02,7.446206664153768448e-07,9.995819731029219612e-01,-5.224865851415240589e-05,7.112247023099456111e-01,-1.321437637302073975e+00,-5.224870049477774175e-05,7.112247035924664784e-01,-1.321437637834760759e+00,-5.257903014730399107e-05,7.941235187532414974e-01,-1.484160691970604073e+00,-5.257900308392993410e-05,7.941235198216847202e-01,-1.484160690136576033e+00
2.240000000000001545e+00,-3.385321014960062658e-01,5.310870323585541458e-06,3.719319619058270021e-01,1.696133215213459214e-05,-2.659117453769564710e-02,6.561390577087157144e-07,9.996463920550048288e-01,-5.028923967356863588e-05,7.162666247735228753e-01,-1.352546484191141651e+00,-5.028923847018641372e-05,7.162666259618604148e-01,-1.352546484740720256e+00,-5.059494268891212375e-05,7.909659423674426648e-01,-1.500177300348661369e+00,-5.059495131778592332e-05,7.909659434092837227e-01,-1.500177298590199548e+00
2.260000000000001563e+00,-3.406127809801881567e-01,3.998817776750118662e-06,3.686408123929034719e-01,1.289817135229358148e-05,-2.331009731958295569e-02,4.566641176508592363e-07,9.997282826830399260e-01,-3.828922013062364163e-05,7.201607818121280591e-01,-1.386141011552895153e+00,-3.828923074088731976e-05,7.201607823254329022e-01,-1.386141011836072856e+00,-3.842278822926298716e-05,7.842228524109411403e-01,-1.513825898476333309e+00,-3.842279392194795803e-05,7.842228529120720548e-01,-1.513825897666235099e+00
2.280000000000001581e+00,-3.427349432700651510e-01,1.530598301769134595e-06,3.654455257914092647e-01,4.986315966258952917e-06,-1.920701151111840754e-02,1.923218872240961785e-07,9.998155283270566684e-01,-1.489101794784377464e-05,7.225149703701165826e-01,-1.420564802575849050e+00,-1.489099725023398544e-05,7.225149698454987890e-01,-1.420564802313273312e+00,-1.475909255182789810e-05,7.741223348141770266e-01,-1.524452847328611194e+00,-1.475911473125518057e-05,7.741223343553389480e-01,-1.524452848109996150e+00
2.300000000000001599e+00,-3.448015268081698892e-01,-1.437765093376317605e-06,3.625870994137575520e-01,-4.720628795655046698e-06,-1.444401863477867004e-02,-2.258703725824293271e-08,9.998956797103352168e-01,1.387473958471235379e-05,7.228472129799138335e-01,-1.453646841023320757e+00,1.387477331539320158e-05,7.228472117197358715e-01,-1.453646840259882111e+00,1.420895160924150004e-05,7.608125416636153382e-01,-1.530917978003187407e+00,1.420901746573171022e-05,7.608125403982136659e-01,-1.530917980044241622e+00
2.320000000000001616e+00,-3.467601502917334044e-01,-3.085466240940476642e-06,3.606142160590993240e-01,-1.019571582524037924e-05,-9.461829439764776403e-03,-7.628473355523730540e-08,9.999552358379321104e-01,3.016865619761663651e-05,7.198182349190487272e-01,-1.480489587559922215e+00,3.016765211341854974e-05,7.198182338754669507e-01,-1.480489586835352922e+00,3.047631099192307159e-05,7.442267525206180956e-01,-1.530730891756902468e+00,3.047529554592326388e-05,7.442267513539925217e-01,-1.530730893566859985e+00
2.340000000000001634e+00,-3.486191772264697342e-01,-1.872779269783800416e-06,3.593326980599219622e-01,-6.213074659887848442e-06,-4.731059908643382890e-03,-1.490338409011620699e-08,9.999888084541438404e-01,1.841259139964732157e-05,7.145703628606366875e-01,-1.501464206636295096e+00,1.841561353224307546e-05,7.145703625842683149e-01,-1.501464206403027246e+00,1.853904326351836447e-05,7.265845915775855923e-01,-1.526464762515335138e+00,1.854210196062889085e-05,7.265845912026167586e-01,-1.526464763070817021e+00
2.360000000000001652e+00,-3.500000004188828506e-01,-1.430604031952278448e-11,3.613098429053352989e-01,3.943481886035754156e-12,-6.050569172991764156e-10,4.270674007615126081e-11,1.000000000000000000e+00,9.245500457880397402e-10,6.999999998625068276e-01,-1.500000003489018852e+00,-1.945298441392332712e-09,6.999999994433712125e-01,-1.500000003774779822e+00,1.971710755360419716e-09,6.999999998674565349e-01,-1.500000003635920676e+00,-9.354761806332629059e-10,6.999999994417398508e-01,-1.500000003751872590e+00
2.380000000000001670e+00,-3.499999999999999778e-01,0.000000000000000000e+00,3.113099999999999756e-01,0.000000000000000000e+00,0.000000000000000000e+00,0.000000000000000000e+00,1.000000000000000000e+00,0.000000000000000000e+00,6.999999999999999556e-01,-1.500000000000000000e+00,0.000000000000000000e+00,6.999999999999999556e-01,-1.500000000000000000e+00,0.000000000000000000e+00,6.999999999999999556e-01,-1.500000000000000000e+00,0.000000000000000000e+00,6.999999999999999556e-01,-1.500000000000000000e+00
