yusongmin1/go2_flip_TO/datasets/go2/trajectories/quad_walk_forward_ramp_3s/trajectory_full.csv
t,base_tx,base_ty,base_tz,quat_x,quat_y,quat_z,quat_w,FL_hip_joint,FL_thigh_joint,FL_calf_joint,FR_hip_joint,FR_thigh_joint,FR_calf_joint,RL_hip_joint,RL_thigh_joint,RL_calf_joint,RR_hip_joint,RR_thigh_joint,RR_calf_joint
0.000000000000000000e+00,0.000000000000000000e+00,0.000000000000000000e+00,3.113099999999999756e-01,0.000000000000000000e+00,0.000000000000000000e+00,0.000000000000000000e+00,1.000000000000000000e+00,0.000000000000000000e+00,6.999999999999999556e-01,-1.500000000000000000e+00,0.000000000000000000e+00,6.999999999999999556e-01,-1.500000000000000000e+00,0.000000000000000000e+00,6.999999999999999556e-01,-1.500000000000000000e+00,0.000000000000000000e+00,6.999999999999999556e-01,-1.500000000000000000e+00
5.000000000000000278e-02,2.894085312783625623e-03,4.462062452713398491e-04,3.084211528902491839e-01,4.162297170559119477e-03,-1.229968126056122518e-02,4.121844664029219139e-03,9.999071974537028229e-01,-1.501131767406497890e-02,7.249985730539940665e-01,-1.489398443591213095e+00,-1.499508621889730255e-02,7.308872219632328582e-01,-1.486378044291412515e+00,-4.867335490449015145e-03,7.532058491481473661e-01,-1.547774775358786714e+00,-4.833996165051523790e-03,7.657727279081941729e-01,-1.557860091545569592e+00
1.000000000000000056e-01,7.287303501596918698e-03,1.371457108307017406e-03,3.065529215324901413e-01,3.672601496865577058e-03,-2.680100872134751067e-02,7.142311355202313021e-03,9.996085260332010503e-01,-2.032014514228219770e-02,7.549431596030153901e-01,-1.468892016327638439e+00,-2.022107553308396741e-02,7.611418955317673651e-01,-1.456354249451925487e+00,-2.838439814267899961e-03,8.189169385612700136e-01,-1.598209967692642675e+00,-2.732872942303293459e-03,8.376396557574622426e-01,-1.608370189613120838e+00
1.500000000000000222e-01,1.257902849515584072e-02,2.860555565751345380e-03,3.102950983666056817e-01,-4.752297016208127667e-03,-3.828812976082626718e-02,2.870317471965812620e-03,9.992513177725100837e-01,-2.814581167793798414e-03,7.717484617496540578e-01,-1.416882784207377899e+00,-2.735792924181009843e-03,7.645406036626637425e-01,-1.393110031234289226e+00,3.980284768535099875e-03,8.730773449248580009e-01,-1.614828809592778969e+00,4.009152629615431174e-03,8.720210876965539537e-01,-1.601884128284619235e+00
2.000000000000000111e-01,1.459465943857449211e-02,4.397932001971267997e-03,3.218674284356902726e-01,-6.639801814374212026e-03,-2.985114489262008855e-02,-3.392423931534837428e-03,9.995265447402257308e-01,2.010477234582740483e-02,7.651918132907561954e-02,-1.930502392737753814e+00,3.647638821560042141e-03,7.187874858684796253e-01,-1.332113405380767501e+00,-5.158869782667560057e-03,8.235541678169432389e-01,-1.525164146784764307e+00,-6.995214013279607568e-02,3.606869283808813997e-01,-2.119349333357907206e+00
2.500000000000000000e-01,2.158095815090596212e-02,5.593609136318737803e-03,3.290876861335096382e-01,-6.734848742924176047e-03,-2.868434468813536170e-02,-6.893879597180391401e-03,9.995420574474701558e-01,-9.903271364170046498e-02,-2.888287383431504263e-01,-2.076551902279169415e+00,4.073209063804373621e-03,7.080907706876936603e-01,-1.279973627672371217e+00,-1.317081961597930256e-02,8.220961470738388233e-01,-1.476525569146147188e+00,8.622097830964653431e-02,1.018790282249039530e-01,-2.248209265549790281e+00
2.999999999999999889e-01,3.094734301824005399e-02,5.829895533356635635e-03,3.305637898353003812e-01,-8.848602098659232376e-03,-2.839667517157146853e-02,-1.628875571993206386e-02,9.994248383531381119e-01,-6.929777273484737099e-02,-3.375804124881774393e-01,-2.028111280529491189e+00,1.666143628550116260e-02,7.239524340112746259e-01,-1.273283428098245018e+00,-2.315533406335286426e-02,8.566992000485177394e-01,-1.471261927645436618e+00,5.750506682174397199e-02,4.365504923010931487e-02,-2.200609873156611940e+00
3.499999999999999778e-01,4.240872489393976430e-02,5.611122852807203833e-03,3.283093908586375842e-01,7.712656418926947845e-03,-1.884431339741518552e-02,-2.696292084746899215e-02,9.994290408442796370e-01,1.220146193755129171e-01,-2.045109004463213365e-01,-1.844202337075233178e+00,-5.548631698840078737e-03,7.627715519530039456e-01,-1.337260169373492902e+00,-7.224582766664272571e-02,8.696276138498593156e-01,-1.449896780503289184e+00,-1.419288104372043446e-01,2.510256145195497446e-01,-1.990754438552405858e+00
3.999999999999999667e-01,5.315134676688885312e-02,5.135382413968005676e-03,3.280231697283036429e-01,2.422959270983733940e-02,-5.293755263060194102e-03,-2.446869147715611051e-02,9.993929087849913184e-01,-3.728068164796338735e-02,5.047257240837329517e-01,-1.312086493006455745e+00,-1.053421750920945366e-01,-3.560477574479002823e-03,-1.871265906645594335e+00,1.065928750806624248e-01,3.919803267694876303e-01,-2.021270296176008507e+00,2.805059471839531013e-02,8.316830095029689174e-01,-1.448398875923366358e+00
4.499999999999999556e-01,6.604405721134554152e-02,5.015526773730560710e-03,3.251905340116534315e-01,3.927241617915213506e-02,6.408163217511920508e-03,-3.136986597214979494e-02,9.987154471021856272e-01,-5.844899809396417872e-02,5.500861532793900333e-01,-1.368265062574215873e+00,9.475581442943638300e-02,-4.929454861678199684e-01,-2.015080421196893123e+00,-9.050565191768360218e-02,6.604689771281935240e-02,-2.144072395004644083e+00,-1.323344599336615662e-02,8.313380834247349194e-01,-1.429100667722960294e+00
4.999999999999999445e-01,8.327054335655575956e-02,5.260336084591739868e-03,3.227221919314404719e-01,4.794225109031429594e-02,1.548597616155090659e-02,-2.268590555637723175e-02,9.984723705700645491e-01,-9.148891607258327618e-02,6.040560192730562994e-01,-1.427337829675453529e+00,7.716964943438529845e-02,-6.551391109364935739e-01,-2.021519096297851981e+00,-9.863538368996678518e-02,-9.291111841135898941e-02,-2.096617666044691575e+00,-2.042627621348729397e-02,8.632845642571825850e-01,-1.410533308917224504e+00
5.499999999999999334e-01,1.039445123795686987e-01,5.539655117909737629e-03,3.218265501634064996e-01,2.791098276042160500e-02,3.494212408059675645e-02,-7.608265476208966697e-03,9.989705397570677325e-01,-7.558623499000419188e-02,6.605720472268337140e-01,-1.518005516394332677e+00,-1.530066651079673434e-01,-3.400997377651207021e-01,-1.911477983773135492e+00,6.885166124222463768e-02,5.288975858376878530e-02,-1.913559950170668156e+00,3.920517693791591290e-02,8.478927180765731819e-01,-1.320773116745770137e+00
5.999999999999999778e-01,1.261059260358557144e-01,4.066102065033610699e-03,3.212067930973928620e-01,-2.383995358972658060e-02,5.371574618177340360e-02,-9.262761819734719555e-04,9.982712142686523960e-01,1.063353401899546080e-01,1.571943417339119334e-03,-2.059763691474596925e+00,2.802129166366851276e-02,4.713489024766099322e-01,-1.514620870080065407e+00,-7.727532307818969770e-02,5.424785874735906788e-01,-1.364933278969926667e+00,-1.240388890841303549e-01,1.030460303282411783e+00,-1.940287177597661117e+00
6.500000000000000222e-01,1.472626410447967771e-01,4.290060410997249309e-03,3.205279996369601592e-01,-3.996822605269954171e-02,6.883490934659462768e-02,1.339857608952415950e-02,9.967370637837340563e-01,-1.365517143442518955e-01,-5.113399904966476894e-01,-2.202116548910750815e+00,3.720341820786852299e-02,5.413096088435348507e-01,-1.558566612198306833e+00,-2.980231587417295561e-02,5.494286940809761655e-01,-1.328286662313476363e+00,9.400022922475861908e-02,1.121311905391315200e+00,-2.164832461848909428e+00
7.000000000000000666e-01,1.715336995373031026e-01,5.534427116543945251e-03,3.204626464561467492e-01,-4.662760774738473890e-02,7.133815664547081548e-02,9.205202693122419705e-03,9.963192248700015741e-01,-1.728334742820479553e-01,-6.786003402397642326e-01,-2.170815008172366056e+00,5.538877945615030413e-02,6.188728652063112401e-01,-1.573102085863202992e+00,-2.299838241565174343e-02,6.143220219265093096e-01,-1.317796376014136017e+00,4.300059180370215117e-02,1.003523126873163474e+00,-2.152122770902169968e+00
7.500000000000001110e-01,1.989282434317176107e-01,8.369864474141694086e-03,3.201320204415299964e-01,-1.102590570137373764e-02,7.440735562163354466e-02,-1.050708204489214127e-02,9.971116166506948097e-01,8.605908900279125862e-02,-4.545475952852938706e-01,-2.003960452564918615e+00,-9.656406316050473743e-04,7.038197896113659313e-01,-1.609509589203134583e+00,-1.223736291602113280e-01,6.719739457754924095e-01,-1.264696120396286316e+00,-1.918168965962637473e-01,7.452063909969866007e-01,-1.920793412715331439e+00
8.000000000000001554e-01,2.264291964713530947e-01,1.385183736670994072e-02,3.215663322476277619e-01,3.892879308670411931e-02,8.457795170848422805e-02,-2.674122907755057191e-02,9.952969535877379537e-01,-2.377554055516540449e-02,3.278526980790408829e-01,-1.526888006517693075e+00,-1.715589077616875013e-01,-1.131294040102412968e-01,-2.137535086352374769e+00,1.200620015833503279e-01,6.553542261718174888e-01,-1.855564830987174174e+00,7.308443719907839475e-02,5.634908795925231972e-01,-1.272561595778169519e+00
8.500000000000001998e-01,2.571327881403432380e-01,1.664141102382732731e-02,3.218933368236420178e-01,6.794412730815695134e-02,7.619726135592494454e-02,-4.886946733574346752e-02,9.935740274828597229e-01,-6.189775629730982082e-02,4.676982976978091844e-01,-1.530400475843605390e+00,1.026437190960424878e-01,-6.073537133047450798e-01,-2.272452714921262107e+00,-9.299280316751518116e-02,5.559369213555257483e-01,-2.037212609065724322e+00,-2.530833272155505465e-02,6.479503732137480432e-01,-1.263226753733653451e+00
9.000000000000002442e-01,2.902538166147917154e-01,1.862952782781606212e-02,3.218426422252128605e-01,7.411648902084864987e-02,7.272548816147490769e-02,-4.779536430497251936e-02,9.934451935450956395e-01,-9.425369345431350299e-02,5.899390196554807897e-01,-1.551551614928419642e+00,1.201495435229447684e-01,-7.471268039994122256e-01,-2.233845012357280613e+00,-8.475305940251050274e-02,3.586930640353868105e-01,-2.024015482887850936e+00,-5.113748536613663825e-02,7.230454226662170747e-01,-1.213020329012193033e+00
9.500000000000002887e-01,3.259462184051993838e-01,1.986602064887415739e-02,3.202955169114043432e-01,3.996695778245914349e-02,8.614488166286278503e-02,-2.704419507749441023e-02,9.951132162530638148e-01,-6.483119462010324130e-02,7.033178003066286044e-01,-1.632218186752599776e+00,-1.224454224882873393e-01,-5.141279224708210638e-01,-2.060006558071316718e+00,1.342594419909876879e-01,2.115516947294774630e-01,-1.805975685102650052e+00,3.447442297947902329e-02,7.284112695872916321e-01,-1.063517996554312894e+00
1.000000000000000222e+00,3.630715258691008529e-01,1.824441837782501616e-02,3.187195053302908088e-01,-5.467290056413914856e-03,1.052431656440460939e-01,-8.437897995257995568e-03,9.943956892012759674e-01,1.478489355774534886e-01,-1.445763452186068498e-01,-2.147985514254632022e+00,2.400503652224977164e-03,2.358962977956362284e-01,-1.592897428507221713e+00,-8.627964531207917009e-02,2.727334726041162338e-01,-1.187438306147754918e+00,-1.223384287795620667e-01,1.302775868091405886e+00,-1.592427156726982540e+00
1.050000000000000266e+00,3.986790477510669395e-01,1.771801804300733585e-02,3.185379943049492790e-01,-3.552444571053798433e-02,1.123814635071613971e-01,1.502441339382858468e-02,9.929162539807266930e-01,-1.157298486320322839e-01,-6.733072292845923013e-01,-2.252548504706247012e+00,1.827733081594234629e-02,3.905512470496236843e-01,-1.647145529907606543e+00,-6.664446192030663157e-03,3.476035388943351512e-01,-1.190077218857225727e+00,1.045761543923855730e-01,1.630607592863343003e+00,-1.777489637618727247e+00
1.100000000000000311e+00,4.351033110451030805e-01,1.793285225726700891e-02,3.206793530084465216e-01,-5.294218991522850470e-02,1.146253605369341316e-01,1.231787938875217661e-02,9.919205719694101919e-01,-1.327500119370300935e-01,-8.494653595140132518e-01,-2.201463688550164832e+00,6.575211485767862296e-02,5.175158824905146115e-01,-1.668676632961194395e+00,2.758831405397934450e-02,4.379257673950722740e-01,-1.169395503115962631e+00,6.410024179572543224e-02,1.501118673401891757e+00,-1.806746328937908652e+00
1.150000000000000355e+00,4.737054099288235398e-01,1.923278762877242767e-02,3.228440005155236436e-01,-2.332834093334171938e-02,1.203678522701188414e-01,-1.426950828288770304e-02,9.923526337862671465e-01,1.048643735808775929e-01,-6.729269706028792042e-01,-2.021018982263021790e+00,4.132854485752462947e-02,6.316247487457947729e-01,-1.706793673121921984e+00,-5.945680639028246700e-02,4.997153485796826389e-01,-1.073576614928984929e+00,-1.974241438619669942e-01,9.837682207416003077e-01,-1.655937869670212059e+00
1.200000000000000400e+00,5.126746330054657852e-01,2.309109461864797611e-02,3.261953593555559361e-01,2.794189019474876967e-02,1.330423729363777174e-01,-4.192904456491370474e-02,9.898287392259712547e-01,8.527884644377639253e-03,1.179029064807359389e-01,-1.547445831941356209e+00,-1.603544802289874338e-01,-1.139201696799274216e-01,-2.205993735122949939e+00,1.375916657199078852e-01,8.783582691238480677e-01,-1.627976974771359719e+00,1.341953599368592431e-01,3.401008473675983246e-01,-1.078791636902080908e+00
1.250000000000000444e+00,5.507975219993828109e-01,2.414956569783596740e-02,3.258583028184007802e-01,6.243035279496155637e-02,1.256962170379083976e-01,-7.446264328904428353e-02,9.872984487107554497e-01,-1.477072839348795089e-02,3.137728508127487492e-01,-1.592275578406865177e+00,1.186311654108141850e-01,-6.735644808214735768e-01,-2.304305704161712320e+00,-9.756795218759423127e-02,1.074564565359687363e+00,-1.804968729135829619e+00,1.845008889068486257e-02,4.325915882940595258e-01,-1.069440990788900425e+00
1.300000000000000488e+00,5.894280623302493582e-01,2.328491572925815017e-02,3.261654967385296255e-01,7.107887267141634047e-02,1.187559563161725978e-01,-7.476476255035448271e-02,9.875500225203688309e-01,-5.437456956677354930e-02,4.708643787397274738e-01,-1.623855611776493735e+00,1.449844488834515221e-01,-8.657219252878314286e-01,-2.245773653519644419e+00,-6.424458038061517384e-02,9.444529407158192003e-01,-1.814099672042845501e+00,-1.351501276099350071e-02,5.202735110830508658e-01,-1.015408846173563751e+00
1.350000000000000533e+00,6.289216079619729394e-01,2.086620689702075454e-02,3.256259923820509217e-01,5.080484303894122755e-02,1.240252301409909691e-01,-5.173535892895877314e-02,9.896262238081379170e-01,-5.828544607736431404e-02,5.999875112734381899e-01,-1.679741790275593116e+00,-8.428862889332322528e-02,-6.544677507769059988e-01,-2.069736864045747193e+00,1.830319426392033322e-01,5.979621350360855292e-01,-1.635443272449435881e+00,4.752531296502889718e-02,5.474470644902125205e-01,-8.633621602767150849e-01
1.400000000000000577e+00,6.708565680472092785e-01,1.489648010603064621e-02,3.238914204472828073e-01,1.272028043286474973e-02,1.304043144165820678e-01,-2.850360443260867988e-02,9.909694514875823090e-01,1.942425492667212428e-01,-2.239509333134489730e-02,-2.160163336661105937e+00,7.047930460338122649e-03,1.176663697952778781e-01,-1.601591750655220858e+00,-9.621827590873167912e-02,2.992561864032232677e-01,-1.046575112164346733e+00,-8.203235688122768876e-02,1.238402026949807722e+00,-1.361434943975208034e+00
1.450000000000000622e+00,7.087705835718729475e-01,9.853272866719270731e-03,3.235328493870711086e-01,-1.487902735209251093e-02,1.270276589525318467e-01,1.890407677043127706e-03,9.917857706001379503e-01,-7.115034676180924389e-02,-6.037169634428434239e-01,-2.244989788830598965e+00,6.866070593353887017e-03,3.171178077398250639e-01,-1.658031540342880472e+00,-3.157952716443417941e-03,3.824278087663028347e-01,-1.029071678789520439e+00,1.618808265267805413e-01,1.684939609400428306e+00,-1.524087641364500367e+00
1.500000000000000666e+00,7.473405020200973858e-01,5.686076057739206623e-03,3.251034896232161131e-01,-3.836143278268586143e-02,1.181655325213893937e-01,5.502160253639316878e-03,9.922373877411287957e-01,-1.063804247804828185e-01,-8.433661591638974553e-01,-2.194226568972216462e+00,6.898051941312578761e-02,4.808911906370537115e-01,-1.670345273406052211e+00,5.726180325593383663e-02,4.821180805959200955e-01,-9.932985073380511398e-01,7.743129948638557969e-02,1.628233614682299102e+00,-1.566509163399062210e+00
1.550000000000000711e+00,7.877287991957467872e-01,1.500503134996201970e-03,3.260617640308447474e-01,-2.371891812235486438e-02,1.211979961864681626e-01,-1.745442110855750795e-02,9.921914139052278037e-01,1.002227573421363011e-01,-6.903792150520710047e-01,-2.026054717496055702e+00,9.041260682081125877e-02,6.138199470315925943e-01,-1.714663907182613967e+00,9.206910682095868076e-03,5.197941373156907963e-01,-8.474953420283295458e-01,-2.196054989657287571e-01,1.094874958013311472e+00,-1.477177175058687508e+00
1.600000000000000755e+00,8.298895518901505675e-01,-6.502388835893210990e-04,3.268108295029585331e-01,-3.145441059584515309e-02,1.234746142051409701e-01,-4.627025300340401742e-02,9.907692483055580146e-01,1.582934301953606640e-02,8.981732313742218921e-02,-1.568820448919697075e+00,-1.114580810488198098e-01,-1.135813086750477180e-01,-2.170782971574230391e+00,1.274035444726221988e-01,1.410817461624040092e+00,-1.227161557919762336e+00,1.204323987965916359e-01,3.058827937341649927e-01,-1.001551026760139962e+00
1.650000000000000799e+00,8.658290599454639969e-01,-2.588481658174518907e-03,3.245320559048999742e-01,-4.068914972765895477e-03,1.157776323637012134e-01,-7.124470829760860824e-02,9.907084209366491256e-01,1.003965022914272975e-02,2.826169416733790296e-01,-1.636509263261157754e+00,1.153566150882602559e-01,-6.513878616511363795e-01,-2.255727398151879726e+00,-1.026841174742541551e-01,1.921035932707547245e+00,-1.337531587906819031e+00,3.663440465246508432e-02,4.076045335162251648e-01,-1.017891126900987819e+00
1.700000000000000844e+00,9.018176666978965361e-01,-4.872801715146260308e-03,3.257505048870520392e-01,1.221158515465122635e-02,1.101494742516664904e-01,-6.736270615414170770e-02,9.915544545458322423e-01,-4.633004876398987698e-02,4.294029773655378968e-01,-1.674055070447641791e+00,1.254456367904543124e-01,-8.406162721673914318e-01,-2.196810389606852265e+00,-5.773070686185039629e-02,1.860335309976874907e+00,-1.415648240226665688e+00,2.315909646871749418e-03,4.924537744817472085e-01,-9.738539043053767719e-01
1.750000000000000888e+00,9.398481327721286416e-01,-7.441937296851821801e-03,3.284048550133977784e-01,5.992025048125303871e-03,1.109462428540897994e-01,-4.191623580173765851e-02,9.929239930672423275e-01,-8.621936258039805678e-02,5.533021661404322611e-01,-1.708378033424188924e+00,-8.810194492723227855e-02,-6.147507605462176894e-01,-2.019171153634895521e+00,2.139395590127662894e-01,1.251677080083303473e+00,-1.423166461167977515e+00,4.332032587530738887e-02,5.344934396829599255e-01,-8.381755753517490248e-01
1.800000000000000933e+00,9.776810026688694810e-01,-1.185076997821088267e-02,3.299245974190246344e-01,-5.878857971063687279e-03,1.159966273561880840e-01,-9.976434427437489219e-03,9.931821042623858453e-01,1.398963297130627337e-01,-2.509078646955681391e-02,-2.156779714809116566e+00,4.459307104231511470e-02,1.594929434724652317e-01,-1.544555023790181281e+00,-8.336093139962894027e-02,4.048521091643594860e-01,-1.048405837051251455e+00,-9.333215170440038733e-02,1.228185573129119801e+00,-1.333833291389389775e+00
1.850000000000000977e+00,1.011052081251192281e+00,-1.467912718701812336e-02,3.277356202893753068e-01,-2.470219519801409094e-02,1.076662726470403730e-01,2.020278073152746018e-02,9.936748074382313334e-01,-1.013453879572287913e-01,-5.486245474755684359e-01,-2.232848419420512709e+00,2.525571052234117445e-02,3.418051913293065902e-01,-1.588902777179383996e+00,-5.333852520103299875e-03,4.910162576415973423e-01,-1.043825546160370266e+00,1.386190129643437297e-01,1.679361698713089268e+00,-1.498574500505768459e+00
1.900000000000001021e+00,1.045263401665939673e+00,-1.625250631707296847e-02,3.273176957152112432e-01,-4.592309422891509979e-02,9.499590226603266130e-02,2.486631747434007306e-02,9.941068927556884205e-01,-1.279056483809717093e-01,-7.588161315857231415e-01,-2.185065827877371802e+00,7.366301979726655458e-02,4.913254581347888950e-01,-1.594145331619055028e+00,4.960603633526535633e-02,5.970979189851921554e-01,-1.029324377273650226e+00,5.066563174977314205e-02,1.647268403173814066e+00,-1.566928266824479055e+00
1.950000000000001066e+00,1.081804522476857100e+00,-1.678850818864448605e-02,3.265986877313331038e-01,-2.575705633188387841e-02,9.574933456509859830e-02,5.229923248113693690e-03,9.950584339033943237e-01,7.712791884050956837e-02,-5.766397699192989945e-01,-2.019418293908570305e+00,6.827758054496364803e-02,6.176295224545655937e-01,-1.640878107132290209e+00,-1.291321988635902966e-02,6.395002347859914948e-01,-9.062415805625420040e-01,-2.312622925072806979e-01,1.142136726358996546e+00,-1.536430393173279008e+00
2.000000000000000888e+00,1.118773877726834565e+00,-1.371894566054387282e-02,3.257521178108212512e-01,-9.334647617094536665e-03,1.023866347691661516e-01,-2.126351389471871009e-02,9.944735815250996813e-01,-1.466940821788025734e-02,1.733911535557658423e-01,-1.543277378431248570e+00,-1.228514520466627430e-01,-1.132375833524402881e-01,-2.100331771567971462e+00,1.110988768465826088e-01,1.431686540932525897e+00,-1.388872478264058019e+00,1.203220822863913658e-01,3.544048937946100430e-01,-1.139492705937588113e+00
2.050000000000000711e+00,1.151024478318632305e+00,-1.274115314710890824e-02,3.230998474606185944e-01,2.600840723467822899e-02,8.987552773968482400e-02,-5.000956543287794764e-02,9.943565736856386783e-01,-3.689115985582539642e-02,3.513676240578201826e-01,-1.576770680766677035e+00,1.029084144379286414e-01,-6.318658072951164328e-01,-2.197337780468466839e+00,-1.127355275041185545e-01,1.877590446145098735e+00,-1.572569799839971250e+00,1.560285357345011885e-02,4.778395393678961378e-01,-1.197420509446276649e+00
2.100000000000000533e+00,1.182706396587862585e+00,-1.273806390548494309e-02,3.230782688458930241e-01,4.133914147600305233e-02,8.333597902398419410e-02,-5.155158324657559826e-02,9.943282276225051675e-01,-7.841721638200972733e-02,4.825844605330593673e-01,-1.601902025546399155e+00,8.453031849684157495e-02,-7.912647313703170537e-01,-2.150078835556892720e+00,-6.947913620896742359e-02,1.786855845814889321e+00,-1.677948892256513114e+00,-2.543857156493095628e-02,5.763653620093431851e-01,-1.194381450036057668e+00
2.150000000000000355e+00,1.215575143499144417e+00,-1.384551217160158963e-02,3.246952640730750295e-01,2.873648288822419627e-02,8.333525089708841704e-02,-3.369299987897841214e-02,9.955371576532385802e-01,-8.769734651991775709e-02,5.925127745222189546e-01,-1.631702654371600669e+00,-1.519556561314111265e-01,-5.311328145295390879e-01,-1.971919580529261973e+00,2.005716287250939867e-01,1.184448775333312165e+00,-1.650445321715249491e+00,1.652897724871073282e-02,6.445522503520377811e-01,-1.124659942500395804e+00
2.200000000000000178e+00,1.246978586989399229e+00,-1.783208831618257606e-02,3.256462809375411105e-01,-1.685373498384858462e-02,9.122523848676905578e-02,-1.097574852171203513e-02,9.956271593445582546e-01,1.289363716769087176e-01,2.611820017031985658e-02,-2.112806056549385580e+00,1.817670877643937088e-02,2.058126840791049128e-01,-1.487061752268161285e+00,-1.032304275259104537e-01,3.904439006130607237e-01,-1.217425026565100765e+00,-1.432671969288825675e-01,1.004261083063813453e+00,-1.749161238207391555e+00
2.250000000000000000e+00,1.275413488157896680e+00,-1.868341793571011086e-02,3.230021340372453142e-01,-4.370304820193656598e-02,8.264457138936065483e-02,1.899002803128359285e-02,9.954392483889206167e-01,-9.337948695135049604e-02,-4.466901318349220662e-01,-2.202693759315057509e+00,1.473591389929699083e-02,3.600897047605295942e-01,-1.510753353879905392e+00,-2.077113866708565210e-02,4.953181973101482005e-01,-1.267246042943988016e+00,9.161224192919042997e-02,1.197795791796050890e+00,-2.001735174815274743e+00
2.299999999999999822e+00,1.303195071987574671e+00,-1.755959840134497726e-02,3.214723469956396462e-01,-5.839751209897316858e-02,6.739236550026883599e-02,2.496824954683954378e-02,9.957030612424043747e-01,-1.155970162163331705e-01,-6.016324284969153391e-01,-2.147930686805480605e+00,3.680294558653830067e-02,4.868935906757914100e-01,-1.505073408111278432e+00,1.443750089357903089e-02,6.275940576642020652e-01,-1.317356007547498598e+00,7.265222344373828411e-02,1.086263120409126426e+00,-2.063266647968648115e+00
2.349999999999999645e+00,1.331856333163767614e+00,-1.406340559942587803e-02,3.199352200061221230e-01,-3.396368771826061700e-02,5.060347594314470315e-02,1.017678014909355680e-02,9.980892691963204610e-01,8.205564741469659196e-02,-4.133139531927771393e-01,-1.964438636202341604e+00,2.007231312436258235e-03,6.032944409095005733e-01,-1.507745129722629862e+00,-6.048724353582467239e-02,7.699501397453510920e-01,-1.340370787852158463e+00,-1.923067947556366675e-01,7.589991981993721160e-01,-1.918542371145593783e+00
2.399999999999999467e+00,1.358572699033780973e+00,-7.084654616829470439e-03,3.202719279850790857e-01,1.979583927511316052e-02,4.861645537619063012e-02,1.105538266440487822e-03,9.986207201932023603e-01,-9.696400634641139105e-03,3.260685461276428554e-01,-1.439611594525492144e+00,-1.798814394467188049e-01,-7.837623249509338696e-02,-1.944912506314381950e+00,1.341737393711174287e-01,4.484439903191575483e-01,-1.975454483816479589e+00,7.607458729607807779e-02,4.957493454404298672e-01,-1.370918366979061886e+00
2.449999999999999289e+00,1.383277928698815051e+00,-3.062079634896164824e-03,3.213906662909617462e-01,4.478957382021488826e-02,3.240245470685805540e-02,-2.145446044998460325e-02,9.982402922807581680e-01,-3.516090447032317601e-02,4.490552605055928015e-01,-1.413267738851047506e+00,6.615196402369320772e-02,-5.705118004105891316e-01,-2.050674883028170470e+00,-6.325973563820852519e-02,2.115790340930471802e-01,-2.159383317160902038e+00,-8.977522856026393799e-03,6.071371562012330969e-01,-1.414540943699654996e+00
2.499999999999999112e+00,1.406003255587886080e+00,-3.700612020538072587e-04,3.241722464526266001e-01,4.767954087418308645e-02,1.703662519368633055e-02,-2.764902176407257536e-02,9.983345863885146887e-01,-4.455877635976500384e-02,5.407932730105303731e-01,-1.378959432611136293e+00,8.209056670880517104e-02,-6.784055364361524232e-01,-2.013236037275692336e+00,-9.726760703458683932e-02,8.452193905005415953e-02,-2.150772880453504676e+00,-3.458519736018998703e-02,7.091198655269024265e-01,-1.428318754747418984e+00
2.549999999999998934e+00,1.427760308194745642e+00,9.600423299013578944e-04,3.275216095689387763e-01,2.978998567613336257e-02,-3.934469731029203868e-04,-2.122571109910035766e-02,9.993307115971332699e-01,-2.605110459255185681e-02,6.180721491956111535e-01,-1.339128874776840172e+00,-1.321351215507376997e-01,-3.350931997740421164e-01,-1.801953058757343351e+00,1.117396900487757222e-01,1.443600295391340715e-01,-1.916960820828857770e+00,1.189404847647206357e-03,8.197759951516756516e-01,-1.432092612661557407e+00
2.599999999999998757e+00,1.447615491019849987e+00,1.429639781780663336e-03,3.317612956522236201e-01,1.155890762929035441e-02,-8.560249523935033189e-03,-2.713146853034805253e-02,9.995283873897190530e-01,1.638537307246068497e-01,1.298000137641484864e-01,-1.844928287994958449e+00,1.541868603760629224e-02,4.433366761889506735e-01,-1.302082098423543277e+00,-4.923730031711179289e-02,5.078121828629191814e-01,-1.347887639928477821e+00,-1.908837354085136662e-01,4.137022773990544633e-01,-2.056856352175427727e+00
2.649999999999998579e+00,1.463263116844321754e+00,1.712599419806669224e-03,3.337947939954473142e-01,7.074698709684346803e-03,-9.773665314094038062e-03,-1.080829582726332977e-02,9.998687938153714150e-01,-3.218546905191822793e-02,-2.736012767400632928e-01,-2.019719057256260442e+00,-3.506594523489159169e-03,5.010270973289443486e-01,-1.290150281625305650e+00,-2.889801409179594896e-02,5.443167359301616104e-01,-1.346695534956163343e+00,7.104641385725524172e-02,2.526544554885241656e-01,-2.274181834753444598e+00
2.699999999999998401e+00,1.476296464975316303e+00,1.465265112309617436e-03,3.325812854483380931e-01,1.823930409759538015e-03,-1.272880960567187789e-02,-3.756940752401191868e-04,9.999172513452524447e-01,-1.188671679665187081e-01,-4.167150383895352195e-01,-2.066498336127970514e+00,-7.440242925869090286e-03,5.557640349922381429e-01,-1.293282999903071051e+00,-8.492528276225911124e-03,5.923439928328702031e-01,-1.371520392364827812e+00,1.304775211061178219e-01,2.320913291920956856e-01,-2.295755910918842346e+00
2.749999999999998224e+00,1.486706153754578708e+00,1.072105353785804101e-03,3.253789380801453412e-01,-2.811631114620926231e-03,-1.542832603154408767e-02,-9.243059936083842035e-04,9.998765959581061846e-01,2.454174596246251269e-02,-1.738268739673705099e-01,-1.927367678835019804e+00,3.548717253277946203e-03,6.160873101514157124e-01,-1.346185823233291057e+00,1.337542661413915332e-03,6.625388529052508302e-01,-1.441774899203780658e+00,-1.122150458079599067e-01,3.677453974093253808e-01,-2.087767160136925426e+00
2.799999999999998046e+00,1.496656690949673019e+00,2.003585767081522435e-04,3.175506912318685204e-01,-3.265110549827894906e-03,-1.883762308100260519e-02,1.635992709828897225e-03,9.998158863198808310e-01,3.759468704914358406e-03,6.811033796230457904e-01,-1.407112500411596523e+00,3.765670187486430936e-03,6.801448915953034469e-01,-1.399127766290424235e+00,7.859370948813879099e-03,7.291379654456945358e-01,-1.507010499259492819e+00,7.856282122214100841e-03,7.311857658098381840e-01,-1.504855754819415914e+00
2.849999999999997868e+00,1.499621375106355625e+00,1.278825324741045017e-04,3.118088736300301256e-01,2.254299368189390407e-03,-1.000474485540872593e-02,3.645719250735103643e-03,9.999407642185018652e-01,-9.654191142385498692e-03,7.017226178201178000e-01,-1.471171604492593321e+00,-9.632762143293742765e-03,7.066099167024395555e-01,-1.467827129842601108e+00,-6.940984381001984605e-04,7.244583253870392481e-01,-1.518720903247760434e+00,-6.629570044943864596e-04,7.352135734980980164e-01,-1.527130918203734478e+00
2.899999999999997691e+00,1.500000000320860893e+00,2.391879845312694124e-14,3.113099469256067620e-01,-3.686243892752737042e-14,3.298027648409125931e-10,-1.745501927336303568e-13,1.000000000000000000e+00,-1.214800060507913134e-09,7.000000001799711047e-01,-1.499999998005137947e+00,1.223918061084995118e-09,7.000000001812216599e-01,-1.499999997990236533e+00,-1.240003518194523862e-09,7.000000001834583152e-01,-1.499999997963877840e+00,1.230860538613524477e-09,7.000000001821875539e-01,-1.499999997978838318e+00
2.949999999999997513e+00,1.500000000000000000e+00,0.000000000000000000e+00,3.113099999999999756e-01,0.000000000000000000e+00,0.000000000000000000e+00,0.000000000000000000e+00,1.000000000000000000e+00,0.000000000000000000e+00,6.999999999999999556e-01,-1.500000000000000000e+00,0.000000000000000000e+00,6.999999999999999556e-01,-1.500000000000000000e+00,0.000000000000000000e+00,6.999999999999999556e-01,-1.500000000000000000e+00,0.000000000000000000e+00,6.999999999999999556e-01,-1.500000000000000000e+00
