yusongmin1/go2_flip_TO/datasets/go2/trajectories/quad_spin_inplace_ramp_3s/trajectory_full.csv
t,base_tx,base_ty,base_tz,quat_x,quat_y,quat_z,quat_w,FL_hip_joint,FL_thigh_joint,FL_calf_joint,FR_hip_joint,FR_thigh_joint,FR_calf_joint,RL_hip_joint,RL_thigh_joint,RL_calf_joint,RR_hip_joint,RR_thigh_joint,RR_calf_joint
0.000000000000000000e+00,0.000000000000000000e+00,0.000000000000000000e+00,3.113099999999999756e-01,0.000000000000000000e+00,0.000000000000000000e+00,0.000000000000000000e+00,1.000000000000000000e+00,0.000000000000000000e+00,6.999999999999999556e-01,-1.500000000000000000e+00,0.000000000000000000e+00,6.999999999999999556e-01,-1.500000000000000000e+00,0.000000000000000000e+00,6.999999999999999556e-01,-1.500000000000000000e+00,0.000000000000000000e+00,6.999999999999999556e-01,-1.500000000000000000e+00
5.000000000000000278e-02,2.243481585227100582e-03,8.922202382421153184e-05,3.088903905290921181e-01,-2.089958034672271181e-04,-1.384280164838911850e-02,9.682910726197739397e-05,9.999041573007891870e-01,5.903593586404524225e-06,7.253500130903859366e-01,-1.480802897936844831e+00,5.997186218320485638e-06,7.251320781666370507e-01,-1.479995822350062440e+00,2.453348992479981606e-04,7.607827181996210664e-01,-1.553702913031647093e+00,2.453577610320423186e-04,7.607378787903055217e-01,-1.553232983769063491e+00
1.000000000000000056e-01,4.875707948068476114e-03,-5.558819531507063920e-05,3.081988070028873761e-01,-1.801102491445885135e-04,-2.982711338758241293e-02,1.752521833164251940e-03,9.995535200950905752e-01,-1.610782637007089060e-03,7.455369720148328216e-01,-1.443907115573002775e+00,-1.604134102150789679e-03,7.471876491711527679e-01,-1.441030795199781167e+00,2.816218975160046135e-03,8.221653387962599702e-01,-1.598217663033500546e+00,2.824029365724979850e-03,8.270093564526224128e-01,-1.601105795059464487e+00
1.500000000000000222e-01,7.133240926221642679e-03,-3.987759478331184999e-04,3.132246264359946908e-01,-1.225488164280254602e-03,-4.468238782678213283e-02,4.833216205726372991e-03,9.989887999462080392e-01,-1.920814823086546908e-03,7.417925159226652632e-01,-1.368765838746715202e+00,-1.873687280241001160e-03,7.458830053846605690e-01,-1.360548100425642559e+00,1.034813905961311752e-02,8.589668866966534422e-01,-1.600731583029224803e+00,1.041063121893579489e-02,8.726368089384883842e-01,-1.608769399540443068e+00
2.000000000000000111e-01,4.160393691733578481e-03,-1.119453094867521462e-03,3.259050803068994639e-01,6.928235353605898070e-05,-3.613253639827968683e-02,3.710797080861364967e-03,9.993401147749484403e-01,1.372810841466383554e-02,1.407113608972037633e-01,-1.826376556784818694e+00,-1.043140857359724574e-03,6.862786340033648624e-01,-1.291970200593881124e+00,8.030443350212374681e-03,7.795739297349698615e-01,-1.491533365860024274e+00,-1.204671744950962763e-02,3.529744614348306886e-01,-2.087362148721617849e+00
2.500000000000000000e-01,5.094279384837363533e-03,-1.924387191317006784e-03,3.322338244560090748e-01,4.417367278711550535e-03,-4.061436305245332001e-02,3.538082001069035171e-03,9.991588674259574976e-01,4.765082437359341797e-03,-6.668750603956009881e-02,-1.970046553765937070e+00,-6.975352118483771173e-03,6.687937396706287174e-01,-1.233330838013996900e+00,1.375064379281264442e-03,7.746778731488012104e-01,-1.455530284201137281e+00,-4.742330765910162012e-03,1.726675230453106891e-01,-2.189907977676282869e+00
2.999999999999999889e-01,6.361290704991359908e-03,-3.178560372272664497e-03,3.349928355179631057e-01,6.765310771049097040e-03,-4.538814381170268308e-02,2.462983104412673572e-03,9.989434822279620318e-01,-1.040757159437191021e-02,-1.495125863536333338e-02,-1.988316977786451112e+00,-6.797039899972502283e-03,6.650646353669673605e-01,-1.201385335932784404e+00,-8.469246646631756106e-04,7.850217885088408565e-01,-1.446081446832677919e+00,2.460969832295630336e-02,1.581468163862750909e-01,-2.173761085924209358e+00
3.499999999999999778e-01,7.650047836926488279e-03,-5.045109481668704800e-03,3.348424581696619051e-01,7.035390136069481944e-03,-5.188304239021750142e-02,1.531121949513019947e-03,9.986272121585431094e-01,4.473258407219390075e-03,3.178552924719179607e-01,-1.796296297334994296e+00,-1.009088302921691853e-03,6.734160607405186294e-01,-1.187065791139040538e+00,3.419175059222409521e-03,8.110152513049635470e-01,-1.461503807189274751e+00,-3.527634578695176132e-02,3.058573025863188244e-01,-1.996589502226914448e+00
3.999999999999999667e-01,3.213320874226656756e-03,-7.599901616539160923e-03,3.324640915687821496e-01,2.169571379039697545e-03,-2.694741202685356149e-02,1.743871911757760573e-02,9.994823765432907514e-01,1.392434817738709765e-02,7.639416912790768510e-01,-1.245101670810818462e+00,-1.548895519116396183e-02,8.768801574291008524e-03,-1.702136962969226675e+00,2.349016045268387254e-02,2.606792390454755748e-01,-1.986040994463524001e+00,-5.386930215820951232e-03,6.099369544362295281e-01,-1.402418804055294732e+00
4.499999999999999556e-01,2.401589699511790486e-03,-9.584289982143355535e-03,3.281407743813870570e-01,6.820923474153771371e-03,-2.044852794067034824e-02,1.288981683122107473e-02,9.996845429084502133e-01,1.478878579532238308e-02,7.747722645647542317e-01,-1.286365676882242459e+00,8.609577819236911150e-03,-2.895672818543330029e-01,-1.881790377800875991e+00,-8.015456331415272626e-03,2.550121266886663518e-01,-2.198798168482563042e+00,-1.322515584726052275e-02,5.965405356940999271e-01,-1.417606314548677915e+00
4.999999999999999445e-01,2.809625556329856805e-03,-1.190026009772108401e-02,3.283964710532781273e-01,1.367326603094096496e-02,-1.944973263094706278e-02,2.391298347692852322e-02,9.994312977478061466e-01,-2.207240760913156772e-03,7.647937185973335827e-01,-1.286848143237778075e+00,2.237253445181725670e-02,-2.494842187296159031e-01,-1.953434280033749859e+00,-2.712520534813013182e-02,5.160379603195873743e-01,-2.267891255407701312e+00,-9.388890407528176565e-03,6.124936837748626850e-01,-1.433012418304119517e+00
5.499999999999999334e-01,2.061440753467431563e-03,-1.493413227090938621e-02,3.317360701638157883e-01,1.038218478600462340e-02,-1.305959000832341600e-02,6.237473151329933629e-02,9.979133480500836928e-01,-2.541740409598537351e-02,7.299017145194057754e-01,-1.311133049154117103e+00,-2.146465356618013770e-02,9.456745998125599961e-02,-1.849631420228297074e+00,3.509195701942147833e-02,8.302754731327784965e-01,-2.088792260617306606e+00,4.310975974512151060e-02,6.248181966802255349e-01,-1.424956012261245908e+00
5.999999999999999778e-01,-1.653831240611987287e-03,-2.095482563325588160e-02,3.316320799267216124e-01,-3.054491551575055225e-02,3.438071722128717943e-03,1.070782676449385101e-01,9.937753430213128736e-01,1.766602305867850942e-02,1.346957534533972101e-01,-1.834641535391202893e+00,2.968710880031864147e-02,6.501012323222312705e-01,-1.332596261423067752e+00,-3.857127413425262552e-02,7.663311385034573542e-01,-1.409504817766231710e+00,-2.195063752685714673e-02,6.146103609481223806e-01,-2.041797859041940111e+00
6.500000000000000222e-01,-2.689639114334356398e-03,-2.365958297031224566e-02,3.285053935061113539e-01,-3.232690602833115240e-02,1.044167405246697669e-02,1.421128666334976753e-01,9.892673428991918261e-01,-1.901329160376057439e-02,-1.502960918016268965e-01,-1.970351675803865277e+00,-2.933343061246181886e-03,6.713997060686762719e-01,-1.350878897765407149e+00,1.547636284414573640e-02,7.068621082842732051e-01,-1.385924886439459547e+00,1.044611503082825202e-02,6.960781446086470314e-01,-2.230779772143032247e+00
7.000000000000000666e-01,-1.882713980876987540e-03,-2.367484402112059530e-02,3.296982975522466663e-01,-3.111811281763043890e-02,1.262411280444612240e-02,1.448445876027218693e-01,9.888843917631460201e-01,-2.291154348345179545e-02,-1.564623225405342433e-01,-1.986562078130605480e+00,-8.232897381471990586e-03,6.701799599059414803e-01,-1.346720950543365491e+00,1.680736533629582224e-02,6.934220261595607226e-01,-1.367440991247998561e+00,3.364483466568223696e-02,7.833628912898609187e-01,-2.226691782843412959e+00
7.500000000000001110e-01,-3.997850362218590033e-04,-2.173231476638946141e-02,3.324461738214794515e-01,-2.843531061484824360e-02,1.363292101517281016e-02,1.274492064254322821e-01,9.913436721724503409e-01,2.998436925337608430e-02,1.353418879599878333e-01,-1.871871220284162529e+00,2.272463042359052204e-03,6.563056452377711292e-01,-1.342299380936422537e+00,-1.448560172580189674e-02,7.068055496505720736e-01,-1.357501117115806233e+00,-4.453860930967768611e-02,7.084606504887823730e-01,-1.974757207653472291e+00
8.000000000000001554e-01,8.594164101289767863e-04,-1.583108320886831774e-02,3.307510900550654775e-01,1.077774788013188996e-02,1.094638737643364307e-02,1.253738748509926060e-01,9.919906291184836800e-01,1.158481083723078217e-02,7.671006732808669515e-01,-1.338588926070295893e+00,-2.275633330061326356e-02,1.892406798201838047e-01,-1.881211042913959020e+00,2.333902193369531697e-02,1.439355611607008756e+00,-1.880965557538656574e+00,-8.482036613752628670e-03,4.761221451801110338e-01,-1.320772848024074131e+00
8.500000000000001998e-01,2.162592788428873043e-03,-1.170490986604123124e-02,3.279859820380814361e-01,9.024003549429332818e-03,-7.286837697364013759e-03,1.224571988848365406e-01,9.924060176145607093e-01,1.118073160892624554e-02,7.985953856743444046e-01,-1.313979807966671132e+00,1.695662862623160613e-02,-1.514399337657230948e-01,-2.024359400274635234e+00,-8.131906652064747193e-03,2.100992065690767241e+00,-1.818458089550999413e+00,-1.413141995200930048e-02,5.428263182347254912e-01,-1.382048036696434057e+00
9.000000000000002442e-01,4.103467726099925376e-03,-8.885681384865968396e-03,3.301931068602682040e-01,7.908206242771513919e-03,-2.089201477852564715e-02,1.448795945436858190e-01,9.891970921294567232e-01,-9.781006021480213516e-03,7.970192857699424094e-01,-1.284095454742659292e+00,1.536025245240019328e-02,-1.853394997565578073e-01,-2.034346053271020693e+00,-1.301353164300221577e-02,2.354133765329898154e+00,-1.670699668682148920e+00,5.789058260807090038e-03,6.149270139514115829e-01,-1.420495866509351002e+00
9.500000000000002887e-01,8.423728552614032777e-03,-6.512866563469046563e-03,3.348536223359874220e-01,3.947153758956702292e-03,-1.819268703305130380e-02,1.733594323002477511e-01,9.846826663185741513e-01,-3.104907442720867064e-02,7.817128215567679117e-01,-1.283558897728274584e+00,-3.300843801061346949e-02,8.295884871006288519e-02,-1.875448295586282788e+00,2.329847310016212522e-02,1.889878049656060766e+00,-1.559922247090229863e+00,3.836531437892256452e-02,6.388509305293418317e-01,-1.401304787742425395e+00
1.000000000000000222e+00,9.925032550510843807e-03,-7.393183666491961667e-03,3.398473126895761309e-01,-5.166716104142228712e-04,1.955805284290939444e-02,2.088123486178776744e-01,9.777600005543931605e-01,2.599565327322257355e-02,7.002085739644842155e-02,-1.748078484356409890e+00,3.309900836366502092e-02,4.699206761501985574e-01,-1.346702298828819533e+00,-2.436374980629258877e-02,7.299943258214688369e-01,-1.206540326232171445e+00,-2.344270097975359110e-02,3.761160755598814132e-01,-1.949308882477659433e+00
1.050000000000000266e+00,1.099070403414301178e-02,-5.283659783007159556e-03,3.355088259242471893e-01,-3.107757558627317852e-04,2.145659177033210768e-02,2.374868622846895427e-01,9.711536996429575019e-01,-7.935779206735861513e-03,-3.114527881786322561e-01,-1.851234554895432982e+00,-1.742198971473896477e-02,5.047024938002669936e-01,-1.363670726783594800e+00,1.106608391197456617e-02,7.125372850406005432e-01,-1.214201275672202041e+00,6.300008907490008657e-03,1.794601319038020004e-01,-2.085347029361178883e+00
1.100000000000000311e+00,1.282737014843896017e-02,-2.967052492906793043e-03,3.366402383617695948e-01,-4.384014000328405151e-03,2.425759951108829790e-02,2.379099941787976846e-01,9.709743477337848816e-01,-3.570978816593411292e-02,-2.776811243001090501e-01,-1.922369201890415269e+00,-1.513172156789902890e-02,5.056046731778033321e-01,-1.363189932496840173e+00,1.457570352500221766e-02,7.021697057178035717e-01,-1.195030920808662023e+00,2.867479158615803339e-02,1.626656617217104583e-01,-2.057289204619569656e+00
1.150000000000000355e+00,1.466314574039845504e-02,-3.924023606061868667e-04,3.417096863363801029e-01,-7.315990594104268899e-03,3.040355512304624211e-02,2.096768223589869640e-01,9.772705512205638323e-01,3.682721697825232232e-02,1.623843198376889174e-01,-1.880428196305537147e+00,2.722443729006725210e-02,4.750975945662618827e-01,-1.363449166433178927e+00,-2.658651973643456554e-02,6.965309308993595794e-01,-1.153373064657701841e+00,-2.471054188826472472e-02,3.119778808251832403e-01,-1.804467334663989675e+00
1.200000000000000400e+00,1.735600036446257460e-02,3.656636362257297945e-03,3.404645413753756289e-01,-3.246842374073093465e-03,2.795735153843135687e-02,2.077319028283201308e-01,9.777808041973824471e-01,-3.805299577783386941e-03,6.716742708781681115e-01,-1.366749475635103295e+00,-4.054826960250522416e-02,6.045955491197755327e-01,-2.046662966738919565e+00,3.279612297353034361e-02,1.391329054752930450e+00,-1.681804169340230803e+00,-1.815142048923116050e-02,5.358580619431528858e-01,-1.193978036841791157e+00
1.250000000000000444e+00,2.038062719814007565e-02,7.199118577412903959e-03,3.362253723925476279e-01,-8.916198395150811556e-03,1.422016288158397569e-02,2.014224393824813053e-01,9.793606533279811677e-01,1.414239997435290212e-02,7.146910792412730640e-01,-1.365629530642308076e+00,2.194633544116444956e-02,1.180222505493892404e+00,-2.296830586587102818e+00,-5.696774120942969116e-03,2.025712828224473849e+00,-1.651787312613564707e+00,-1.477311057394997164e-02,5.941410021900862537e-01,-1.249724522098256241e+00
1.300000000000000488e+00,2.343688272781774967e-02,9.927813373822527362e-03,3.371155146078144149e-01,-8.825181838715612237e-03,6.769424234011836398e-03,2.168594236786376972e-01,9.761394784675101466e-01,-3.448911690703022372e-03,7.212126413202520903e-01,-1.353289800478939764e+00,2.965612334484481888e-02,1.726544108416344869e+00,-2.159485098540551373e+00,-1.985687392574580698e-02,2.192135897661036115e+00,-1.514861864886049014e+00,2.259908554705915024e-03,6.457895793268008111e-01,-1.274734736879759245e+00
1.350000000000000533e+00,3.179902487204448736e-02,1.450804284891465262e-02,3.437121124700932007e-01,-3.126363566182715787e-03,-3.393142591893366384e-03,2.482245678514409248e-01,9.686915279639687348e-01,-4.297184794178008499e-02,7.128710221376497458e-01,-1.288505785110452662e+00,-5.210742944079942152e-02,1.729909628999648508e+00,-1.793898104618249612e+00,3.683613203355230736e-02,1.580765695766870538e+00,-1.448893853296151502e+00,3.480485767735485431e-02,7.246228017293986357e-01,-1.279730188651003076e+00
1.400000000000000577e+00,3.902477071416388110e-02,1.957742201999617196e-02,3.534521894672191245e-01,1.345854052120047054e-03,-2.063118782290238029e-04,2.898003275595995021e-01,9.570861592660444561e-01,4.062687984180280570e-02,5.427599020149344033e-01,-1.890718491031904813e+00,5.239080410053244957e-02,6.670679168638284917e-01,-1.217947540014061136e+00,-3.706616015490826754e-02,3.666684885339588362e-01,-1.146234111166573921e+00,-2.485653811563640417e-02,4.439059730515331204e-01,-1.847032689477070555e+00
1.450000000000000622e+00,4.551764456822601085e-02,2.308270398289283265e-02,3.498815316976069956e-01,1.298364991589087518e-02,-5.971470557916405339e-03,3.272659826309708420e-01,9.448241862837882810e-01,-4.343212511703997691e-03,6.112685308041500010e-01,-2.169223595032604202e+00,6.018057621022353384e-05,7.206554218556927571e-01,-1.189682514159431825e+00,-2.612512203959563642e-02,3.868125369678855341e-01,-1.171709256821227507e+00,5.876436488794361396e-03,2.216692239748401516e-01,-2.052607357086817075e+00
1.500000000000000666e+00,5.001527799880468861e-02,2.598716520895560239e-02,3.496640717392882070e-01,1.073614297267900045e-02,-1.621855854594242072e-02,3.456392647025953724e-01,9.381658660858490650e-01,-3.410855875236554202e-02,9.644781422000139326e-01,-2.204436151061912152e+00,-3.362166511235622612e-03,7.390095733684530765e-01,-1.134746582623778366e+00,3.940483998336733644e-04,4.140315494478005176e-01,-1.194597833323853608e+00,1.891223502447728771e-02,2.179586388645341211e-01,-2.083044476190361927e+00
1.550000000000000711e+00,4.978137232007356916e-02,2.782148053092580592e-02,3.484208932165930861e-01,7.042630245405779059e-04,-2.216383844522169105e-02,3.569639438342265825e-01,9.338549197178764860e-01,3.514731318036787289e-02,1.229370611445651296e+00,-1.932129536046557572e+00,5.793364033490174675e-03,7.429859021751474835e-01,-1.111846434818888563e+00,2.772297854805685566e-02,4.180570691888641499e-01,-1.212012045150979933e+00,-3.255743965398361778e-02,3.927456960449249856e-01,-1.856659862685085205e+00
1.600000000000000755e+00,4.770712884863771014e-02,2.532148289764545382e-02,3.424890912364567663e-01,-3.347820143440394594e-04,5.719024098738980169e-03,3.925808236388537154e-01,9.196996670627863857e-01,-9.529453536038894057e-03,7.075427569635132086e-01,-1.285230738494509195e+00,-5.948677710821862613e-02,1.481145430194510171e+00,-1.731099380401486032e+00,2.947833695856301103e-02,4.312901524957493682e-01,-1.907142724823543078e+00,5.321808335690327886e-03,5.273299829210308376e-01,-1.254562581629938611e+00
1.650000000000000799e+00,4.595651195670082123e-02,2.403655382096583568e-02,3.391602038225915994e-01,-5.911543683689995249e-03,5.290727391182455629e-03,3.780544056102533301e-01,9.257493873903596127e-01,1.580037764718482049e-02,7.230333639369269649e-01,-1.307899353166689593e+00,1.436212826382822841e-02,1.826725896701880680e+00,-2.039855471061265302e+00,-1.787924923684752754e-02,8.181811528546554246e-01,-2.226257379558397087e+00,4.829690816496999984e-04,5.047327985500698055e-01,-1.254663451455404477e+00
1.700000000000000844e+00,4.376015336668580280e-02,2.285576044390288247e-02,3.387370734975282405e-01,-1.184094948573719041e-03,-1.424607725238770991e-03,3.803848641240016870e-01,9.248264288813046186e-01,7.511966708432917493e-03,7.210314911118901327e-01,-1.291297294162166542e+00,3.241554409432256117e-02,1.791367123921878246e+00,-2.077427086829264802e+00,-1.830046982929123961e-02,1.131205607009290404e+00,-2.283159857882648858e+00,-2.990225095522379938e-03,5.284649186005051513e-01,-1.282360931852287722e+00
1.750000000000000888e+00,4.215222026690915863e-02,2.150720597794189559e-02,3.401267719201103157e-01,2.672870356293790845e-03,-1.038933723199024321e-02,4.157645505835214084e-01,9.094090146430378052e-01,-3.221428563648725402e-02,7.001074658285805219e-01,-1.285070940965860942e+00,-5.375757241308276591e-02,1.442320215347572043e+00,-1.825962891182644432e+00,4.648919239559917010e-02,1.072821110575743031e+00,-2.080830643676065073e+00,3.324752074370052046e-02,5.966720512198532278e-01,-1.332304495779308207e+00
1.800000000000000933e+00,3.977389257082177693e-02,1.791749260798647034e-02,3.392981045803890039e-01,-1.024802901183491724e-02,-2.402732572615519022e-02,4.550415908411349908e-01,8.900869711014710584e-01,2.925379239309781540e-02,2.358386117050257635e-01,-1.801932943389063180e+00,7.000389689770027124e-02,7.175777240563606663e-01,-1.249398462053948666e+00,-4.414769581565477358e-02,6.920101844260365676e-01,-1.410116212773492306e+00,-3.122833866730540323e-02,5.596146227732642364e-01,-1.953486507375563619e+00
1.850000000000000977e+00,3.762347089464516264e-02,1.463145412848628618e-02,3.348359672153898292e-01,7.793538716645016361e-04,-1.332006256900833407e-02,5.023786612528160500e-01,8.645447641727573851e-01,-1.096798625116727870e-02,-9.994615011585862574e-02,-1.935517937790793841e+00,-1.031687902487702854e-02,7.481103732372166304e-01,-1.264304914429615012e+00,-1.703104362024915677e-02,6.143933571333226595e-01,-1.379301441136097539e+00,1.962354798884594076e-02,5.249826769886519751e-01,-2.211616978775297504e+00
1.900000000000001021e+00,3.413977811401068541e-02,1.229768691237439343e-02,3.347309706631361736e-01,-6.582944340634507875e-03,-1.390664045264898216e-02,5.178558315657351141e-01,8.553295317645064344e-01,-1.868407147478493013e-02,-1.329734375851739925e-01,-1.971362595757462088e+00,-1.938537494680582854e-02,7.388858433999562214e-01,-1.249939938363600955e+00,7.969430137917567561e-03,5.727047505350794099e-01,-1.360488672837825375e+00,3.073699058332881456e-02,5.964559113485395914e-01,-2.241244799500327733e+00
1.950000000000001066e+00,2.880457936648450623e-02,1.001544038368484650e-02,3.366741635353421302e-01,-1.663984438709817035e-02,-1.479767653250506874e-02,5.109769229069592855e-01,8.593059575055603805e-01,2.910800625747378759e-02,1.833183048986832264e-01,-1.858996527291769896e+00,-4.200170201797094258e-03,7.064887448840561079e-01,-1.243153849718580339e+00,8.010884679936864858e-03,5.517634898531107446e-01,-1.349293352179342431e+00,-4.291815361121610606e-02,6.940142585018773680e-01,-1.987193372577348960e+00
2.000000000000000888e+00,1.884663055755102234e-02,5.501946240866408162e-03,3.365809629253047608e-01,6.519498048859744682e-03,2.886366018525856822e-02,5.107721511650782364e-01,8.592067241706732306e-01,-7.189668186187288430e-03,6.791325479796757048e-01,-1.339179955403492439e+00,-1.647782320318483956e-02,1.117675682798855985e-01,-1.797609434319951127e+00,2.070271613745256617e-02,6.338968895772330026e-01,-1.964440864581688873e+00,1.451603074503371969e-02,5.885255119608728824e-01,-1.306295870365181910e+00
2.050000000000000711e+00,1.261986700905971467e-02,4.140451582022705058e-03,3.338655390468797668e-01,2.392540477735826017e-03,3.381245189250770000e-02,4.920471876921639343e-01,8.699083623757801753e-01,4.995994968689611293e-03,6.898521428650571385e-01,-1.371998674685500630e+00,3.762912747834618044e-02,-2.044196531214954593e-01,-1.957162345583899121e+00,-1.004899328616179824e-02,1.136453412247426797e+00,-2.087486534868014942e+00,-1.909586814392434662e-02,5.336043920550261888e-01,-1.279400928306499097e+00
2.100000000000000533e+00,7.836447537959485843e-03,2.664867385540573876e-03,3.335075580804162110e-01,-8.857727294785441852e-03,3.061750172975058817e-02,4.955944229415731317e-01,8.679690531373852602e-01,1.344684794390728355e-02,6.851394451177978961e-01,-1.403026537571657739e+00,-8.656325809242377406e-03,-2.040875948811154972e-01,-2.018281803217838899e+00,-1.994827409063212181e-02,1.538406625179015386e+00,-1.975785389908789824e+00,-2.574754178358486679e-03,5.115237351317531989e-01,-1.260294656610766006e+00
2.150000000000000355e+00,4.070976411088778057e-03,4.334793468930850727e-04,3.367571825631315297e-01,-1.660447883014961809e-02,3.145321319417074268e-02,5.261484979286744634e-01,8.496486007697187093e-01,-2.418680201846696437e-02,6.460096353105565514e-01,-1.431286071778015367e+00,-3.393351881837705641e-02,1.524152988631376493e-01,-1.950671165921148420e+00,3.796671277164743313e-02,1.415488042049649620e+00,-1.732411160457372867e+00,3.708047879209258602e-02,5.085213488678317351e-01,-1.239051932965412384e+00
2.200000000000000178e+00,4.242871413691656074e-03,7.524016367854019505e-05,3.361127501716119070e-01,-9.137434976307486295e-04,3.486316187450708842e-02,5.651826117653941939e-01,8.242283302428884406e-01,2.456238602358106968e-02,1.995383843976935023e-01,-1.922625419652230994e+00,2.285941195063996914e-02,7.961086704928043156e-01,-1.436083411392029108e+00,-2.537129490830558262e-02,5.204328434617423449e-01,-1.208791136272178379e+00,-1.853160845474354987e-02,1.492798010777836692e+00,-1.556944183000047888e+00
2.250000000000000000e+00,2.265019930289058521e-03,-3.240711662254929567e-03,3.306165652260640297e-01,3.493932248799186055e-03,1.795040589444493739e-02,5.844546078277775836e-01,8.112203071635621932e-01,-2.056572507439721406e-02,-5.029856912749774978e-02,-2.067564329457080241e+00,1.077735283715845239e-02,8.227315627063243042e-01,-1.409635358013823891e+00,8.285650824800903230e-03,5.599699366382848709e-01,-1.286825618924976711e+00,-1.648300519914271470e-04,2.072784537962375939e+00,-1.443543687838203304e+00
2.299999999999999822e+00,-5.594157577058301092e-05,-4.651353820426404329e-03,3.300303791279931009e-01,9.719573319106011161e-03,1.191588134956774250e-02,5.876120530085264804e-01,8.089966729383145649e-01,-1.247754998659811494e-02,-3.896754654029797177e-02,-2.071859411967180709e+00,-1.367285618421375942e-03,8.239423553882311291e-01,-1.386300468000976061e+00,4.163516901420077389e-03,5.807286826506068422e-01,-1.315185188463595001e+00,2.647418098802549469e-02,2.182709686775721636e+00,-1.396373672438334212e+00
2.349999999999999645e+00,-1.152931791017032526e-03,-1.809450420376819933e-04,3.331055801821545259e-01,1.449885580260759123e-02,3.012908132047898997e-03,5.974927982394628856e-01,8.017375266363546693e-01,1.484838568006837181e-02,2.440271795757984474e-01,-1.888108705200852055e+00,-1.671378883659183426e-02,8.254445317941750959e-01,-1.313050710493244289e+00,1.228854025952487439e-02,6.029935032720371568e-01,-1.318536125293958694e+00,-3.001341956936661587e-02,1.613073765229117607e+00,-1.439707208929506210e+00
2.399999999999999467e+00,-4.102968378786739194e-03,1.386640655278097807e-03,3.360215488014415275e-01,-1.332989725079241836e-02,5.675764291046686560e-03,6.099276389132323173e-01,7.923246650387234524e-01,1.852653126317429025e-02,8.220472987038748292e-01,-1.317497588519693341e+00,-7.935707618860627852e-03,2.100464997123641653e-01,-1.839727239100061862e+00,3.966099871204341147e-03,1.772723764984927008e-01,-1.876868672225693979e+00,-3.955279438572710179e-03,3.552820615691615336e-01,-1.198740868344619015e+00
2.449999999999999289e+00,-3.556439296469283799e-03,4.548193502581893491e-03,3.304393396669401683e-01,6.640742100541220140e-03,-1.172513122455221858e-02,6.157372492740039727e-01,7.878363165649348021e-01,1.698215033629743185e-03,8.575535310124792199e-01,-1.283161533995324177e+00,1.269765434946633180e-02,-1.612915705249426124e-01,-1.934963629620839232e+00,-8.008942561396189749e-03,2.199427835926292402e-02,-2.045708197376360005e+00,-1.020451126294096532e-02,4.803766794552581376e-01,-1.335583527356254852e+00
2.499999999999999112e+00,-2.931648315741987049e-03,7.095694009403248625e-03,3.295710062317401268e-01,1.693199379720583889e-02,-2.367350475195776488e-02,6.226209295279960809e-01,7.819821295096868186e-01,-6.169589806493140996e-03,8.682605872202655561e-01,-1.247327979587075752e+00,1.041277444433866793e-02,-2.735901952167118512e-01,-1.898184903139668256e+00,-5.316267311408184350e-03,6.088175247973095366e-02,-2.107910252288030417e+00,-4.368543223839066111e-03,5.555016529816668713e-01,-1.399834473451165406e+00
2.549999999999998934e+00,-1.939300778854144945e-03,9.379376266522901004e-03,3.332765514987353628e-01,2.346722796874116737e-02,-3.478186736399065115e-02,6.430433812414929617e-01,7.646794889073753598e-01,-1.934165401315707244e-02,8.530038497489661475e-01,-1.201261645774419407e+00,-1.942442126552091503e-02,-8.310539173184131045e-02,-1.724280233293845610e+00,2.410522076489904006e-02,3.042945230137854562e-01,-2.016851812976577563e+00,2.537626023034738471e-02,6.291133451443745583e-01,-1.436245977434345011e+00
2.599999999999998757e+00,-1.171243346166408236e-03,9.445346478358733130e-03,3.363006090853923880e-01,3.178715742525124732e-02,-3.971224768965762875e-02,6.649251667224651552e-01,7.451758427816614905e-01,1.530517436453325553e-02,2.433908046473768627e-01,-1.715434381637316319e+00,2.463296236945439199e-02,6.520121557225206921e-01,-1.174268135217731324e+00,-2.625405010853495633e-02,8.479682961856257473e-01,-1.487070700181046146e+00,-2.036227120948192609e-02,4.343595498206466732e-01,-2.065749491867109988e+00
2.649999999999998579e+00,-1.005832295846475913e-03,7.488503335629973987e-03,3.351043840842143906e-01,2.870287560005790189e-02,-3.258440017396185134e-02,6.842460190607263515e-01,7.279572701725967043e-01,-1.804273318984387156e-02,-1.229854452446925983e-01,-1.895128336696663585e+00,-6.704149943966614469e-03,6.591050961160079824e-01,-1.188153789176874753e+00,3.236497733896329630e-03,7.861986286701629911e-01,-1.453526088973218666e+00,2.085176950868643589e-02,2.336668844386723121e-01,-2.227167724821593087e+00
2.699999999999998401e+00,-9.701917047376085700e-04,6.618696224723958493e-03,3.324743686876659998e-01,2.416516650421598675e-02,-2.976795154066110005e-02,6.880902471201153503e-01,7.246114307731247317e-01,-3.083530064035550750e-04,-2.060939846583602353e-01,-1.958289308442465515e+00,-9.343494063356596810e-03,6.669179740763740982e-01,-1.220632627373305024e+00,1.258070544261997992e-02,7.682128470013013244e-01,-1.454253512542622806e+00,-5.410146736916726651e-03,1.365394950302846466e-01,-2.232245511389352011e+00
2.749999999999998224e+00,-7.387647419411283705e-04,6.095217390276184630e-03,3.271705823308762584e-01,2.156841475784668227e-02,-2.678273468022035822e-02,6.847393650937376730e-01,7.279762980337391998e-01,1.065942865773902154e-02,4.374683693952268609e-02,-1.869325348146130272e+00,-3.945452446083982587e-03,6.832715174060688401e-01,-1.280145263209707895e+00,7.280008747404141320e-03,7.771265952027958113e-01,-1.483833353325188398e+00,-2.339964125052499885e-02,2.220219296140411303e-01,-2.088210759796342408e+00
2.799999999999998046e+00,8.470911923877909311e-05,7.896056224298625068e-03,3.179933240870400080e-01,2.507723560235535637e-02,-2.920667618338971747e-02,6.824019065711376397e-01,7.299628348271841594e-01,-3.465569589140209215e-04,7.260302598526384710e-01,-1.350748849615577507e+00,-3.363516182168274811e-04,7.253138654791597695e-01,-1.343490444354627389e+00,3.899131590169854084e-03,8.308271998887007959e-01,-1.558101996959411428e+00,3.903228053654335221e-03,8.336413767202022207e-01,-1.557056061337503960e+00
2.849999999999997868e+00,1.415238070417814461e-04,3.881557696918516709e-03,3.121607880227161291e-01,1.143904050342596859e-02,-1.329292848551482005e-02,6.825553744354867503e-01,7.306234373696702811e-01,-8.005533041568834536e-04,7.216535499481637750e-01,-1.449776671817703644e+00,-7.950913830827561037e-04,7.222878105472898547e-01,-1.446024125010846761e+00,2.670017066199680510e-03,7.663796816123111810e-01,-1.541072971391631574e+00,2.673454341745939728e-03,7.694482691887042369e-01,-1.541975744538169213e+00
2.899999999999997691e+00,2.267807317276417880e-11,3.201267028798174558e-10,3.113099469256456198e-01,-2.248521645410191725e-10,2.413186498726469460e-10,6.816387600232088895e-01,7.316888688739375812e-01,-1.214807145899130711e-09,7.000000001799873139e-01,-1.499999998005122626e+00,1.223913757252711465e-09,7.000000001812396455e-01,-1.499999997990223433e+00,-1.240021143459332328e-09,7.000000001834801866e-01,-1.499999997963858300e+00,1.230867111235899920e-09,7.000000001822040963e-01,-1.499999997978824995e+00
2.949999999999997513e+00,0.000000000000000000e+00,0.000000000000000000e+00,3.113099999999999756e-01,0.000000000000000000e+00,0.000000000000000000e+00,6.816387600233339006e-01,7.316888688738211188e-01,0.000000000000000000e+00,6.999999999999999556e-01,-1.500000000000000000e+00,0.000000000000000000e+00,6.999999999999999556e-01,-1.500000000000000000e+00,0.000000000000000000e+00,6.999999999999999556e-01,-1.500000000000000000e+00,0.000000000000000000e+00,6.999999999999999556e-01,-1.500000000000000000e+00
