yusongmin1/go2_flip_TO/datasets/go2/trajectories/quad_walk_backward_ramp_3s/trajectory_full.csv
t,base_tx,base_ty,base_tz,quat_x,quat_y,quat_z,quat_w,FL_hip_joint,FL_thigh_joint,FL_calf_joint,FR_hip_joint,FR_thigh_joint,FR_calf_joint,RL_hip_joint,RL_thigh_joint,RL_calf_joint,RR_hip_joint,RR_thigh_joint,RR_calf_joint
0.000000000000000000e+00,0.000000000000000000e+00,0.000000000000000000e+00,3.113099999999999756e-01,0.000000000000000000e+00,0.000000000000000000e+00,0.000000000000000000e+00,1.000000000000000000e+00,0.000000000000000000e+00,6.999999999999999556e-01,-1.500000000000000000e+00,0.000000000000000000e+00,6.999999999999999556e-01,-1.500000000000000000e+00,0.000000000000000000e+00,6.999999999999999556e-01,-1.500000000000000000e+00,0.000000000000000000e+00,6.999999999999999556e-01,-1.500000000000000000e+00
5.000000000000000278e-02,3.818914766771064985e-05,-1.220839467220789765e-04,2.988462518808110424e-01,-3.544328854963081470e-03,-9.208500673091334077e-03,-1.621689130785728327e-03,9.999500044365641216e-01,9.660715286193412993e-03,7.489300000694274484e-01,-1.560934896590959742e+00,9.654149124168875593e-03,7.452805500404230399e-01,-1.559555173190090516e+00,5.559240800561588390e-03,7.726595034239136517e-01,-1.610458477088770879e+00,5.560396696796350222e-03,7.664917321743869305e-01,-1.604003096861914335e+00
1.000000000000000056e-01,3.628275092976943235e-04,-1.103554349873091489e-04,2.920104629061299195e-01,-6.443055731218805607e-03,-1.639668971600915376e-02,8.975874500266713477e-04,9.998444028627508917e-01,1.189821321571725085e-02,7.763440491603406102e-01,-1.591723779407122175e+00,1.187856811939098228e-02,7.738274592493756820e-01,-1.582705781951982971e+00,1.457272433056137906e-02,8.147837231525764112e-01,-1.671760974895742935e+00,1.454170890239377643e-02,8.141154969906383432e-01,-1.666319908166661090e+00
1.500000000000000222e-01,-8.357165998129005395e-04,-7.096306543907358476e-05,2.950842545715108844e-01,-2.832370519771458799e-03,-2.154834660229805812e-02,3.261079142706317744e-03,9.997584767326411770e-01,1.437669055103989440e-03,7.640354232691783931e-01,-1.557421944708844430e+00,1.465713432070868665e-03,7.660407736202099471e-01,-1.548918737599158213e+00,1.014601660155175014e-02,8.134959146720293077e-01,-1.660515647832120800e+00,1.016174395894727661e-02,8.213056503576633416e-01,-1.663034661583259410e+00
2.000000000000000111e-01,-7.922155297037415667e-03,-9.840943150251101924e-04,3.072502598164493226e-01,4.477210272875070435e-04,-1.304383510179000713e-02,5.320649595332391235e-03,9.999006693665140055e-01,7.268540861614304627e-02,1.376591829677419054e-01,-2.062653425637467119e+00,-4.956039902182180282e-03,6.996195967788658709e-01,-1.487958607200544847e+00,8.419009258978876406e-03,7.194687168663906895e-01,-1.551252243174477075e+00,-3.574143418940033123e-02,1.226166160941328132e+00,-2.257902845561650995e+00
2.500000000000000000e-01,-1.532683149658087447e-02,-1.739679253729788750e-03,3.164049198696374798e-01,4.264090062210404257e-03,-6.403860937759224374e-03,7.837852608521539768e-03,9.999396862648858297e-01,-1.459516009836654866e-02,-2.227725010983272746e-01,-2.225130078106589693e+00,-1.390840151231793539e-02,6.429615923077932615e-01,-1.439640659228207165e+00,5.086715149647490913e-03,6.384235780969349516e-01,-1.460556524430612679e+00,5.856609402105292239e-02,1.720090590010568521e+00,-2.316738170958763554e+00
2.999999999999999889e-01,-2.434949724222011322e-02,-2.221242962887149796e-03,3.220069393745936814e-01,-2.169313853580896474e-03,-4.121874802238624145e-04,7.695800199510471765e-04,9.999972659590018464e-01,-4.016243255853629152e-02,-1.980509381075411246e-01,-2.268723708195189204e+00,1.011779706956716755e-02,5.837118922987006853e-01,-1.411336490061263493e+00,1.197162742898776749e-02,5.803614316096695758e-01,-1.406890916435196592e+00,5.406619136402033426e-02,1.935679182809241228e+00,-2.142775782046837385e+00
3.499999999999999778e-01,-3.368428254536647709e-02,-1.586135437524474352e-03,3.266150252014199951e-01,-3.024070909735823362e-03,1.050688940307011000e-03,-9.969739745324803643e-03,9.999451761658206816e-01,5.774958427203542854e-02,1.432187029024425406e-01,-2.049710327190533921e+00,2.589440548508790615e-02,5.281203426544602841e-01,-1.378058881265870284e+00,2.036368943094847214e-03,5.426449638805105335e-01,-1.372011917462203856e+00,-6.167494430232348113e-02,1.596338167597211033e+00,-1.839698491656585499e+00
3.999999999999999667e-01,-4.869938402071676692e-02,1.848497220452050222e-03,3.297265534972145806e-01,5.922643434402873920e-03,2.669959705067771402e-02,-2.504449862341114053e-02,9.993121769000827825e-01,-3.915309499156427453e-02,4.490800200765861505e-01,-1.413568048031474067e+00,-2.287174898991296834e-02,-1.235637188174708856e-01,-1.775357859067261845e+00,1.066211943265319984e-01,4.890146443032174495e-01,-1.941436544056057700e+00,2.930618247231224494e-02,6.663919043397856790e-01,-1.318697211310003947e+00
4.499999999999999556e-01,-6.712342189433852246e-02,2.692634993694988012e-03,3.256455739539942384e-01,8.860712683850083954e-03,4.517620205005167672e-02,-5.493135638294164430e-02,9.974282654030801609e-01,1.157126476965178279e-02,3.902553856053136982e-01,-1.441025350160394236e+00,6.086070211120158530e-02,-5.492986869455802612e-01,-2.030935331517071951e+00,-8.767073708199107224e-03,5.653530843067501310e-01,-2.219891195567580855e+00,-6.472848728757231440e-03,5.313767678982904696e-01,-1.276619146679023320e+00
4.999999999999999445e-01,-8.883514136552037033e-02,2.649778783453398279e-03,3.244397912079849400e-01,5.844213793981880255e-03,5.705021284859264352e-02,-5.456841386080883011e-02,9.968617790786122868e-01,2.765241158702534674e-02,2.929962529803217253e-01,-1.433968747471411787e+00,4.850598687264422171e-02,-4.872427808667744165e-01,-2.129473728546661615e+00,-4.783823631499191376e-02,7.984985941493827344e-01,-2.242438071502594887e+00,8.126900040992701690e-03,4.313253920318651513e-01,-1.245206425749779688e+00
5.499999999999999334e-01,-1.155534787659563828e-01,1.842494866421487366e-03,3.246052850258607791e-01,7.049617879723069774e-03,5.318932298623244709e-02,-2.851186046433412669e-02,9.981524295521593260e-01,-2.324716085670661819e-02,1.631848959240786989e-01,-1.362199226525849793e+00,-4.750234482408079162e-02,7.047181977067859537e-02,-1.993661220378224908e+00,9.689148454044171910e-02,1.025117853388719524e+00,-1.978608731663050069e+00,3.605048134207555766e-02,3.889116169795112099e-01,-1.263533996238045631e+00
5.999999999999999778e-01,-1.387540948142344799e-01,-1.840457973847875375e-03,3.178524432994928040e-01,-8.697444079580222975e-03,1.146571813360137623e-02,-2.484148767161139127e-03,9.998933547029232871e-01,7.525423355144079951e-02,9.238931170102583634e-02,-1.962470147428722944e+00,5.781518133311314839e-02,8.612472299457719638e-01,-1.485717705667104482e+00,-4.701635216975010023e-03,9.170638213214743484e-01,-1.367831600727810182e+00,-5.237751999190536772e-02,1.620324821457467701e+00,-1.434228252395654435e+00
6.500000000000000222e-01,-1.703763819292910264e-01,-4.256240357369617949e-03,3.161995393709409186e-01,-9.868735717573341032e-03,-2.313871678779904576e-03,2.513701127769628341e-02,9.996326248763671707e-01,-4.185431678951853640e-02,1.056747725650896419e-01,-2.235338198736136039e+00,3.687496090793672410e-02,7.989138665409870610e-01,-1.463319894098048968e+00,4.785043971363781706e-02,8.618290731757208833e-01,-1.439672055844164911e+00,1.782842132786770922e-02,2.297894605349192876e+00,-1.252266070678560217e+00
7.000000000000000666e-01,-2.018402932226166513e-01,-3.440943045704560922e-03,3.224142742783486226e-01,-9.321556092229765431e-03,1.254311941702099080e-02,2.352270758173068133e-02,9.996011509473836654e-01,-3.571838382763753428e-02,2.519827388413971581e-01,-2.305464749411849201e+00,2.977463290539660370e-02,6.668435605060664129e-01,-1.459986113373219041e+00,3.551421893269779417e-02,7.050273033604396167e-01,-1.380419516920917022e+00,3.548036035932382315e-02,2.310325710089115248e+00,-1.177808513960800996e+00
7.500000000000001110e-01,-2.308885651998682231e-01,-9.067467690200575357e-05,3.318442152581954629e-01,4.057471708520735674e-04,4.311468367323741807e-02,1.467176362023050844e-02,9.989623109873876361e-01,1.035100371716893147e-01,5.007200976318705310e-01,-2.143431541466863877e+00,7.953324269105676442e-03,5.054491081663531338e-01,-1.461607166464785390e+00,-8.154110113907087759e-03,4.914235750591942065e-01,-1.227492308138350863e+00,-1.839788924164095785e-02,1.662715390476874777e+00,-1.202795120216243685e+00
8.000000000000001554e-01,-2.641850908098736794e-01,5.197395286125435464e-03,3.376684613490301690e-01,-1.144574672122058729e-03,8.369981281264958495e-02,-1.930311556537392653e-03,9.964884872296528862e-01,-1.895037292112964483e-02,6.012936909998405355e-01,-1.556746442324734137e+00,-3.674855162117436624e-02,-1.576993230821640002e-01,-1.958093866058115307e+00,7.143929675541857427e-02,1.172252813643547054e+00,-1.640019013359645061e+00,4.056645356514191475e-02,4.977897338806765992e-01,-1.027591978447965015e+00
8.500000000000001998e-01,-2.976568141656291688e-01,6.775586270011537543e-03,3.302704392755187457e-01,-4.178839349719963223e-03,8.158715417343259668e-02,-2.256653730874717129e-02,9.964019394649242800e-01,1.746933996712536977e-02,5.252078690511036152e-01,-1.576873184014162987e+00,4.092277881848125493e-02,-5.371830548176292908e-01,-2.116178585981222326e+00,-3.408244401013645064e-02,1.808176224082819861e+00,-1.581967077976497160e+00,2.270227274101524473e-02,4.412375093224069067e-01,-1.113406156909380940e+00
9.000000000000002442e-01,-3.327957554032470733e-01,6.994793351085822758e-03,3.275261870922248630e-01,5.489081691621042376e-03,7.707535843438086121e-02,-2.012301751856631835e-02,9.968070642157096373e-01,-3.489773900445337917e-03,3.994660194270617803e-01,-1.540944149036001409e+00,5.894223887770207171e-02,-4.349717965411050713e-01,-2.173553554984564595e+00,-1.836330964218950770e-02,2.047524526610431383e+00,-1.424742116180523821e+00,1.019090468407867628e-02,3.789905987668868992e-01,-1.165421640352623189e+00
9.500000000000002887e-01,-3.680278090518398493e-01,4.564261643805258249e-03,3.292306551550169824e-01,9.849828629682698920e-04,7.199749004581500189e-02,-1.104136686571887153e-03,9.974037157129703735e-01,-2.311616321492017401e-02,2.437433991832007874e-01,-1.457092416782088229e+00,-4.429109351796412658e-02,1.407387257181587636e-01,-2.077060390671682022e+00,8.550811566209695624e-02,1.676717325172641049e+00,-1.293104966592110827e+00,4.311980355627929862e-02,2.999885393910553533e-01,-1.160205726541997606e+00
1.000000000000000222e+00,-4.035715298249353822e-01,-1.507499353157237647e-03,3.292878964245795625e-01,6.980467309033708961e-03,7.078783781528413810e-02,2.294565924383142053e-02,9.972030143433434635e-01,5.743378221473204731e-02,-2.415552506094950369e-01,-1.925044759702763564e+00,4.124490910641227803e-02,8.234451398748440232e-01,-1.572215743237950214e+00,-2.604651280581585931e-02,6.504254273714988877e-01,-1.032323484665503832e+00,-6.730318781939324813e-02,1.312328409046066957e+00,-1.456331103981258757e+00
1.050000000000000266e+00,-4.450579333178856789e-01,-4.733644711469375994e-03,3.252048589193473060e-01,1.128027050770401968e-02,6.319903530453091500e-02,4.209049369962991616e-02,9.970491601591022768e-01,-1.869105890435704409e-02,-5.019541606428731262e-01,-2.085296833302398678e+00,1.283039721820748887e-02,7.340362783770085775e-01,-1.601230989292580897e+00,-6.334046064115854413e-03,6.030639377001130175e-01,-1.155324657829984059e+00,3.086270478217391366e-02,1.998357274686126894e+00,-1.290364738886443208e+00
1.100000000000000311e+00,-4.864926170379705872e-01,-6.187049265066158280e-03,3.268242277048624689e-01,6.630061695008127032e-03,6.680955274881889006e-02,3.704426619738077076e-02,9.970557899562695336e-01,-2.799903309023095421e-02,-3.379952722849324243e-01,-2.149122391342344951e+00,2.393744634139345628e-02,5.781006868021606460e-01,-1.594318464708048166e+00,-8.641823183053579105e-03,4.933431735516937700e-01,-1.175261930713950909e+00,3.588101720160571939e-02,2.137983783194144838e+00,-1.154297396259734487e+00
1.150000000000000355e+00,-5.252192044609335086e-01,-5.288979631784864952e-03,3.308810582660013377e-01,1.301301189543504176e-02,7.617892626220315599e-02,2.288188025696607023e-02,9.967466339400664621e-01,8.798939034346076049e-02,2.166409640961112215e-01,-2.075015823688367345e+00,2.495703744142876296e-02,3.987829022368095666e-01,-1.556708056983557187e+00,-4.389703892673700591e-02,3.513562215823136103e-01,-1.121157231858007641e+00,-4.769233470362337080e-02,1.632651678721092070e+00,-1.108451242014141469e+00
1.200000000000000400e+00,-5.653813018797720913e-01,-2.278175691117753209e-03,3.326060810556305536e-01,-8.285142472612742892e-03,8.953142833186186755e-02,4.266077134653756958e-03,9.959403999943703401e-01,-2.721426141916168107e-02,7.989326949489538032e-01,-1.587856421033962517e+00,-3.804923513814935376e-02,-2.358409318492825923e-01,-2.002849766734732917e+00,7.685292753134795318e-02,1.217633869158404103e+00,-1.429294497776383288e+00,1.494708965477471035e-02,5.416689184147800429e-01,-9.391906148160977796e-01
1.250000000000000444e+00,-6.076957990381347541e-01,-2.847666411438776277e-03,3.266716016535243239e-01,-1.578449650722279010e-02,8.110275223181009907e-02,-9.825612150526906105e-03,9.965323128711414125e-01,7.706995584067552474e-03,7.117555762559109045e-01,-1.630529166693806209e+00,2.750393118406261467e-02,-5.828633066092544501e-01,-2.153898470814425536e+00,-2.161798944449876830e-02,1.892190757635897613e+00,-1.290225850760281512e+00,1.353920123784187191e-02,5.133206271023256217e-01,-1.088017292640422351e+00
1.300000000000000488e+00,-6.498225937048787149e-01,-5.127969622012707417e-03,3.259752763479142335e-01,-1.403319366829965283e-02,7.944074638080861339e-02,-9.320911721105990108e-04,9.967403716595284457e-01,-5.468043324324128873e-04,5.606680058450049797e-01,-1.626593045008020155e+00,3.410845258971400423e-02,-4.392338537908579976e-01,-2.205339633537382049e+00,-2.926074606964230995e-02,2.084488877951040653e+00,-1.150977718427858454e+00,2.733113388512017905e-02,4.353752474603261868e-01,-1.144763241598853565e+00
1.350000000000000533e+00,-6.900660052081166729e-01,-9.558180924667494804e-03,3.280659832994689551e-01,-2.383357130011565239e-02,8.421969871303433552e-02,1.226876741446591111e-02,9.960865828701327418e-01,9.461097990756117682e-03,3.823701770967795621e-01,-1.586713525258671931e+00,-6.948502848514349906e-02,1.686077787921588522e-01,-2.101652850433850084e+00,5.887643764647279565e-02,1.645376748968842229e+00,-1.097342659247323438e+00,6.922284303979422959e-02,3.070555680659842190e-01,-1.112219620042869783e+00
1.400000000000000577e+00,-7.304418842822504310e-01,-1.618881550083305781e-02,3.278697679245647367e-01,5.164106296901843293e-03,9.501115503087963210e-02,2.538557065378006100e-02,9.951390783344981061e-01,6.513476479994056989e-02,-1.893699654803985277e-01,-2.044855397557455046e+00,1.810312191241509119e-02,8.400492294359627188e-01,-1.611299127684026056e+00,-2.717190853638377923e-02,5.700379182822296054e-01,-9.382690268453202087e-01,-2.624709581672926562e-02,1.254692956199187970e+00,-1.420682232708804893e+00
1.450000000000000622e+00,-7.741863247426757910e-01,-1.942060735899501026e-02,3.221648610117294198e-01,7.160538458304154322e-03,8.651466387935763391e-02,3.799589807259513841e-02,9.955000006792997791e-01,-7.733068009512331087e-03,-5.226062558675176328e-01,-2.196327160939775425e+00,1.842033794866169277e-03,7.494527509727545445e-01,-1.662653624470402658e+00,-1.293649664915979408e-02,5.510463745990756834e-01,-1.107467841031710032e+00,7.966666054408827469e-02,1.946278836449126581e+00,-1.281454900746949566e+00
1.500000000000000666e+00,-8.169037473703347763e-01,-2.055067647142080900e-02,3.222529711559223853e-01,1.989132341879064239e-04,8.658617374056865046e-02,3.073929666447974135e-02,9.957699988406291114e-01,-1.266359931627510788e-02,-3.931932819340424601e-01,-2.239709728524648558e+00,2.173279018732909851e-02,5.933682088145021405e-01,-1.664614541576252549e+00,-1.311069716977351571e-02,4.666525781327977018e-01,-1.164746263644717228e+00,7.531648182399987290e-02,2.123779147314716731e+00,-1.160275365428976135e+00
1.550000000000000711e+00,-8.564361336601976626e-01,-1.862467614290777562e-02,3.250626382469458120e-01,6.878317066947941226e-03,9.074300833122996013e-02,1.325041218967945057e-02,9.957624323954626933e-01,1.038459086818028509e-01,1.748466778027097657e-01,-2.153841578963268777e+00,2.735917427256336770e-02,4.140409554564531414e-01,-1.627970800540051055e+00,-5.314417116513499295e-02,3.517459968217420685e-01,-1.147390129347361842e+00,-5.953910472803032594e-03,1.652308734867146578e+00,-1.129363519359787960e+00
1.600000000000000755e+00,-8.955639479182110341e-01,-1.481486334125706704e-02,3.247846983063712445e-01,-2.395253544642481427e-02,9.615426858521355924e-02,-8.666569683540228594e-03,9.950404631211993145e-01,-9.458442591951707334e-03,8.421859456471757488e-01,-1.668372239452572403e+00,-3.581247097653493527e-02,-2.251514723082789216e-01,-2.059856720215208270e+00,6.718520796732903311e-02,1.256407261084887539e+00,-1.458750257968569386e+00,6.429211534032572284e-02,5.511793902837522907e-01,-1.002039819914220420e+00
1.650000000000000799e+00,-9.369152125536271969e-01,-1.368668212623451105e-02,3.187110708338651843e-01,-3.139172913187098651e-02,8.505833817868975466e-02,-3.059197241356361244e-02,9.954113570138923839e-01,3.403537094309064259e-02,7.624648979333321641e-01,-1.701030416413056745e+00,3.807139121958960648e-02,-5.745539689042875597e-01,-2.213475472471921002e+00,-4.264379827492909003e-02,1.937701008421157445e+00,-1.321652334654808136e+00,5.309235214255792618e-02,5.203596921626859606e-01,-1.144070005232718179e+00
1.700000000000000844e+00,-9.770865302938542829e-01,-1.359313943752359435e-02,3.195526342651192064e-01,-2.746051683008263536e-02,8.078478604911705496e-02,-2.599076476245589656e-02,9.960141658156703715e-01,2.616318612052717305e-02,6.166960934778213943e-01,-1.684856929955025118e+00,5.086046319734661286e-02,-4.283241881903415704e-01,-2.260428744477600116e+00,-4.469173477021635282e-02,2.119429055248331473e+00,-1.197342160590038063e+00,5.691547707659223854e-02,4.392223495331823990e-01,-1.184797434179428066e+00
1.750000000000000888e+00,-1.014470836045236579e+00,-1.503206086349177621e-02,3.242967023763886902e-01,-3.889882956538281283e-02,8.524052390628761300e-02,-1.260051936083134670e-02,9.955210500308179222e-01,3.737980501459757521e-02,4.440023300659122207e-01,-1.641819762554059814e+00,-5.531822413936679506e-02,1.789878346780716112e-01,-2.139660081486717935e+00,5.332923978215391853e-02,1.659979480815142683e+00,-1.163186562717761996e+00,9.923001977951799446e-02,3.064723637203380369e-01,-1.125449600984864906e+00
1.800000000000000933e+00,-1.051303641379434328e+00,-1.764726633693262589e-02,3.261054599372553708e-01,1.027500290824378756e-02,9.080339680293697535e-02,4.569605251241626483e-03,9.958053455129329823e-01,9.096012078380219523e-02,-1.662265712718476174e-01,-2.065172579501548089e+00,3.689864174275966219e-02,8.443224044166637299e-01,-1.634472428326287918e+00,-2.248462741915617513e-02,5.493427770074154060e-01,-1.032340264061197388e+00,-2.368980928047971501e-02,1.264929239670075756e+00,-1.400257687759490777e+00
1.850000000000000977e+00,-1.091228268861762718e+00,-1.794040498402401165e-02,3.215343830163150951e-01,7.075121368450025885e-03,7.357959009947184770e-02,2.057921683031029014e-02,9.970518955465991207e-01,9.113704080409949781e-03,-5.280752265621166952e-01,-2.188839716280575054e+00,2.329103886107538463e-02,7.650705739427535734e-01,-1.644075146324715186e+00,1.556426997896119546e-03,5.377271830111575168e-01,-1.178985759802387845e+00,7.719039252467968515e-02,1.973345481693075776e+00,-1.233165513381406342e+00
1.900000000000001021e+00,-1.130573245257016080e+00,-1.710649402576496989e-02,3.229315306693913978e-01,-2.827325483158570334e-03,6.732921696974530912e-02,1.138332198323294998e-02,9.976618679459886563e-01,-5.084113269882312158e-03,-4.061713098665807875e-01,-2.203253849583922008e+00,5.042236879076879286e-02,6.236486393164877295e-01,-1.621731723751082654e+00,5.330922826153532829e-03,4.665165937746959535e-01,-1.222501748680521194e+00,6.547423605817276338e-02,2.162837060087526186e+00,-1.086398262944807236e+00
1.950000000000001066e+00,-1.166067555094941977e+00,-1.425307989777689632e-02,3.284416820229404399e-01,5.125774204899551795e-03,6.630487000724274993e-02,-1.329443116045180007e-02,9.976976740236709329e-01,1.035876277176655952e-01,1.636808824983771449e-01,-2.083533275678652874e+00,6.647777744247188036e-02,4.603057486945725252e-01,-1.568192610596334635e+00,-3.987503169908961087e-02,3.679294264422825478e-01,-1.186853536323559943e+00,-1.328703493923454049e-02,1.703759189827792397e+00,-1.045198691775438782e+00
2.000000000000000888e+00,-1.202499886217456959e+00,-9.824201708274409028e-03,3.316892223704061005e-01,-2.787987985873761898e-02,7.516161795206061091e-02,-4.134781201525364325e-02,9.959235924143187146e-01,-1.783809854882752177e-02,8.525092315806969134e-01,-1.575997410004985833e+00,-9.094007668816364576e-03,-2.060103247909242929e-01,-1.949582016440478016e+00,1.108378341744648693e-01,1.284674238618388253e+00,-1.473040332937535446e+00,5.455838867707170359e-02,6.130532315467608351e-01,-9.403333665354456361e-01
2.050000000000000711e+00,-1.238892814055677860e+00,-7.476061497990555034e-03,3.284279243815200755e-01,-3.479918292918560835e-02,6.136034076744213001e-02,-6.246583608283925310e-02,9.955510759226953166e-01,2.226890453649191248e-02,7.855775465039320782e-01,-1.584703549382026067e+00,5.932565055229033213e-02,-5.703077141845579456e-01,-2.057083548888743341e+00,7.843627518265214316e-05,2.005817838463966218e+00,-1.322855596948453893e+00,4.116867451700174235e-02,6.073275568749403330e-01,-1.088492678162713778e+00
2.100000000000000533e+00,-1.271981753366263845e+00,-5.487046102445088634e-03,3.310755331952935920e-01,-2.836604688863749932e-02,5.263278240803583724e-02,-5.443901516420888292e-02,9.967254141577062132e-01,4.184183198974796014e-03,6.709505200730560004e-01,-1.555977220663688154e+00,7.356278691643097778e-02,-4.321550489980123255e-01,-2.067960571828197924e+00,-7.793558876467616275e-03,2.235044654891128246e+00,-1.191027728167744826e+00,4.341096015994423685e-02,5.709687290011051797e-01,-1.152273293302315649e+00
2.150000000000000355e+00,-1.299581501006796369e+00,-4.535006775848123006e-03,3.365006243937884167e-01,-3.961917994798083015e-02,5.296441563531561342e-02,-3.676381955270967283e-02,9.971326455535165501e-01,7.242379536916462857e-03,5.499555009832491903e-01,-1.523627373688598796e+00,-3.551878429266461246e-02,1.596546706632341606e-01,-1.929841230858953205e+00,8.010716516375077090e-02,1.808418395520929867e+00,-1.164252727005813393e+00,8.939094999888391735e-02,4.946120453265174799e-01,-1.129473850716761207e+00
2.200000000000000178e+00,-1.324130753910028213e+00,-5.880457809755181703e-03,3.366182276654616778e-01,6.653716139377204714e-03,4.541471028060016513e-02,-2.747243549003123425e-02,9.985682237283097784e-01,7.498450962181250901e-02,-1.028571021118671325e-01,-1.952333289322444765e+00,4.488537874707810432e-02,8.222489644753949722e-01,-1.445548566360504772e+00,-1.682494111049293722e-02,7.226091710951668690e-01,-1.033213589460126647e+00,-3.687972053259990640e-02,1.374198372268393031e+00,-1.489612945832478497e+00
2.250000000000000000e+00,-1.354211889528163404e+00,-3.562807647145558362e-03,3.304798431009026149e-01,2.223679481105490189e-03,3.518276587330607108e-02,-6.512959127975647897e-03,9.993571982021577371e-01,-1.406587614302691469e-02,-4.895696626662322526e-01,-2.064145918282455305e+00,2.931637769766708493e-02,7.806342195413495944e-01,-1.471648265293677538e+00,1.974597629913045840e-02,7.244594147542769980e-01,-1.179341984005275012e+00,5.865235126331647120e-02,2.018696334475982290e+00,-1.443728545646608019e+00
2.299999999999999822e+00,-1.381511695935834005e+00,-6.683710591794264026e-05,3.287226720303372818e-01,-3.674473880764285005e-03,3.573045680709826394e-02,-1.157159116143938876e-02,9.992877118107917900e-01,-2.553907418757921793e-02,-3.879921024802471252e-01,-2.063360564835856170e+00,3.803410030625592464e-02,6.994641527441900486e-01,-1.493116278931799101e+00,1.585568753552407673e-02,6.855193958725588343e-01,-1.245938844446814242e+00,3.032111335288824316e-02,2.146051477167245647e+00,-1.376392972437156637e+00
2.349999999999999645e+00,-1.402216209464197894e+00,4.904058751350814233e-03,3.312323104725614642e-01,2.720244255781876282e-03,3.753608862260805062e-02,-3.800428772094525259e-02,9.985686338138847207e-01,8.561787427805328532e-02,1.280792491982604975e-01,-1.935487243508562383e+00,4.832040569436562433e-02,6.058211649941611654e-01,-1.492457112088314775e+00,-4.163048349021505889e-02,6.496588337955788717e-01,-1.262170825849090683e+00,-5.488293505287260982e-02,1.646349167117223455e+00,-1.347755753730357497e+00
2.399999999999999467e+00,-1.425636210700595763e+00,1.280301605421235202e-02,3.334587701124699932e-01,2.093505270626504905e-02,6.644506045097350877e-02,-6.376735964125337941e-02,9.955302613955215874e-01,-1.198444660236011594e-02,7.661499591083902327e-01,-1.475533829026611343e+00,-5.114822698383536537e-02,-1.271812503113860238e-01,-1.931452705764865829e+00,1.014290680495668895e-01,1.019242608276857975e+00,-1.899165876479423254e+00,3.755473455777431219e-02,6.314174356898932805e-01,-1.133940359891150829e+00
2.449999999999999289e+00,-1.443866129198160930e+00,1.501038791940791789e-02,3.290381389169903525e-01,1.606235715408825884e-02,5.553626593555834740e-02,-8.131892460807348122e-02,9.950100282656331174e-01,1.687156498949242758e-02,7.508435067327875467e-01,-1.479179189535861694e+00,2.527096558458206965e-02,-5.930379614354102102e-01,-2.064993976302327283e+00,-3.515596138601548987e-02,1.346014241250180765e+00,-2.119111052949238516e+00,2.540022522090668727e-02,6.365090111576625631e-01,-1.221029432346552035e+00
2.499999999999999112e+00,-1.456227256322101038e+00,1.599045842588478483e-02,3.288200736022589554e-01,2.424683139556278039e-02,3.561142737665776853e-02,-7.628671396549539796e-02,9.961547343057798320e-01,-6.075180273350813676e-03,7.222387882777870916e-01,-1.433788182417123025e+00,5.990986735040532835e-02,-5.516844073687858785e-01,-2.058913423394278297e+00,-4.031698927084644696e-02,1.480188281256545446e+00,-2.116434582364570272e+00,1.697439454512657611e-02,6.880135845971356856e-01,-1.307460425367695356e+00
2.549999999999998934e+00,-1.464416478644056552e+00,1.551020081974053590e-02,3.315223824362668603e-01,1.859459309123774606e-02,1.882408521969635568e-02,-5.154037879151915358e-02,9.983203314955774177e-01,-2.070945665104723457e-02,6.875151499189112725e-01,-1.390648288163652158e+00,-4.813964880775116473e-02,-4.638192524244644926e-02,-1.889316587684793491e+00,9.860126630684262761e-02,1.282276899700445671e+00,-1.906414545093827462e+00,6.368241791408502106e-02,7.427123959931650754e-01,-1.358261725911576789e+00
2.599999999999998757e+00,-1.471361020575481904e+00,1.065266285332099570e-02,3.326975899693308536e-01,-1.866991276082928877e-02,5.299235012685764128e-03,-2.718819640487813230e-02,9.994419214952078301e-01,5.202340138218564808e-02,2.212329219419796947e-02,-1.844419310283957891e+00,3.575001452089628801e-02,6.796195593798444179e-01,-1.348274242188828298e+00,-2.922641917316692525e-02,7.439681049248728639e-01,-1.385855408901732533e+00,-7.206564830196789118e-02,1.173625693136277404e+00,-2.006124854104063715e+00
2.649999999999998579e+00,-1.479029105427359436e+00,8.754222737152868999e-03,3.320911605289239565e-01,-1.712333599269747972e-02,-4.061525532033461415e-03,-1.557575817718746456e-04,9.998451235638495804e-01,-4.991877121827974217e-02,-4.598023007731492084e-01,-1.966535211711388786e+00,8.249077045275608408e-03,6.786768742597772963e-01,-1.309573313408435080e+00,7.510257587623169959e-03,7.222278243130657582e-01,-1.394791383887741487e+00,3.495043056609375282e-02,1.411180561042695736e+00,-2.304773284710183834e+00
2.699999999999998401e+00,-1.483768749686299460e+00,7.743716788250347254e-03,3.298342687167676868e-01,-1.232587227249296253e-03,-1.119701890061271417e-02,1.049232665069589100e-02,9.998815022681045717e-01,-1.754778088851063553e-02,-5.228079561825098587e-01,-1.998989634425991646e+00,-3.231134818243228818e-02,6.882907398895481421e-01,-1.309874551064705628e+00,-8.675502848353647614e-03,7.212195011826965096e-01,-1.410879194400123771e+00,5.754136692716128876e-02,1.333049607834892125e+00,-2.371998505397501678e+00
2.749999999999998224e+00,-1.488089375751729726e+00,5.342685692498957278e-03,3.234011729153004611e-01,-3.138178124541955456e-03,-1.612485650296409390e-02,1.201041249302917807e-02,9.997929239760425801e-01,6.763215559736941718e-02,-8.090502758819134721e-02,-1.920251192418775066e+00,-2.368555230089525523e-02,7.048745931256050756e-01,-1.346984725318179477e+00,4.130308471891481689e-03,7.429766572664330271e-01,-1.465201563100806181e+00,-5.094157213764992365e-02,1.034155717240054173e+00,-2.156329247286758566e+00
2.799999999999998046e+00,-1.491940605112114904e+00,2.299287832977867790e-03,3.138443766674611779e-01,7.214546610110497780e-04,-1.466415348969851706e-02,1.040304260550021023e-02,9.998380962986711529e-01,-2.154724989103216221e-02,7.251234699344453194e-01,-1.457071594442235218e+00,-2.125049422892214684e-02,7.306518867866982347e-01,-1.431333318854042025e+00,3.835787203501587334e-03,7.553493531751929169e-01,-1.519341107356605880e+00,4.047322448100558294e-03,7.786586686681006286e-01,-1.527625909218715661e+00
2.849999999999997868e+00,-1.497476715869611619e+00,7.539450724206920619e-04,3.104415230649423263e-01,4.481356966585035948e-05,-3.599349762419030204e-03,6.863619495230166394e-03,9.999699662492150809e-01,-1.160498237697537086e-02,7.110760288345492341e-01,-1.504037974930477528e+00,-1.147987611796610907e-02,7.168003680839581948e-01,-1.490042708603047439e+00,5.480843644197261506e-03,7.147696279784676587e-01,-1.512033443032015922e+00,5.577555462888236955e-03,7.314440388771166202e-01,-1.520440583188346739e+00
2.899999999999997691e+00,-1.499999999679065832e+00,1.081771857305925668e-14,3.113099469256391805e-01,-1.647203342581074444e-14,3.298373361963538933e-10,-1.714737929349953046e-13,1.000000000000000000e+00,-1.214731552953967309e-09,7.000000001799848715e-01,-1.499999998005112634e+00,1.223853827324080612e-09,7.000000001812557437e-01,-1.499999997990236977e+00,-1.239998425439759998e-09,7.000000001834792984e-01,-1.499999997963778586e+00,1.230834343656034782e-09,7.000000001822077600e-01,-1.499999997978896937e+00
2.949999999999997513e+00,-1.500000000000000000e+00,0.000000000000000000e+00,3.113099999999999756e-01,0.000000000000000000e+00,0.000000000000000000e+00,0.000000000000000000e+00,1.000000000000000000e+00,0.000000000000000000e+00,6.999999999999999556e-01,-1.500000000000000000e+00,0.000000000000000000e+00,6.999999999999999556e-01,-1.500000000000000000e+00,0.000000000000000000e+00,6.999999999999999556e-01,-1.500000000000000000e+00,0.000000000000000000e+00,6.999999999999999556e-01,-1.500000000000000000e+00
