yusongmin1/go2_flip_TO/datasets/go2/trajectories/quad_spin_inplace_reverse_ramp_3s/trajectory_full.csv
t,base_tx,base_ty,base_tz,quat_x,quat_y,quat_z,quat_w,FL_hip_joint,FL_thigh_joint,FL_calf_joint,FR_hip_joint,FR_thigh_joint,FR_calf_joint,RL_hip_joint,RL_thigh_joint,RL_calf_joint,RR_hip_joint,RR_thigh_joint,RR_calf_joint
0.000000000000000000e+00,0.000000000000000000e+00,0.000000000000000000e+00,3.113099999999999756e-01,0.000000000000000000e+00,0.000000000000000000e+00,0.000000000000000000e+00,1.000000000000000000e+00,0.000000000000000000e+00,6.999999999999999556e-01,-1.500000000000000000e+00,0.000000000000000000e+00,6.999999999999999556e-01,-1.500000000000000000e+00,0.000000000000000000e+00,6.999999999999999556e-01,-1.500000000000000000e+00,0.000000000000000000e+00,6.999999999999999556e-01,-1.500000000000000000e+00
5.000000000000000278e-02,1.861190930580190576e-03,1.020314878370990989e-04,3.101611872616107934e-01,1.108421102594432574e-03,-1.001677582674586481e-02,-1.251698917878384066e-03,9.999484330976847746e-01,-9.038474090706859025e-04,7.175337191803720094e-01,-1.480241867268534017e+00,-9.003343237981730916e-04,7.167245085814722971e-01,-1.483253644821304729e+00,-4.057012275944413618e-03,7.442720142371771486e-01,-1.535418814522250264e+00,-4.054942904310823021e-03,7.413712751395894474e-01,-1.534270226147163241e+00
1.000000000000000056e-01,3.830054763563589364e-03,2.897415529400868277e-04,3.112898050877678235e-01,2.237389092639296192e-03,-1.994439790063526688e-02,-3.955320249871645526e-04,9.997985090191155999e-01,-4.833311828587504889e-03,7.260878468098712624e-01,-1.446205071994507874e+00,-4.836309249738083953e-03,7.265246192741736664e-01,-1.448639104631920693e+00,-5.971651758157708184e-03,7.787387608728982835e-01,-1.553227874799881114e+00,-5.975677915396907132e-03,7.783371276611436018e-01,-1.554068774245027651e+00
1.500000000000000222e-01,4.697704224497805357e-03,6.227422108868123753e-04,3.185183974879982616e-01,1.470836153657868869e-03,-2.373994292975211209e-02,2.239112127277952634e-03,9.997145783310267264e-01,-7.490684800029911300e-03,7.052484082088553707e-01,-1.386995289850718516e+00,-7.481687418871391451e-03,7.069036346847508145e-01,-1.382719075980418433e+00,-2.252095215899861756e-03,7.677631538600354633e-01,-1.513509355766537556e+00,-2.243649769053989666e-03,7.732588023058943882e-01,-1.516377135318658587e+00
2.000000000000000111e-01,1.969012547855669270e-03,7.837483758809306745e-04,3.327612501881392348e-01,-8.784226225555126890e-04,-1.516461754226276250e-02,3.672477682172324651e-03,9.998778803714817309e-01,1.119565480162450222e-02,2.722958506980959759e-01,-1.874673309936099264e+00,-4.929421955092967191e-03,6.411922734453447958e-01,-1.296325821033752712e+00,3.514097148900384091e-03,6.804226427136547128e-01,-1.389254200035068942e+00,-3.005458594388742133e-02,5.688630844107018802e-01,-2.057049512189226270e+00
2.500000000000000000e-01,1.330251295555236277e-03,1.005641551496047875e-03,3.414099869986143010e-01,-2.375369598262277396e-03,-1.415801719513653037e-02,4.387827298310717668e-03,9.998873212217335160e-01,-1.420746860423693914e-02,4.753077022781154043e-02,-2.027908138075989797e+00,-3.283047813944315468e-03,6.049016119978599670e-01,-1.228378361573495781e+00,6.584497637343136520e-03,6.435852679076063954e-01,-1.322353368656137063e+00,3.717301624773651763e-03,5.516245428923874927e-01,-2.264719124095972091e+00
2.999999999999999889e-01,1.397326487632589856e-03,1.283109256889624315e-03,3.452874268269472413e-01,-6.703669553275242235e-03,-1.948393194064607786e-02,-6.852435713897267293e-03,9.997642128699344433e-01,-2.623935064694084621e-02,4.995502282772128905e-02,-1.980637766528455579e+00,1.744023228206001766e-02,5.854491913116127710e-01,-1.184741454655578119e+00,2.155544769551423576e-03,6.639508283180705073e-01,-1.321711592362008414e+00,2.010757510325053565e-02,6.973860473098069113e-01,-2.280881283494181844e+00
3.499999999999999778e-01,2.039905876785292217e-03,1.842756261923883705e-03,3.456047707537550640e-01,-7.762590982964817816e-03,-3.180258288124806348e-02,-3.837859890100167592e-02,9.987269001332188534e-01,2.874495130887580810e-02,2.546698332364359385e-01,-1.730822211891924534e+00,5.325528720625596207e-02,5.782199127395052374e-01,-1.163779568691134525e+00,-3.531105585191153529e-02,7.467040124495770703e-01,-1.381264724484372319e+00,-4.510125900236861690e-02,8.938635373347865176e-01,-2.041687603034530341e+00
3.999999999999999667e-01,-3.195571572630724003e-04,3.707744063978653335e-03,3.418750619971021032e-01,8.402384199378523828e-04,-2.834388665136357635e-02,-8.065430855308915181e-02,9.963386977332132632e-01,-3.360595432111967290e-02,6.293592053639233130e-01,-1.206996731933942302e+00,-1.766293130197945857e-02,1.676688610442609029e-01,-1.679285566954061393e+00,2.781598315187432807e-02,4.570108967708515491e-01,-1.930729058303648271e+00,5.138911110421726103e-02,7.783053211289802098e-01,-1.400086893357012752e+00
4.499999999999999556e-01,-2.100288147398706156e-03,4.359440097362495686e-03,3.379437105206089531e-01,2.332219199992478700e-03,-2.908508371959749733e-02,-1.171969008595990097e-01,9.926799610587152545e-01,2.264828109626729983e-03,6.529284356573711312e-01,-1.205838235499359534e+00,1.004054639914432438e-02,-3.216509812388135270e-02,-1.903012242451250779e+00,-4.045851789134490006e-03,2.672780517631619945e-01,-2.098184571108834717e+00,1.673197067371426329e-03,7.456933910965367618e-01,-1.404850565743228197e+00
4.999999999999999445e-01,-4.301792514948446326e-03,4.152059502591247744e-03,3.377169537650585585e-01,4.277004510047725458e-03,-2.625461105344980769e-02,-1.242886635679627400e-01,9.918894750622888612e-01,8.846612525955924872e-03,6.478160417601940280e-01,-1.207670882956402680e+00,1.596288054099865433e-02,2.757279364219176326e-02,-1.928536583737327836e+00,-2.507524461314526373e-02,2.141241602916240105e-01,-2.095879916480047012e+00,-7.893197663156876001e-03,7.215512501797021194e-01,-1.394360806065287450e+00
5.499999999999999334e-01,-7.453337944656581240e-03,3.442824527491497241e-03,3.393943846236829320e-01,4.847892579767772332e-03,-1.757433648429122808e-02,-1.204389261068677108e-01,9.925533263824651842e-01,9.769575244845261214e-03,6.263196941788558014e-01,-1.221631170780141273e+00,-3.971394064710068866e-02,3.120329310580979287e-01,-1.754203523471421056e+00,3.414878277671654083e-02,3.784001410480972716e-01,-1.917587061366707646e+00,1.957688236466064140e-03,6.827583521292104329e-01,-1.362351126070110441e+00
5.999999999999999778e-01,-1.364987286948276569e-02,1.975708811249304777e-03,3.395529933090457031e-01,-1.149844997688773997e-02,3.401298593151576115e-03,-1.363011351461939358e-01,9.905948805510091937e-01,3.739977144386420760e-02,2.849513065130195311e-01,-1.798829883742780966e+00,-1.921362901346316404e-02,6.928698065680566343e-01,-1.251914807550853936e+00,5.049396602678028409e-03,6.266337388763175698e-01,-1.312316361445545532e+00,-3.731317294361582992e-02,1.262724905501929618e+00,-1.969997633831720885e+00
6.500000000000000222e-01,-1.843134291275273090e-02,1.840090989023837826e-03,3.395906404609150830e-01,-1.200251916534452595e-02,9.996826042163653100e-03,-1.393104473371490348e-01,9.901255487388918031e-01,-2.454699787443785641e-02,9.229568858370551521e-02,-2.022417577098999608e+00,-9.296607077423923310e-03,6.782046410570057304e-01,-1.279119495352504021e+00,8.884658841349632463e-03,5.929828241717745030e-01,-1.292222168704052709e+00,2.367101858857265789e-02,1.616451553729759461e+00,-2.100612330313522236e+00
7.000000000000000666e-01,-2.127597639031298879e-02,2.478429218916717528e-03,3.407391961034764161e-01,-1.468011843240839623e-02,1.327678463531021050e-02,-1.535243778464379649e-01,9.879466010465455250e-01,-2.639079192851999031e-02,6.003608194479220783e-02,-2.029345089481957132e+00,1.298097395006814724e-02,6.577271249601241987e-01,-1.291223310746736352e+00,7.844508971432258239e-04,5.882850260766837591e-01,-1.287851801169553667e+00,2.105811221489341592e-02,1.688067965202770582e+00,-1.996488759537082824e+00
7.500000000000001110e-01,-2.266088013323248537e-02,4.050167760788122955e-03,3.439292086671238979e-01,-1.015306761398540591e-02,1.858792257593306491e-02,-1.874947182378351451e-01,9.820372370665237938e-01,2.829208328259125160e-02,1.909541715195579026e-01,-1.836242660385684955e+00,4.214400035039163328e-02,6.228441192622505840e-01,-1.313043278130730629e+00,-4.496353292824332298e-02,5.875969155694089618e-01,-1.269168460834825929e+00,-3.270307669368286568e-02,1.442374203148053535e+00,-1.725509893314840282e+00
8.000000000000001554e-01,-2.280400150572605908e-02,8.492178511879503594e-03,3.443354213550157694e-01,1.786206099804209593e-02,2.481109089541287671e-02,-2.368890899901853198e-01,9.710555677143835052e-01,-5.582987801819769974e-02,4.888050115262231876e-01,-1.338894311211915156e+00,-2.360465226773278413e-02,2.926023868775045056e-01,-1.872796100909440264e+00,4.593247806907961583e-02,1.075623143418414251e+00,-1.914431559074644573e+00,5.689350085155908676e-02,7.039565637628336647e-01,-1.192585655454861060e+00
8.500000000000001998e-01,-2.455287846444451777e-02,1.119590099897084870e-02,3.422842560485197527e-01,1.829684356793922356e-02,2.328063117414667926e-02,-2.774805752044357532e-01,9.602748398827281040e-01,-1.110815590567152279e-03,5.103507004876710607e-01,-1.321577277905988890e+00,2.038161550962610744e-02,8.193738659912458422e-02,-2.058331985416760990e+00,-9.704630158127242751e-03,1.390732620965701605e+00,-2.097103304693353820e+00,-4.648652079431413349e-03,6.655525289653603238e-01,-1.187727200235956460e+00
9.000000000000002442e-01,-2.622314611311254637e-02,1.249826994736193651e-02,3.432379687989074446e-01,1.646075850563939735e-02,2.210924715722199785e-02,-2.838960579909199922e-01,9.584587903904768780e-01,1.048413704549033994e-02,5.053230802484316442e-01,-1.304096921285013311e+00,2.302870159363561847e-02,9.669304931356269284e-02,-2.043850821349755709e+00,-2.364794688987794172e-02,1.494125147967941158e+00,-2.036138792291113386e+00,-1.097922282425673780e-02,6.534860767938662773e-01,-1.180313945358861139e+00
9.500000000000002887e-01,-2.766053498446351816e-02,1.220065430168950325e-02,3.450386559677486309e-01,1.606923540277664653e-02,1.714428085070873742e-02,-2.734128545272762056e-01,9.616097255575822844e-01,-4.073459519638367686e-03,4.916147776569034789e-01,-1.280486176442030777e+00,-4.826251149166949778e-02,3.162580110420734059e-01,-1.847367636087905884e+00,4.126705316542159802e-02,1.333170891180294415e+00,-1.767038999530990306e+00,3.977030394380174673e-03,6.757270918184568043e-01,-1.193649764484522979e+00
1.000000000000000222e+00,-3.046629763736811297e-02,9.240161071065688264e-03,3.443850283892270769e-01,2.637872961803242391e-03,2.063093544474203095e-02,-2.796029390602855491e-01,9.598904117646777090e-01,5.083502314456529031e-02,3.074114103441206169e-01,-1.829554390941127373e+00,-1.571704437773289650e-02,5.722996976104509637e-01,-1.299725758348877713e+00,-5.067600006579352744e-03,6.645089790409418606e-01,-1.186810925806929928e+00,-4.276546567342460331e-02,1.363184890593926779e+00,-1.735411039518225396e+00
1.050000000000000266e+00,-3.347861782553857024e-02,9.616881898950069632e-03,3.438645605856883170e-01,2.449864646031853395e-03,1.852015566045471517e-02,-2.743720770824457089e-01,9.614421279073396276e-01,-1.447378132323295409e-02,1.730791838205913979e-01,-2.020365452970315889e+00,-1.959119584960270985e-02,5.711127713037255083e-01,-1.295328283333341268e+00,4.706968716131741323e-03,6.596843831382546153e-01,-1.192800666627072737e+00,2.756656488660262291e-02,1.700039710666938930e+00,-1.888666331010823818e+00
1.100000000000000311e+00,-3.508463584785485173e-02,1.087216565037339884e-02,3.445383154454918495e-01,7.463041846656579166e-04,1.840024305498811144e-02,-2.833444406062691212e-01,9.588413852473732790e-01,-1.469050048091887981e-02,1.297228361610891501e-01,-2.020896161250873568e+00,-5.002871495474865877e-03,5.574188799670476424e-01,-1.293930787604352206e+00,-4.518491001362773089e-03,6.662829793680102863e-01,-1.199979479459867271e+00,3.017228932618817860e-02,1.727897176783111721e+00,-1.836749073739327720e+00
1.150000000000000355e+00,-3.543452080323817449e-02,1.263253994354846844e-02,3.468678317435520131e-01,-5.936855883821851422e-04,2.320496346762968357e-02,-3.172657952484418953e-01,9.480525261678605098e-01,2.795373470595786253e-02,2.114529730041683209e-01,-1.844001742092545637e+00,4.423426019080026889e-02,5.229021085823237769e-01,-1.309451151907709665e+00,-4.816255533677166883e-02,6.791662073540529754e-01,-1.197588391207895731e+00,-2.289492671338291818e-02,1.434213202225812278e+00,-1.627520627605731240e+00
1.200000000000000400e+00,-3.339244256513847209e-02,1.543479072881802708e-02,3.424481505323923591e-01,5.146715742570619201e-03,2.100333247014758709e-02,-3.686274178180934946e-01,9.293256685226004565e-01,-4.904464398381498669e-02,4.641264531915224589e-01,-1.342161675126094300e+00,-2.644990314701950104e-02,3.422389569894341843e-01,-1.871092611039539833e+00,2.958617259837714383e-02,1.386038507127129726e+00,-1.768194450170549548e+00,6.425091437060712063e-02,7.890721841682158955e-01,-1.145815337759444219e+00
1.250000000000000444e+00,-3.383806332616465934e-02,1.821158902720863490e-02,3.379388160792083373e-01,4.284027291834516769e-03,1.467325929664451724e-02,-4.077528082250249097e-01,9.129643968722889191e-01,6.893234476293968495e-03,4.995676406196906671e-01,-1.330117843366061869e+00,1.516707924758725276e-02,2.113219087929537887e-01,-2.061506501357559973e+00,-7.497803520231464611e-03,1.726406098283475243e+00,-1.932264136676699939e+00,-9.349430282539081261e-03,7.820636676194908654e-01,-1.179446106840978059e+00
1.300000000000000488e+00,-3.448786725456546437e-02,1.989311745974037260e-02,3.394748067021909899e-01,3.962057248328101737e-03,1.519388950980599812e-02,-4.112960799469714268e-01,9.113665467001623721e-01,1.171819704738982434e-02,4.911523913501194549e-01,-1.316572032522305369e+00,2.215904029072568449e-02,2.013668333950891509e-01,-2.050297016525505889e+00,-1.329919780159061031e-02,1.736487716020117977e+00,-1.874403216907757797e+00,-1.597745728008685001e-02,7.643302695034804861e-01,-1.163833586723036939e+00
1.350000000000000533e+00,-3.499493285889811872e-02,1.997655564223799196e-02,3.439025306355560363e-01,4.068425983089121907e-03,1.458341028066757056e-02,-3.937636718648561129e-01,9.190870158881104812e-01,-1.634066918914332811e-02,4.644231343788222666e-01,-1.293455818143753211e+00,-4.085699803011608178e-02,3.220190568493817573e-01,-1.839831126591121357e+00,4.664926050095030696e-02,1.447333493554189277e+00,-1.628493378751328047e+00,1.338525823990036404e-02,7.685193368434478645e-01,-1.144342175271453099e+00
1.400000000000000577e+00,-3.755538891911396060e-02,1.924390250681509706e-02,3.473615520879339003e-01,5.276504379479176818e-03,2.823938725737766206e-02,-3.970608060455633193e-01,9.173425814881311924e-01,3.898235030168450965e-02,3.476329436302234566e-01,-1.871623196798617217e+00,1.078967715964891010e-03,5.111809700172431636e-01,-1.297959377673511883e+00,7.994157186147100988e-04,6.798557291142535153e-01,-1.105691226627981916e+00,-6.128778902093070385e-02,1.306308232480692721e+00,-1.702000354256815173e+00
1.450000000000000622e+00,-3.850610309364350253e-02,2.040945878388911866e-02,3.478393961705207871e-01,5.787442995099286239e-03,3.042741045298221619e-02,-3.870365043598685828e-01,9.215440426206430446e-01,-2.888688883640271043e-02,2.117540098156429074e-01,-2.078293830453539215e+00,-1.335351090992611435e-02,5.083883912164168795e-01,-1.290626601238089144e+00,1.608185342338906004e-02,6.531837665761695000e-01,-1.088095107224269720e+00,2.020584756842279742e-02,1.512234979062808238e+00,-1.900704661070997448e+00
1.500000000000000666e+00,-3.787509240687615686e-02,2.113506787002328996e-02,3.475239982416504225e-01,4.256197726738356751e-03,3.197941551254629422e-02,-3.941314702255871993e-01,9.184876623788715833e-01,-2.201594078543612359e-02,1.485564021285490088e-01,-2.081916038104082656e+00,-1.515509160120709613e-03,5.030656942835375345e-01,-1.298078310006995029e+00,6.920464857173869513e-03,6.630140642713944210e-01,-1.098388049991672721e+00,1.915283089421231794e-02,1.523069442581829858e+00,-1.877297558469251726e+00
1.550000000000000711e+00,-3.574867916145336999e-02,2.108152867005600936e-02,3.465808485373571002e-01,6.579396734897494797e-03,3.438904081656152939e-02,-4.284227442814075859e-01,9.028998048469770721e-01,2.564701482235670280e-02,2.070793741305334557e-01,-1.891408624730849697e+00,4.543115050361871271e-02,4.882556159154682329e-01,-1.339778472953750521e+00,-5.217708989927584418e-02,7.003105635249343708e-01,-1.120784683079170119e+00,-3.996688019403121794e-02,1.317723695818665108e+00,-1.667354154610764860e+00
1.600000000000000755e+00,-3.036032770013197268e-02,2.022018110707745481e-02,3.381170437459517508e-01,1.310801651626597800e-02,2.580761647039415962e-02,-4.744390610326021385e-01,8.798123232835678431e-01,-3.823540552356265165e-02,4.334168011566970624e-01,-1.372437081315482699e+00,-3.848950822609771560e-02,3.386100766944655782e-01,-1.913220180136126158e+00,2.822988897709149611e-02,1.412376680521318040e+00,-1.665661915175668417e+00,6.894793535073717727e-02,7.789228477680054663e-01,-1.173291307801904937e+00
1.650000000000000799e+00,-2.904310207806255761e-02,2.096495475092620062e-02,3.328870428311099805e-01,1.398541226086596513e-02,1.705108347848954126e-02,-5.102958474368396447e-01,8.597161257559502445e-01,1.304586989910913424e-02,4.803187363890530914e-01,-1.363237626421633486e+00,1.275745179927478996e-02,2.475544525238938531e-01,-2.130209865126762470e+00,-1.666002485398498933e-02,1.714937295891212354e+00,-1.873829026576239176e+00,-7.966150399793498621e-03,7.867854434223237048e-01,-1.214901118175995887e+00
1.700000000000000844e+00,-2.888054563564747962e-02,2.090816434490744974e-02,3.349445789082665659e-01,1.376573276328119794e-02,1.665286592544766228e-02,-5.141716302365847424e-01,8.574151394265276949e-01,1.946401009153091166e-02,4.772794060388587112e-01,-1.343768525068497421e+00,2.642983219816954360e-02,2.669294183399490983e-01,-2.126111171824186297e+00,-3.640078355644304348e-02,1.703873172705899552e+00,-1.851619820350183021e+00,-1.516416000508285893e-02,7.733417963236146608e-01,-1.195881427675237640e+00
1.750000000000000888e+00,-2.944426429759035291e-02,1.973695529769459861e-02,3.405906540138702865e-01,1.392087732997114406e-02,1.747696472376223872e-02,-4.971196257415190223e-01,8.673942832305389095e-01,-7.444865346596285689e-03,4.485754691436280028e-01,-1.317056041814868683e+00,-4.556354969967612439e-02,3.845606903485698780e-01,-1.907088285740640154e+00,3.562008506728651241e-02,1.421941535742356821e+00,-1.636992150188218531e+00,1.839201084500509398e-02,7.697499507952588749e-01,-1.161419119581386550e+00
1.800000000000000933e+00,-3.284903117388485866e-02,1.828307398604629014e-02,3.445023733295564106e-01,1.079439972146103120e-02,3.721096539695030458e-02,-4.932700001553150249e-01,8.690129641930871562e-01,4.349908387937360954e-02,2.690516950195544488e-01,-1.871403384111864687e+00,6.653851958804741021e-03,4.664418686653086787e-01,-1.335389467981185962e+00,-1.234980730033805735e-02,6.425201826058917209e-01,-1.131014185614047207e+00,-4.671220769440556642e-02,1.270869169090973250e+00,-1.715645648105119214e+00
1.850000000000000977e+00,-3.357892668599195274e-02,1.803951202075535984e-02,3.458357268133970819e-01,8.693201009540395610e-03,3.258765969535273171e-02,-4.782484147014601228e-01,8.775767354068405579e-01,-1.919717586722290495e-02,1.980046288898035522e-01,-2.064632114892022141e+00,-1.727151301189150043e-02,4.755411928043036807e-01,-1.299100879966252453e+00,1.135646281454672814e-02,6.334904984184054344e-01,-1.121321836242780368e+00,2.250597405796394765e-02,1.519795576267449766e+00,-1.953981500696054363e+00
1.900000000000001021e+00,-3.330633848343712844e-02,1.852068311528524622e-02,3.483055229778927453e-01,2.316543388618081626e-03,3.024538701235506694e-02,-4.839769265793855135e-01,8.745548494691305352e-01,-2.113212853758701312e-02,2.075611350047756876e-01,-2.059615955441697288e+00,5.517080428158420554e-05,4.640210210749154962e-01,-1.265440117094227546e+00,1.043153054789660791e-02,6.511222158450685749e-01,-1.127558861762528064e+00,1.189339121698509277e-02,1.543985714837532663e+00,-1.967461371733842279e+00
1.950000000000001066e+00,-3.185844613256584579e-02,2.067259593873056051e-02,3.473133973177257028e-01,3.468422452323545891e-03,2.874071412671865694e-02,-5.064945815107659843e-01,8.617570308952591240e-01,2.705367808757294310e-02,2.893084622379206161e-01,-1.858744761186361671e+00,2.734144485363240035e-02,4.489588144544490733e-01,-1.284746175940350232e+00,-3.421586120377787671e-02,6.871834043332666342e-01,-1.161814352696740826e+00,-4.287930915634165924e-02,1.313140963467147593e+00,-1.777116789398710983e+00
2.000000000000000888e+00,-2.729246011322140897e-02,2.370073912597317825e-02,3.414394098211464001e-01,3.026262715338568984e-02,1.161447875501544005e-02,-5.407200596696377648e-01,8.405778336072678991e-01,-5.264913307055819197e-02,4.970201248215108669e-01,-1.337956430141373332e+00,-2.959856463011473898e-02,1.877215606466465236e-01,-1.817723768070316215e+00,4.969318852006956305e-02,1.277952814347824262e+00,-1.811408113990210289e+00,5.558428502393660681e-02,6.949420914501743818e-01,-1.255453028037079255e+00
2.050000000000000711e+00,-2.666489865163933215e-02,2.715218072348447864e-02,3.373099853178279095e-01,2.573489367600129835e-02,4.627008947594575018e-03,-5.747568969300010933e-01,8.179063610628540815e-01,-1.399288788396062244e-04,5.303968030419730084e-01,-1.316843137455015134e+00,2.458042944874677324e-02,-9.135617083874052191e-03,-1.995029856660490708e+00,-6.821886525140631596e-03,1.571902105393971016e+00,-2.076660810747165353e+00,-1.597969663019596339e-03,6.898938842606275879e-01,-1.286784488644660662e+00
2.100000000000000533e+00,-2.745041033940209818e-02,2.929981019102233589e-02,3.380964541412649349e-01,2.169836755626849620e-02,-2.851112433564909499e-03,-5.802886691755219095e-01,8.141167683015660961e-01,6.625614969976464756e-03,5.284515747204044933e-01,-1.277802175608568458e+00,4.229968090096462158e-02,2.110839090419678807e-02,-1.984899695054211710e+00,-2.633681073617932453e-02,1.581112353323941067e+00,-2.091151667809098669e+00,-1.198444026131149746e-02,7.031139306027712754e-01,-1.303146433469275056e+00
2.150000000000000355e+00,-2.903938570846507916e-02,2.996073423370837138e-02,3.410271311843817710e-01,1.325887927740165492e-02,-7.799127794066349449e-03,-5.697192782546275369e-01,8.216953935072200954e-01,5.497930404816980983e-04,5.127425785389413404e-01,-1.237470095610038179e+00,-3.673156633124984721e-02,2.861649673210516776e-01,-1.795237134899138054e+00,5.438885823144314069e-02,1.348723008447797467e+00,-1.880729127874891438e+00,1.651199754322433752e-02,7.350677480829493904e-01,-1.316730745429084859e+00
2.200000000000000178e+00,-3.355837503385138837e-02,3.083280045420722440e-02,3.424709218922326603e-01,-1.450290104055533026e-02,1.783790268091000469e-02,-5.757048077018125376e-01,8.173343559880332787e-01,4.381158659040609860e-02,2.555915638496896181e-01,-1.789904399657237022e+00,-1.101492958384320264e-02,5.974375377474404614e-01,-1.230121902586336136e+00,-5.175332415491983203e-03,7.347825396367513306e-01,-1.291096038638716248e+00,-3.833320681516831641e-02,9.571539137195580471e-01,-1.978237979862040641e+00
2.250000000000000000e+00,-3.483360101871641606e-02,3.039426085169824251e-02,3.421049871048580382e-01,-1.859848130752730921e-02,1.300885720499883602e-02,-5.683774527105356356e-01,8.224548239128738336e-01,-2.813727974043189750e-02,1.306655128265336863e-01,-1.991175981716797772e+00,-1.574348504245308769e-02,6.065804086070424317e-01,-1.207756521701264907e+00,1.173307759557818894e-02,7.473798444603889646e-01,-1.304418272911807453e+00,2.783306559656917659e-02,1.031202215357446050e+00,-2.262163539331230933e+00
2.299999999999999822e+00,-3.409983566078002987e-02,2.806098771620864699e-02,3.416674253851440524e-01,-2.210798784805823383e-02,4.389521944974570343e-03,-5.736110897872430670e-01,8.188176150056225566e-01,-2.354627456577135930e-02,1.507156191601341788e-01,-1.981310274979457331e+00,-1.229401854377867170e-02,6.171810442722502899e-01,-1.190605996919603005e+00,-9.903040838820718721e-04,7.951265570513790237e-01,-1.335607574736477510e+00,2.080802869081951542e-02,1.048522986019679415e+00,-2.278622495406876780e+00
2.349999999999999645e+00,-3.140651501392206779e-02,2.386048907140717046e-02,3.406554115706479924e-01,-2.889501975117940089e-02,-5.721494344032751651e-03,-5.983020172704047734e-01,8.007290668298575609e-01,2.618380114891668067e-02,2.942841408767151723e-01,-1.764706435087708414e+00,1.624716752615752713e-02,6.268075245402834339e-01,-1.185930861676592452e+00,-5.197524328369632074e-02,8.912232809667238742e-01,-1.393690880128404475e+00,-4.173758376339273268e-02,9.962054807431960368e-01,-2.043358411895336069e+00
2.399999999999999467e+00,-2.650434117017422264e-02,2.117913040637458069e-02,3.368048635290446513e-01,-3.514281979839055554e-03,-2.093280807198175802e-02,-6.247016728137049224e-01,7.805749722814244729e-01,-5.070643131891104660e-02,5.949151733298297939e-01,-1.267951527514862287e+00,-3.852121482537672337e-02,2.238045518017869606e-01,-1.711680721048384202e+00,2.253250857394534581e-02,6.261444601399626109e-01,-2.001680149617071969e+00,4.838592759692301321e-02,7.102324610604353605e-01,-1.419895877059193179e+00
2.449999999999999289e+00,-2.296439288453679811e-02,1.778360943212242001e-02,3.335552957198171242e-01,-7.808649441400743185e-03,-2.352419656865144953e-02,-6.541959540842091636e-01,7.559188387846620394e-01,-9.908909188788804501e-03,6.412603157928470354e-01,-1.258794718924250988e+00,1.091737840760071722e-02,-5.763074836744371682e-02,-1.894447716063932585e+00,-1.807163528854303230e-02,3.932778369369473448e-01,-2.166166576596135762e+00,-6.440120727311017534e-04,7.022003266369437613e-01,-1.423223958140774181e+00
2.499999999999999112e+00,-1.999058067744970829e-02,1.456536821840967964e-02,3.339493141337082638e-01,-1.717271308771356822e-02,-2.234356054322520629e-02,-6.651442500866023844e-01,7.461829466050463600e-01,1.443414445943957958e-02,6.641343534176876728e-01,-1.238834261512443247e+00,2.038156148468918405e-02,-9.174666454236626856e-02,-1.886239240389651517e+00,-2.761783425665476077e-02,2.759656685639683138e-01,-2.141470770512682087e+00,-9.250859669274627203e-03,7.066019499151277028e-01,-1.413916574911491475e+00
2.549999999999998934e+00,-1.516413339396466622e-02,8.803395790862823464e-03,3.375826203532967806e-01,-2.910044751647703279e-02,-2.830115164710945985e-02,-6.633396433220754007e-01,7.472166528973572808e-01,1.000991342464834302e-02,6.777064904913178145e-01,-1.185365161292394776e+00,-9.134819626309267221e-03,1.395103893478436830e-01,-1.678991417784430284e+00,2.135101765768476767e-02,3.627965047569458035e-01,-1.946883935698197510e+00,-9.524591836838699685e-03,7.533602406117886341e-01,-1.413820852686224372e+00
2.599999999999998757e+00,-9.591754050557392552e-03,3.943043992932142999e-03,3.392658480719999980e-01,-2.753970569550292721e-02,-4.167612678563799300e-02,-6.834848738845049620e-01,7.282534532959215046e-01,3.072661221850023217e-02,4.701543265539394056e-01,-1.739086297116913649e+00,1.403164256198933049e-02,6.209344137531258578e-01,-1.167954527645839180e+00,7.447797022683951863e-03,7.486519139393661426e-01,-1.413508741905284971e+00,-4.036914772360161718e-02,5.040627381226010506e-01,-2.001753586227901671e+00
2.649999999999998579e+00,-6.179240593635810554e-03,2.572632768411110826e-03,3.398706839687603565e-01,-2.528841724656011314e-02,-3.434739760089199068e-02,-6.875929545843446622e-01,7.248425215432533486e-01,-2.603495527259227366e-02,2.594951815545363250e-01,-1.992078480640139482e+00,1.734610958934451955e-02,6.143576343347302293e-01,-1.180966800120524685e+00,-2.222252773840135715e-03,7.399856105689962549e-01,-1.404706215296316563e+00,1.187875156069128843e-02,3.214143680529823466e-01,-2.191640131773515243e+00
2.699999999999998401e+00,-3.758678175696957523e-03,9.552946477775891426e-04,3.372682746186715930e-01,-2.319899272475293983e-02,-2.874976645903862260e-02,-6.866192424034103237e-01,7.260780079485085192e-01,-8.849468934972697445e-03,1.611677507188841174e-01,-2.036377803463049752e+00,1.381434945896340034e-02,6.254084302630356085e-01,-1.213491222694468297e+00,-2.753822347178889324e-03,7.370171429198484336e-01,-1.413936604921102402e+00,-3.932262038117511488e-03,2.627271234859920312e-01,-2.192555710638274480e+00
2.749999999999998224e+00,-2.191654390478455037e-03,-4.809894015997025207e-04,3.305281906549423221e-01,-1.840186166797456307e-02,-2.263174946549064911e-02,-6.834639175845808046e-01,7.294012947364580945e-01,1.155866978396301488e-02,2.759520176965586380e-01,-1.869878677961158031e+00,6.021022308873724346e-03,6.528699649500683266e-01,-1.285184724317598448e+00,-4.567397551417878647e-04,7.346169654166607721e-01,-1.440999512067348665e+00,-2.095662814389958467e-02,3.848004433692283621e-01,-2.025328530576179897e+00
2.799999999999998046e+00,-1.219181187350136661e-03,-2.907270362032090064e-03,3.190254498923090765e-01,-1.552976358906277277e-02,-1.918778799128189119e-02,-6.782061319471094363e-01,7.344570088331988655e-01,-4.377558327349317935e-03,6.946656155987621650e-01,-1.377436196263273072e+00,-4.347265543286015464e-03,7.028541890042973028e-01,-1.378756506558491024e+00,6.419082817160122120e-03,7.575117402014590606e-01,-1.505553669260091931e+00,6.494408569182268283e-03,7.732459341961019916e-01,-1.520923964384900628e+00
2.849999999999997868e+00,-5.544828499131422735e-05,-2.391671589717135095e-03,3.132446490904108316e-01,-6.569837274247478272e-03,-7.922370668758662790e-03,-6.784514589618557689e-01,7.345731353062852076e-01,-5.997481467336566834e-03,7.060841067950334171e-01,-1.462170325498232559e+00,-5.959857279565071442e-03,7.112482959921287984e-01,-1.457042476398014097e+00,4.603147624685354801e-03,7.292659103934460152e-01,-1.510270410152253939e+00,4.649716481606648577e-03,7.414885315405784771e-01,-1.519146346254087954e+00
2.899999999999997691e+00,2.271661044449148111e-11,-3.201267225101220431e-10,3.113099469256440099e-01,2.248099143199171546e-10,2.413576562983165081e-10,-6.816387600234591337e-01,7.316888688737045454e-01,-1.214801225200416516e-09,7.000000001799867588e-01,-1.499999998005122404e+00,1.223918748042454398e-09,7.000000001812376471e-01,-1.499999997990223877e+00,-1.240012637707981904e-09,7.000000001834795205e-01,-1.499999997963860521e+00,1.230865083478343810e-09,7.000000001822024309e-01,-1.499999997978825883e+00
2.949999999999997513e+00,0.000000000000000000e+00,0.000000000000000000e+00,3.113099999999999756e-01,0.000000000000000000e+00,0.000000000000000000e+00,-6.816387600233339006e-01,7.316888688738211188e-01,0.000000000000000000e+00,6.999999999999999556e-01,-1.500000000000000000e+00,0.000000000000000000e+00,6.999999999999999556e-01,-1.500000000000000000e+00,0.000000000000000000e+00,6.999999999999999556e-01,-1.500000000000000000e+00,0.000000000000000000e+00,6.999999999999999556e-01,-1.500000000000000000e+00
