yusongmin1/go2_flip_TO/datasets/go2/trajectories/quad_strafe_left_ramp_3s/joints_only.csv
FL_hip_joint,FL_thigh_joint,FL_calf_joint,FR_hip_joint,FR_thigh_joint,FR_calf_joint,RL_hip_joint,RL_thigh_joint,RL_calf_joint,RR_hip_joint,RR_thigh_joint,RR_calf_joint
0.000000000000000000e+00,6.999999999999999556e-01,-1.500000000000000000e+00,0.000000000000000000e+00,6.999999999999999556e-01,-1.500000000000000000e+00,0.000000000000000000e+00,6.999999999999999556e-01,-1.500000000000000000e+00,0.000000000000000000e+00,6.999999999999999556e-01,-1.500000000000000000e+00
3.016303641541259045e-03,7.257852640332637106e-01,-1.486761956158125564e+00,3.059586772571051827e-03,7.197496354112165040e-01,-1.491540459957066300e+00,-8.560262568300119543e-03,7.507160189987558407e-01,-1.537935275764615861e+00,-8.502592616604229270e-03,7.371281230642481308e-01,-1.527638587517489377e+00
1.927787888410707664e-03,7.566439081400546662e-01,-1.454856527924579090e+00,1.968707035434843090e-03,7.460106556404682010e-01,-1.450613963982334775e+00,-1.034965741741485437e-02,8.172781477256592098e-01,-1.575149185652843453e+00,-1.023207596598952641e-02,7.983335267535121016e-01,-1.555599563659408435e+00
3.688451139898753749e-03,7.684731328451991361e-01,-1.400918845258480427e+00,3.814263589729622369e-03,7.505626806414060770e-01,-1.362573758561541393e+00,5.836206253915421707e-03,8.523131540781189175e-01,-1.562848064007727578e+00,5.936905800898828293e-03,8.375914357974830748e-01,-1.530595299985322510e+00
1.032169441604019119e-02,3.529036642176394123e-01,-1.959303226643659634e+00,-1.123039372435953413e-02,7.109503595005823851e-01,-1.285867190589317977e+00,6.144435554485972719e-04,7.833001418359141210e-01,-1.443457781451098709e+00,-3.395318652298993239e-02,2.814700007493423639e-01,-1.986224855254623112e+00
-2.665689364589031440e-02,3.119416674569607806e-01,-2.128220468528489118e+00,-5.283593670790133132e-03,7.031278904550578579e-01,-1.190422904639286905e+00,1.557749941023471411e-02,8.005544450606405515e-01,-1.405134793575903318e+00,3.056220044692193466e-02,9.685430928476686241e-02,-2.106656489644782582e+00
-2.702783133139355712e-02,2.478762444363911410e-01,-2.079056649688488356e+00,2.650117246357678799e-02,7.010743808338172345e-01,-1.147256932386868655e+00,1.555740374561907953e-02,8.475495161671293687e-01,-1.405369010246772632e+00,1.507017028016867551e-02,2.243834559548999602e-02,-2.073163606728677610e+00
2.743169016996782617e-02,3.009037123154978399e-01,-1.869614694062530447e+00,4.102242807917923922e-02,7.012703198319081288e-01,-1.202953576477198583e+00,-7.701486831496771879e-02,8.720571541226840306e-01,-1.374479775422843497e+00,-5.152371425089814772e-02,8.596713527845403768e-02,-1.870403937636101910e+00
-3.595357271774276414e-02,5.213025348630274669e-01,-1.251912586964121665e+00,-5.725681501678882984e-02,2.025647000391121999e-01,-1.811905509208527665e+00,5.401430580665867592e-02,7.822773089708063843e-01,-2.016336026057538700e+00,6.702713537736904037e-02,4.032363538431436578e-01,-1.316564637644083824e+00
-5.358683085667483026e-03,6.282905219569426825e-01,-1.266454522065676658e+00,4.611216227852527223e-03,1.126058076654254218e-02,-2.007161509341171435e+00,-1.035355005263872627e-02,7.005898822764141665e-01,-2.221742228188542612e+00,5.536198573819923856e-03,4.463252961680422848e-01,-1.355149449971819076e+00
2.002195226602754632e-02,7.070202367973650315e-01,-1.280427612783569646e+00,3.617546837816058413e-03,-6.684245833713110384e-04,-1.972785235741574494e+00,-3.903928457407269265e-02,4.654305721715987776e-01,-2.169559454158055622e+00,1.573274277013137629e-03,5.063594983403122418e-01,-1.383912178602233256e+00
3.992499894257373061e-03,7.448375238642473972e-01,-1.301640893952702882e+00,-2.776310812593466362e-02,1.591591277478927868e-01,-1.765687099311407993e+00,2.216745427219552270e-02,2.564234081812136745e-01,-1.903315618732296599e+00,-3.760937596051226739e-02,4.977457505893821410e-01,-1.349119971181184985e+00
4.533667102461887144e-02,4.265190283680266869e-01,-1.920219378171502012e+00,-1.401341558087931469e-02,8.081593200228688323e-01,-1.264925348805531868e+00,3.547377832379382256e-02,2.605868602687159696e-01,-1.252274269389784145e+00,-5.319511603717017728e-02,8.757527644789609989e-01,-2.105145004095272832e+00
-5.541911461915643294e-02,1.996003310474228076e-01,-2.182119489629661846e+00,-1.186891524638788477e-02,7.544807330075490315e-01,-1.328340593042326212e+00,6.253573199321291361e-03,2.069349760863977428e-01,-1.235968455298254609e+00,5.442043423371298316e-02,1.095341377437058616e+00,-2.407547045245567841e+00
-1.301010810244890292e-02,4.541764506977188920e-02,-2.168136003124448763e+00,4.178049073051386814e-02,6.670271199711854671e-01,-1.341733702180012200e+00,4.517167340827974234e-03,1.831868252930529406e-01,-1.258463822518233632e+00,1.918292572908713786e-02,1.183961629910822211e+00,-2.369718990719900109e+00
5.358634450068850558e-02,6.959607696208541805e-02,-1.933126036133334003e+00,4.017214744459790543e-02,5.470944922340726935e-01,-1.358374366154373458e+00,-9.842298276668262624e-02,1.426508511920478450e-01,-1.231066673688177238e+00,-4.912840063401525958e-02,1.199753103866655124e+00,-2.044407122576935354e+00
-2.110371123685942860e-02,4.855924324077530163e-01,-1.344085446824928143e+00,-5.223906870782632494e-02,5.153510461893381217e-02,-1.914417831020257976e+00,6.299129719491126933e-02,4.768499848433904176e-01,-1.926617146261623059e+00,7.596467915505188129e-02,8.387956614243293751e-01,-1.341066131441242204e+00
-2.168818382806213360e-04,4.432344903265054148e-01,-1.369990495658133911e+00,1.735619233776020467e-02,-8.361950823351742279e-02,-2.135582681723457110e+00,-1.937579106630465953e-02,7.233787706024402686e-01,-2.238140618415857652e+00,-2.313797714950420817e-02,7.083105484569716115e-01,-1.318035769177920757e+00
2.766327358376704723e-02,3.618873068978269436e-01,-1.406604183662727880e+00,1.633903354841277633e-02,-3.712008980077328903e-03,-2.179120990624863197e+00,-3.368528282527230577e-02,9.036188192505000272e-01,-2.262458299193475408e+00,8.135074177809764259e-03,5.965254196191203118e-01,-1.271432358954188491e+00
-5.193985737900984334e-02,2.394153198533630622e-01,-1.386178509441128304e+00,-3.877771103869899483e-02,2.015744492169085633e-01,-2.044182666580032226e+00,3.640548932382278724e-02,9.796115084138463658e-01,-1.968482588502245223e+00,-2.883404161874636960e-03,5.231165839879472479e-01,-1.261710902565016834e+00
5.721338188488408333e-02,-1.890630748895131587e-04,-1.940751960560018308e+00,2.500275182636707560e-02,7.604440114112090976e-01,-1.538618724343509436e+00,7.145160066644214679e-03,5.901647308779807144e-01,-1.291241829564833576e+00,-3.842963768458101947e-02,1.329271807170263164e+00,-1.868092744113885484e+00
-4.676681858360766386e-02,-7.480367362471856962e-02,-2.157927272580147271e+00,-2.020326765730530785e-02,6.546520598793016399e-01,-1.494513104806493464e+00,-6.767502280612654533e-04,5.050425785303398474e-01,-1.328559013469350791e+00,3.060519308487692075e-02,1.785197975224130928e+00,-2.023407130366290385e+00
-8.442759145565272710e-03,-3.975421536920871468e-02,-2.157623174970473734e+00,2.750582669534278393e-02,5.056829527582353823e-01,-1.386508507262852019e+00,2.887670893543560491e-02,4.442425740947040791e-01,-1.382792469922711875e+00,1.278926932285723642e-02,1.900147002764890569e+00,-1.900039970583628390e+00
4.264502519729739677e-02,1.157361909136401801e-01,-1.969911708112928928e+00,1.793772915027222470e-02,3.028526245575377529e-01,-1.269476679234189387e+00,-7.500199763450712820e-02,3.358181698945688631e-01,-1.339979459509764714e+00,-4.525512706283457004e-02,1.714759518022763496e+00,-1.573783344458768108e+00
-2.472634079752066699e-02,6.227249519176520920e-01,-1.397804889313352339e+00,-3.621908123369672189e-02,-4.991731038998487024e-02,-1.820259909620046912e+00,6.483156417276127181e-02,6.955696099119711429e-01,-1.924074286279011448e+00,5.391265019362623950e-02,8.565913847481351207e-01,-1.054367474847550890e+00
-1.394210920463302694e-02,5.258001930589608630e-01,-1.419416953149780225e+00,2.152069378849595302e-02,-9.567589118024835693e-02,-2.064569293547142692e+00,-1.232214397820846456e-02,1.076570478319247348e+00,-2.058698560602519212e+00,-2.905898660698691405e-02,7.594070272828297163e-01,-1.140515768939989627e+00
2.130707809136981115e-02,3.860272727800753145e-01,-1.437321013998260399e+00,1.888243695383672732e-02,7.469347465418474386e-02,-2.157756291352435518e+00,-2.208752338563691256e-02,1.369867845329413081e+00,-1.920944518484754004e+00,1.056864944363490599e-02,6.334912859854132661e-01,-1.147992324909427708e+00
-6.691051112848910021e-02,1.900174151663560906e-01,-1.377627787128370640e+00,-4.300242538871765913e-02,3.139811909936947587e-01,-2.070534367561405187e+00,2.742514621674884551e-02,1.378209887732860128e+00,-1.565288619636528100e+00,6.944521826720445080e-05,5.216385992470706778e-01,-1.155860406421481468e+00
6.320562961031805926e-02,-4.525486981216877286e-03,-1.922059240829657512e+00,4.494639042511318350e-02,7.922045928688433714e-01,-1.587981952549855524e+00,-2.674038969359102645e-03,6.194077908114083986e-01,-9.947421224145802654e-01,-2.984979444740566701e-02,1.335303166177899570e+00,-1.685491507136156475e+00
-3.503895636162523974e-02,-7.371249034178405102e-02,-2.120953439408095775e+00,-3.239616717806713397e-02,6.505472915245786858e-01,-1.567241067475019900e+00,-8.821461387603868332e-03,5.346382981437460824e-01,-1.109772847747150015e+00,1.329512019248211240e-02,1.730362084606571926e+00,-1.824264754239771413e+00
-1.875674591407389472e-02,-5.347610541743592905e-02,-2.129460213947490299e+00,8.169308894702683593e-03,4.737107990595748053e-01,-1.459504564840641283e+00,3.531713929959807985e-02,4.862734259916696167e-01,-1.237257188371354788e+00,1.693293111346898597e-02,1.799452815596515487e+00,-1.748463640935517649e+00
3.796206237169637288e-02,1.130494313818536656e-01,-1.952997352249449925e+00,6.135124566785386032e-05,2.596496369652134817e-01,-1.328992569955067760e+00,-4.843365577663906463e-02,3.998097360494297647e-01,-1.273270209438803979e+00,-4.296073621229490325e-02,1.607386916046239955e+00,-1.521040817270544077e+00
-1.723050838049608111e-02,6.463380104347473676e-01,-1.376262864191205137e+00,-3.171153009078061386e-02,-4.120004357619775487e-02,-1.865222294211807963e+00,5.924148288806178192e-02,9.477134649612072304e-01,-1.815910666257054995e+00,3.198547683041309819e-02,8.142669726804409036e-01,-1.084564645658899096e+00
-1.718751112780832549e-02,5.770787749781157716e-01,-1.393915699922628537e+00,2.740153125043027008e-02,-6.321227429871974224e-02,-2.104744749975825169e+00,-9.542759230640155896e-03,1.405125530680845669e+00,-1.881141682982597541e+00,-3.806959075943847082e-02,7.968351178152746073e-01,-1.248294905154069490e+00
1.424089122092394438e-02,4.561361337555479567e-01,-1.408025503588928418e+00,1.840683934632380420e-02,1.089210813241354298e-01,-2.181058875779372297e+00,-2.178560593164373047e-02,1.705987809781881470e+00,-1.709061744160434770e+00,6.205071111995884292e-03,7.130608898161202580e-01,-1.301113587087352030e+00
-6.416461946995924426e-02,2.616433794405620961e-01,-1.357399529659867321e+00,-5.441872887835140504e-02,3.630018824652126441e-01,-2.075567691148198612e+00,2.780064202835893020e-02,1.600882955954222586e+00,-1.396458292768029796e+00,2.828699862742041146e-02,6.024871869703120053e-01,-1.303163154463950812e+00
5.388951944407267131e-02,-1.897961825424616597e-02,-1.880734372036490631e+00,5.473571326781362378e-02,8.355762641860603468e-01,-1.577534109118853944e+00,-1.778434821330710652e-02,6.003666487745665803e-01,-9.427688514416335819e-01,-3.963463731298896842e-02,1.098773494474597490e+00,-1.974607860315201746e+00
-2.197573225912390765e-02,-1.599366868649435003e-01,-2.050915285222024043e+00,-2.139674019719394263e-02,7.014254785176960993e-01,-1.563438611002857748e+00,-1.546314601476993060e-02,5.074053300158425373e-01,-1.041706664270891203e+00,1.619619982262958738e-02,1.428295964528379924e+00,-2.176793282443465039e+00
-3.351662575229271551e-02,-1.858478530544862006e-01,-2.041921174419929041e+00,1.263619982892394411e-02,5.392929532136842008e-01,-1.466132764475562844e+00,2.975751404004609371e-02,4.568524683489419425e-01,-1.146532182990017690e+00,2.510848978787837485e-02,1.516407043987527681e+00,-2.099759531020762626e+00
3.714490646491640236e-02,-1.925380195750595394e-03,-1.848917283301769299e+00,-1.233099680879215336e-02,3.692173211398284138e-01,-1.351199047644469742e+00,-2.353125519356229212e-02,3.811336960078078873e-01,-1.174995807780373047e+00,-4.413584129957062729e-02,1.378308663902723330e+00,-1.788413098540441171e+00
1.000746802721606300e-02,6.931904613434086704e-01,-1.249383445584659302e+00,-3.130021922271678664e-02,1.054724943105616979e-02,-1.865993743876583233e+00,5.209856125862172976e-02,1.057523764708606206e+00,-1.752315621996978878e+00,1.811762594703195464e-02,6.550614447034123211e-01,-1.225730330347502450e+00
-1.406805072599350524e-02,6.596741676336436155e-01,-1.309298416569570467e+00,2.024034893305656432e-02,-4.840789282251811015e-02,-2.089143434295575918e+00,-1.947837225518172025e-02,1.438598242427867158e+00,-1.939556532990338367e+00,-2.406329497693417835e-02,5.970418598234050744e-01,-1.264031961945368376e+00
-4.929140858575963187e-04,6.043054212026401917e-01,-1.364566425702482766e+00,3.591933543248498981e-03,9.701584028079394961e-02,-2.116607329288229700e+00,-1.577016591166461798e-02,1.633166287625574586e+00,-1.864785886758919764e+00,1.269402314365964020e-02,5.220082313053613365e-01,-1.239162056852895599e+00
-7.390441931781360774e-02,5.147609845985761101e-01,-1.375752581855679280e+00,-5.900865960885434691e-02,3.611023872812066937e-01,-1.918222929048680747e+00,5.292015585208477424e-02,1.496128001136285190e+00,-1.602950703618668982e+00,3.659272886877763808e-02,4.908992784376816632e-01,-1.229172145167670260e+00
4.717830789416149057e-02,2.167611392149863536e-01,-1.920644242423469539e+00,8.613971341475577803e-02,9.392385541498374790e-01,-1.329416655738492770e+00,-5.171338989419413390e-02,6.356213958180451096e-01,-1.119287425179664730e+00,-6.003748932381414161e-02,3.948820711761651392e-01,-1.906883546289216191e+00
-6.253631972498013489e-03,7.715961476909037609e-02,-2.078883195917347049e+00,7.622551138959618748e-04,9.124203853313027635e-01,-1.291279771902066109e+00,-3.668375863062768583e-02,5.918872108259447540e-01,-1.187498951163731054e+00,2.259642811909446172e-02,4.231475956107878522e-01,-2.168165360217138460e+00
-4.260542244976046194e-02,5.870100323506911855e-02,-2.054717132704250826e+00,-8.604201773473445572e-03,8.727411841302773476e-01,-1.228257303636120179e+00,1.066199815046726257e-02,5.711273941132705145e-01,-1.254846020632350401e+00,4.784036745300002114e-02,4.880644656025059369e-01,-2.195802398744732820e+00
3.194064764792298866e-02,2.963996742402772999e-01,-1.778481188196568530e+00,-5.237061327120706017e-02,8.577126071984180200e-01,-1.163487368951265477e+00,1.418034666256473217e-02,5.751513128141861886e-01,-1.323528965959815507e+00,-6.429523451424185021e-02,5.554714315817178560e-01,-1.981705258675459103e+00
3.237006526819471985e-02,7.804673780904143321e-01,-1.114640530337850155e+00,-1.774923087108103495e-02,1.202390505711819629e-01,-1.741362145513455806e+00,3.973900687790888481e-02,4.315122389631693700e-01,-1.920494193616304246e+00,-1.196311555161810175e-02,4.643296028603918213e-01,-1.362678379671842910e+00
-8.509611832002049112e-03,8.213065714427664199e-01,-1.116035878023680095e+00,3.695767777579768432e-02,-1.089827893816610327e-01,-1.968993972441620999e+00,-1.228211381834039100e-02,3.042413769281787084e-01,-2.132276071676931561e+00,-2.767528484499125890e-02,5.654316973257972334e-01,-1.418955278832502609e+00
-6.944796164155480483e-03,8.479327864034061912e-01,-1.142013081400615304e+00,-1.297124488650803001e-02,-1.082070204089075477e-01,-1.988476795025977850e+00,-2.446835066564130926e-02,2.302774710783007106e-01,-2.130450184016861037e+00,1.639862393173510680e-02,6.230265521836144682e-01,-1.406719909440982130e+00
-7.231294386041288436e-02,8.408561567716243967e-01,-1.166510360572422522e+00,-4.069598380991826247e-02,2.865945864657561126e-02,-1.749853976278090251e+00,4.381758360128149010e-02,2.556339838306855294e-01,-1.905346230159076226e+00,4.383222495033011618e-02,6.845872655920762773e-01,-1.391121202620613007e+00
3.789836870758962750e-02,6.405163604648002051e-01,-1.761401874037224591e+00,6.870256812734824858e-02,4.998804082099663204e-01,-1.172948816644520997e+00,-5.601003604378077677e-02,6.516316356761810979e-01,-1.318850499974270507e+00,-3.742545997443191136e-02,5.443886787007261585e-01,-2.053857343624937659e+00
-3.246503146852235816e-02,2.617962853195717754e-01,-1.979908513955912497e+00,-6.021326669093404402e-03,5.355591989534893571e-01,-1.187468855044141236e+00,-1.783677939227335321e-02,5.922220268253474140e-01,-1.288945355922954228e+00,3.501580696123285374e-02,5.230666282690501490e-01,-2.302806862216783657e+00
-2.306825819101487353e-03,1.204536559791241218e-01,-1.990264244952434147e+00,-1.518408484643177236e-02,5.705345095305710545e-01,-1.227397759666731147e+00,6.469487369142047986e-03,5.965795519040939521e-01,-1.316426048564301343e+00,1.208830236435604055e-02,5.063847104333751847e-01,-2.328849705941256509e+00
1.890477559072606048e-02,8.406544218916012223e-02,-1.852565703726458013e+00,-7.037446225433382184e-03,6.118185984495689844e-01,-1.314319266018772803e+00,8.771346940633537384e-03,6.316069216647119955e-01,-1.380817325342664326e+00,-2.065654281897356254e-02,4.234135767595436639e-01,-2.102969030414663099e+00
-2.214471194062924558e-03,6.713113770570078298e-01,-1.383758207604505408e+00,-2.185426470966817490e-03,6.820506007118789515e-01,-1.401997432937543087e+00,7.339962323407177346e-04,7.266614717188124573e-01,-1.498848979804759507e+00,7.909745191920462956e-04,7.387914963997769258e-01,-1.519813055826386927e+00
-9.959401287551123208e-03,6.972992392610152246e-01,-1.463812447344390755e+00,-9.971216515936983868e-03,7.037020726924395619e-01,-1.473144139523086427e+00,-7.311233819360587506e-03,7.215082683385501960e-01,-1.514344126789786360e+00,-7.309862266290101385e-03,7.294905208022214316e-01,-1.526873248277025752e+00
-1.214803392953650817e-09,7.000000001799864258e-01,-1.499999998005122404e+00,1.223918331510851441e-09,7.000000001812377581e-01,-1.499999997990223877e+00,-1.240014108284812099e-09,7.000000001834797425e-01,-1.499999997963859633e+00,1.230865345073955691e-09,7.000000001822028750e-01,-1.499999997978826105e+00
0.000000000000000000e+00,6.999999999999999556e-01,-1.500000000000000000e+00,0.000000000000000000e+00,6.999999999999999556e-01,-1.500000000000000000e+00,0.000000000000000000e+00,6.999999999999999556e-01,-1.500000000000000000e+00,0.000000000000000000e+00,6.999999999999999556e-01,-1.500000000000000000e+00
