yusongmin1/go2_flip_TO/datasets/go2/trajectories/quad_strafe_left_ramp_3s/trajectory_full.csv
t,base_tx,base_ty,base_tz,quat_x,quat_y,quat_z,quat_w,FL_hip_joint,FL_thigh_joint,FL_calf_joint,FR_hip_joint,FR_thigh_joint,FR_calf_joint,RL_hip_joint,RL_thigh_joint,RL_calf_joint,RR_hip_joint,RR_thigh_joint,RR_calf_joint
0.000000000000000000e+00,0.000000000000000000e+00,0.000000000000000000e+00,3.113099999999999756e-01,0.000000000000000000e+00,0.000000000000000000e+00,0.000000000000000000e+00,1.000000000000000000e+00,0.000000000000000000e+00,6.999999999999999556e-01,-1.500000000000000000e+00,0.000000000000000000e+00,6.999999999999999556e-01,-1.500000000000000000e+00,0.000000000000000000e+00,6.999999999999999556e-01,-1.500000000000000000e+00,0.000000000000000000e+00,6.999999999999999556e-01,-1.500000000000000000e+00
5.000000000000000278e-02,3.605468353007130599e-03,7.142323808280794410e-04,3.098455147402687238e-01,3.319700699165853875e-04,-8.252947576074363620e-03,-4.616453587822514151e-03,9.999552325021608956e-01,3.016303641541259045e-03,7.257852640332637106e-01,-1.486761956158125564e+00,3.059586772571051827e-03,7.197496354112165040e-01,-1.491540459957066300e+00,-8.560262568300119543e-03,7.507160189987558407e-01,-1.537935275764615861e+00,-8.502592616604229270e-03,7.371281230642481308e-01,-1.527638587517489377e+00
1.000000000000000056e-01,1.016184412512633438e-02,2.305175472114827286e-03,3.101957645384825213e-01,-1.729202895428144388e-03,-2.126787262647186066e-02,-4.782655371980322652e-03,9.997608782398336169e-01,1.927787888410707664e-03,7.566439081400546662e-01,-1.454856527924579090e+00,1.968707035434843090e-03,7.460106556404682010e-01,-1.450613963982334775e+00,-1.034965741741485437e-02,8.172781477256592098e-01,-1.575149185652843453e+00,-1.023207596598952641e-02,7.983335267535121016e-01,-1.555599563659408435e+00
1.500000000000000222e-01,1.852605134687036054e-02,5.089126285383302299e-03,3.165104022607046486e-01,-1.038904988036313398e-02,-3.036808228795506021e-02,1.041268776034255227e-03,9.994842484902257684e-01,3.688451139898753749e-03,7.684731328451991361e-01,-1.400918845258480427e+00,3.814263589729622369e-03,7.505626806414060770e-01,-1.362573758561541393e+00,5.836206253915421707e-03,8.523131540781189175e-01,-1.562848064007727578e+00,5.936905800898828293e-03,8.375914357974830748e-01,-1.530595299985322510e+00
2.000000000000000111e-01,2.526673538927565535e-02,9.224495303469254157e-03,3.295207650779310993e-01,-1.099736595145080903e-02,-1.772363352258132796e-02,5.490798499809311853e-03,9.997673638845796518e-01,1.032169441604019119e-02,3.529036642176394123e-01,-1.959303226643659634e+00,-1.123039372435953413e-02,7.109503595005823851e-01,-1.285867190589317977e+00,6.144435554485972719e-04,7.833001418359141210e-01,-1.443457781451098709e+00,-3.395318652298993239e-02,2.814700007493423639e-01,-1.986224855254623112e+00
2.500000000000000000e-01,3.658528296226998960e-02,1.352477611913751286e-02,3.369908908550564020e-01,-2.163209004348500344e-02,-2.045688389675662244e-02,9.754214880407055185e-03,9.995090914412194660e-01,-2.665689364589031440e-02,3.119416674569607806e-01,-2.128220468528489118e+00,-5.283593670790133132e-03,7.031278904550578579e-01,-1.190422904639286905e+00,1.557749941023471411e-02,8.005544450606405515e-01,-1.405134793575903318e+00,3.056220044692193466e-02,9.685430928476686241e-02,-2.106656489644782582e+00
2.999999999999999889e-01,4.840824327900941637e-02,1.877126460669594279e-02,3.398513249212927745e-01,-3.870990117104322614e-02,-1.975567768707355357e-02,-3.873914927806854785e-03,9.990476713018175969e-01,-2.702783133139355712e-02,2.478762444363911410e-01,-2.079056649688488356e+00,2.650117246357678799e-02,7.010743808338172345e-01,-1.147256932386868655e+00,1.555740374561907953e-02,8.475495161671293687e-01,-1.405369010246772632e+00,1.507017028016867551e-02,2.243834559548999602e-02,-2.073163606728677610e+00
3.499999999999999778e-01,6.175585857154912428e-02,2.590346553204628602e-02,3.408715629085651289e-01,-3.666870035675556805e-02,-4.524657054835565413e-03,-4.840631706793813854e-02,9.981441591075914666e-01,2.743169016996782617e-02,3.009037123154978399e-01,-1.869614694062530447e+00,4.102242807917923922e-02,7.012703198319081288e-01,-1.202953576477198583e+00,-7.701486831496771879e-02,8.720571541226840306e-01,-1.374479775422843497e+00,-5.152371425089814772e-02,8.596713527845403768e-02,-1.870403937636101910e+00
3.999999999999999667e-01,7.902746554163370130e-02,3.684034343255512822e-02,3.382188578823105418e-01,2.813026014064341079e-02,-3.927552231952855313e-03,-1.061803375331419469e-01,9.939411444945989160e-01,-3.595357271774276414e-02,5.213025348630274669e-01,-1.251912586964121665e+00,-5.725681501678882984e-02,2.025647000391121999e-01,-1.811905509208527665e+00,5.401430580665867592e-02,7.822773089708063843e-01,-2.016336026057538700e+00,6.702713537736904037e-02,4.032363538431436578e-01,-1.316564637644083824e+00
4.499999999999999556e-01,9.540937423117203109e-02,4.539558081507873849e-02,3.324817453908973097e-01,2.316550045007956249e-02,-1.377209481346943799e-02,-1.532503334997794842e-01,9.878198339148452911e-01,-5.358683085667483026e-03,6.282905219569426825e-01,-1.266454522065676658e+00,4.611216227852527223e-03,1.126058076654254218e-02,-2.007161509341171435e+00,-1.035355005263872627e-02,7.005898822764141665e-01,-2.221742228188542612e+00,5.536198573819923856e-03,4.463252961680422848e-01,-1.355149449971819076e+00
4.999999999999999445e-01,1.094401672741209947e-01,5.322720325512702438e-02,3.294265247479113423e-01,-4.942156330382261112e-04,-2.381672008389879025e-02,-1.684323667785798395e-01,9.854253180311125515e-01,2.002195226602754632e-02,7.070202367973650315e-01,-1.280427612783569646e+00,3.617546837816058413e-03,-6.684245833713110384e-04,-1.972785235741574494e+00,-3.903928457407269265e-02,4.654305721715987776e-01,-2.169559454158055622e+00,1.573274277013137629e-03,5.063594983403122418e-01,-1.383912178602233256e+00
5.499999999999999334e-01,1.189656714552760342e-01,6.363711089635018525e-02,3.293396897831623038e-01,-5.559424065898782401e-03,-2.316987846151583041e-02,-1.802655658578345976e-01,9.833293320663676340e-01,3.992499894257373061e-03,7.448375238642473972e-01,-1.301640893952702882e+00,-2.776310812593466362e-02,1.591591277478927868e-01,-1.765687099311407993e+00,2.216745427219552270e-02,2.564234081812136745e-01,-1.903315618732296599e+00,-3.760937596051226739e-02,4.977457505893821410e-01,-1.349119971181184985e+00
5.999999999999999778e-01,1.266766480824764729e-01,7.487025873253613795e-02,3.262347081394355031e-01,-2.039060820689341316e-02,-1.638308033906360831e-02,-2.143866615735528225e-01,9.763985749246583135e-01,4.533667102461887144e-02,4.265190283680266869e-01,-1.920219378171502012e+00,-1.401341558087931469e-02,8.081593200228688323e-01,-1.264925348805531868e+00,3.547377832379382256e-02,2.605868602687159696e-01,-1.252274269389784145e+00,-5.319511603717017728e-02,8.757527644789609989e-01,-2.105145004095272832e+00
6.500000000000000222e-01,1.274221059544148049e-01,9.080578952196718956e-02,3.250719359561797250e-01,-2.718792527542433085e-02,1.020656822354390134e-02,-2.375045701136660747e-01,9.709522242929560232e-01,-5.541911461915643294e-02,1.996003310474228076e-01,-2.182119489629661846e+00,-1.186891524638788477e-02,7.544807330075490315e-01,-1.328340593042326212e+00,6.253573199321291361e-03,2.069349760863977428e-01,-1.235968455298254609e+00,5.442043423371298316e-02,1.095341377437058616e+00,-2.407547045245567841e+00
7.000000000000000666e-01,1.265110154117555230e-01,1.117956073376916992e-01,3.243349819724531957e-01,-5.632636706821583100e-02,3.166763623532405786e-02,-2.736140096439935721e-01,9.596665436049650610e-01,-1.301010810244890292e-02,4.541764506977188920e-02,-2.168136003124448763e+00,4.178049073051386814e-02,6.670271199711854671e-01,-1.341733702180012200e+00,4.517167340827974234e-03,1.831868252930529406e-01,-1.258463822518233632e+00,1.918292572908713786e-02,1.183961629910822211e+00,-2.369718990719900109e+00
7.500000000000001110e-01,1.260107509191482345e-01,1.388535713143188299e-01,3.260488292850356462e-01,-4.515578439027716218e-02,4.001751789045588509e-02,-3.339617854883130676e-01,9.406535383611990264e-01,5.358634450068850558e-02,6.959607696208541805e-02,-1.933126036133334003e+00,4.017214744459790543e-02,5.470944922340726935e-01,-1.358374366154373458e+00,-9.842298276668262624e-02,1.426508511920478450e-01,-1.231066673688177238e+00,-4.912840063401525958e-02,1.199753103866655124e+00,-2.044407122576935354e+00
8.000000000000001554e-01,1.282228366202775305e-01,1.728937126546069847e-01,3.283925845518582132e-01,6.852343779896449827e-02,8.757050687200512371e-03,-3.977557837984204703e-01,9.148869815394562455e-01,-2.110371123685942860e-02,4.855924324077530163e-01,-1.344085446824928143e+00,-5.223906870782632494e-02,5.153510461893381217e-02,-1.914417831020257976e+00,6.299129719491126933e-02,4.768499848433904176e-01,-1.926617146261623059e+00,7.596467915505188129e-02,8.387956614243293751e-01,-1.341066131441242204e+00
8.500000000000001998e-01,1.254817842976633790e-01,2.037618692115250596e-01,3.273707170193840832e-01,6.566840484440276959e-02,1.834373380066280437e-02,-4.340334597624764257e-01,8.983129320242789762e-01,-2.168818382806213360e-04,4.432344903265054148e-01,-1.369990495658133911e+00,1.735619233776020467e-02,-8.361950823351742279e-02,-2.135582681723457110e+00,-1.937579106630465953e-02,7.233787706024402686e-01,-2.238140618415857652e+00,-2.313797714950420817e-02,7.083105484569716115e-01,-1.318035769177920757e+00
9.000000000000002442e-01,1.194280954399933314e-01,2.320674141359856946e-01,3.275283724277807673e-01,3.756292925338103328e-02,3.894881029660614280e-02,-4.325312876171359955e-01,8.999937231751380384e-01,2.766327358376704723e-02,3.618873068978269436e-01,-1.406604183662727880e+00,1.633903354841277633e-02,-3.712008980077328903e-03,-2.179120990624863197e+00,-3.368528282527230577e-02,9.036188192505000272e-01,-2.262458299193475408e+00,8.135074177809764259e-03,5.965254196191203118e-01,-1.271432358954188491e+00
9.500000000000002887e-01,1.106006058257251595e-01,2.616242118183229048e-01,3.281930665584265050e-01,3.706568472150111038e-02,4.051352986405502149e-02,-4.139440143340061828e-01,9.086446730769562885e-01,-5.193985737900984334e-02,2.394153198533630622e-01,-1.386178509441128304e+00,-3.877771103869899483e-02,2.015744492169085633e-01,-2.044182666580032226e+00,3.640548932382278724e-02,9.796115084138463658e-01,-1.968482588502245223e+00,-2.883404161874636960e-03,5.231165839879472479e-01,-1.261710902565016834e+00
1.000000000000000222e+00,9.923567907059169246e-02,2.905640434157792384e-01,3.233030218324967620e-01,1.237688954760200917e-02,4.590275208309513993e-02,-4.088214624915099682e-01,9.113752036140918555e-01,5.721338188488408333e-02,-1.890630748895131587e-04,-1.940751960560018308e+00,2.500275182636707560e-02,7.604440114112090976e-01,-1.538618724343509436e+00,7.145160066644214679e-03,5.901647308779807144e-01,-1.291241829564833576e+00,-3.842963768458101947e-02,1.329271807170263164e+00,-1.868092744113885484e+00
1.050000000000000266e+00,8.701404716062678679e-02,3.243054138628173599e-01,3.222782330736052026e-01,2.378180393170669770e-03,4.593433271996042594e-02,-3.949581348386379531e-01,9.175469759420352700e-01,-4.676681858360766386e-02,-7.480367362471856962e-02,-2.157927272580147271e+00,-2.020326765730530785e-02,6.546520598793016399e-01,-1.494513104806493464e+00,-6.767502280612654533e-04,5.050425785303398474e-01,-1.328559013469350791e+00,3.060519308487692075e-02,1.785197975224130928e+00,-2.023407130366290385e+00
1.100000000000000311e+00,7.579399214383969463e-02,3.613295441812376940e-01,3.227212214434383442e-01,-4.177862034534669811e-02,5.625289969165604698e-02,-4.005089606313124717e-01,9.136097255460592370e-01,-8.442759145565272710e-03,-3.975421536920871468e-02,-2.157623174970473734e+00,2.750582669534278393e-02,5.056829527582353823e-01,-1.386508507262852019e+00,2.887670893543560491e-02,4.442425740947040791e-01,-1.382792469922711875e+00,1.278926932285723642e-02,1.900147002764890569e+00,-1.900039970583628390e+00
1.150000000000000355e+00,6.752261579484505893e-02,4.046377844537715762e-01,3.270827512703533557e-01,-3.749241230355708498e-02,5.385384542661844631e-02,-4.369054560032344381e-01,8.971107539579668000e-01,4.264502519729739677e-02,1.157361909136401801e-01,-1.969911708112928928e+00,1.793772915027222470e-02,3.028526245575377529e-01,-1.269476679234189387e+00,-7.500199763450712820e-02,3.358181698945688631e-01,-1.339979459509764714e+00,-4.525512706283457004e-02,1.714759518022763496e+00,-1.573783344458768108e+00
1.200000000000000400e+00,6.462063786824646938e-02,4.545392641189266447e-01,3.331314535027103951e-01,5.763786569497589274e-02,1.857147643096009743e-02,-4.814367218054163566e-01,8.743864475153743099e-01,-2.472634079752066699e-02,6.227249519176520920e-01,-1.397804889313352339e+00,-3.621908123369672189e-02,-4.991731038998487024e-02,-1.820259909620046912e+00,6.483156417276127181e-02,6.955696099119711429e-01,-1.924074286279011448e+00,5.391265019362623950e-02,8.565913847481351207e-01,-1.054367474847550890e+00
1.250000000000000444e+00,5.754354529752044034e-02,5.006244432228262875e-01,3.321624819100141290e-01,4.922984281586630095e-02,2.454547743858877598e-02,-5.088305693210404268e-01,8.591073238181959892e-01,-1.394210920463302694e-02,5.258001930589608630e-01,-1.419416953149780225e+00,2.152069378849595302e-02,-9.567589118024835693e-02,-2.064569293547142692e+00,-1.232214397820846456e-02,1.076570478319247348e+00,-2.058698560602519212e+00,-2.905898660698691405e-02,7.594070272828297163e-01,-1.140515768939989627e+00
1.300000000000000488e+00,4.798440338465834870e-02,5.442025849104269453e-01,3.321026323329783758e-01,1.938427509071742952e-02,4.798177522788578397e-02,-5.074565067282719166e-01,8.601220221017058520e-01,2.130707809136981115e-02,3.860272727800753145e-01,-1.437321013998260399e+00,1.888243695383672732e-02,7.469347465418474386e-02,-2.157756291352435518e+00,-2.208752338563691256e-02,1.369867845329413081e+00,-1.920944518484754004e+00,1.056864944363490599e-02,6.334912859854132661e-01,-1.147992324909427708e+00
1.350000000000000533e+00,3.665672676518609563e-02,5.893723936464003721e-01,3.330383379228332164e-01,2.122659010988819234e-02,5.143439410479040685e-02,-4.889129014407331275e-01,8.705562071343722064e-01,-6.691051112848910021e-02,1.900174151663560906e-01,-1.377627787128370640e+00,-4.300242538871765913e-02,3.139811909936947587e-01,-2.070534367561405187e+00,2.742514621674884551e-02,1.378209887732860128e+00,-1.565288619636528100e+00,6.944521826720445080e-05,5.216385992470706778e-01,-1.155860406421481468e+00
1.400000000000000577e+00,2.443333863240220588e-02,6.351282480769192551e-01,3.308966205358323531e-01,5.217159924497503931e-02,4.437252199607844699e-02,-4.668006003757408373e-01,8.817065288477664575e-01,6.320562961031805926e-02,-4.525486981216877286e-03,-1.922059240829657512e+00,4.494639042511318350e-02,7.922045928688433714e-01,-1.587981952549855524e+00,-2.674038969359102645e-03,6.194077908114083986e-01,-9.947421224145802654e-01,-2.984979444740566701e-02,1.335303166177899570e+00,-1.685491507136156475e+00
1.450000000000000622e+00,1.208234438603139616e-02,6.823055089019358643e-01,3.296239147208002152e-01,4.805154575643107856e-02,4.793616189452580556e-02,-4.455597192199284851e-01,8.926755905377372624e-01,-3.503895636162523974e-02,-7.371249034178405102e-02,-2.120953439408095775e+00,-3.239616717806713397e-02,6.505472915245786858e-01,-1.567241067475019900e+00,-8.821461387603868332e-03,5.346382981437460824e-01,-1.109772847747150015e+00,1.329512019248211240e-02,1.730362084606571926e+00,-1.824264754239771413e+00
1.500000000000000666e+00,1.111803213873302498e-03,7.288735948990077151e-01,3.292036241616172476e-01,3.567846554752041890e-04,6.488540518436013149e-02,-4.448540884086416569e-01,8.932494595155865413e-01,-1.875674591407389472e-02,-5.347610541743592905e-02,-2.129460213947490299e+00,8.169308894702683593e-03,4.737107990595748053e-01,-1.459504564840641283e+00,3.531713929959807985e-02,4.862734259916696167e-01,-1.237257188371354788e+00,1.693293111346898597e-02,1.799452815596515487e+00,-1.748463640935517649e+00
1.550000000000000711e+00,-6.633581472285016156e-03,7.781271401468394799e-01,3.309621167525018670e-01,-4.972076672142933078e-03,6.382873402653951866e-02,-4.714621584008261146e-01,8.795593239584069689e-01,3.796206237169637288e-02,1.130494313818536656e-01,-1.952997352249449925e+00,6.135124566785386032e-05,2.596496369652134817e-01,-1.328992569955067760e+00,-4.843365577663906463e-02,3.998097360494297647e-01,-1.273270209438803979e+00,-4.296073621229490325e-02,1.607386916046239955e+00,-1.521040817270544077e+00
1.600000000000000755e+00,-8.275241718391085355e-03,8.310366758848739543e-01,3.330844527734452276e-01,7.754120008220372062e-02,1.824305752894410035e-02,-5.016614844874829338e-01,8.613885929843871914e-01,-1.723050838049608111e-02,6.463380104347473676e-01,-1.376262864191205137e+00,-3.171153009078061386e-02,-4.120004357619775487e-02,-1.865222294211807963e+00,5.924148288806178192e-02,9.477134649612072304e-01,-1.815910666257054995e+00,3.198547683041309819e-02,8.142669726804409036e-01,-1.084564645658899096e+00
1.650000000000000799e+00,-1.423842009391552976e-02,8.785558306238472337e-01,3.288613054364171173e-01,6.071268573910285765e-02,8.704135483340039864e-03,-5.241565382679254093e-01,8.494104609709121068e-01,-1.718751112780832549e-02,5.770787749781157716e-01,-1.393915699922628537e+00,2.740153125043027008e-02,-6.321227429871974224e-02,-2.104744749975825169e+00,-9.542759230640155896e-03,1.405125530680845669e+00,-1.881141682982597541e+00,-3.806959075943847082e-02,7.968351178152746073e-01,-1.248294905154069490e+00
1.700000000000000844e+00,-2.350007786299658508e-02,9.234894139324716367e-01,3.272267708459721813e-01,2.543713784947417705e-02,2.208517641071920667e-02,-5.207506334582960861e-01,8.530439465547585698e-01,1.424089122092394438e-02,4.561361337555479567e-01,-1.408025503588928418e+00,1.840683934632380420e-02,1.089210813241354298e-01,-2.181058875779372297e+00,-2.178560593164373047e-02,1.705987809781881470e+00,-1.709061744160434770e+00,6.205071111995884292e-03,7.130608898161202580e-01,-1.301113587087352030e+00
1.750000000000000888e+00,-3.516505330130476059e-02,9.691929725894843362e-01,3.290260475650971794e-01,1.751413874658909117e-02,2.762738653357913257e-02,-4.935686596068993848e-01,8.690914570464595146e-01,-6.416461946995924426e-02,2.616433794405620961e-01,-1.357399529659867321e+00,-5.441872887835140504e-02,3.630018824652126441e-01,-2.075567691148198612e+00,2.780064202835893020e-02,1.600882955954222586e+00,-1.396458292768029796e+00,2.828699862742041146e-02,6.024871869703120053e-01,-1.303163154463950812e+00
1.800000000000000933e+00,-4.861051292859998318e-02,1.017183454428224998e+00,3.333442093775713655e-01,6.247526490990001208e-02,3.855563921009305672e-02,-4.587764134353914947e-01,8.855136963564694819e-01,5.388951944407267131e-02,-1.897961825424616597e-02,-1.880734372036490631e+00,5.473571326781362378e-02,8.355762641860603468e-01,-1.577534109118853944e+00,-1.778434821330710652e-02,6.003666487745665803e-01,-9.427688514416335819e-01,-3.963463731298896842e-02,1.098773494474597490e+00,-1.974607860315201746e+00
1.850000000000000977e+00,-5.996878153505183495e-02,1.062930640812010719e+00,3.338308330214483921e-01,5.679447084758996317e-02,4.530402200210027069e-02,-4.338303048454628108e-01,8.980607998734095876e-01,-2.197573225912390765e-02,-1.599366868649435003e-01,-2.050915285222024043e+00,-2.139674019719394263e-02,7.014254785176960993e-01,-1.563438611002857748e+00,-1.546314601476993060e-02,5.074053300158425373e-01,-1.041706664270891203e+00,1.619619982262958738e-02,1.428295964528379924e+00,-2.176793282443465039e+00
1.900000000000001021e+00,-6.996670688606568267e-02,1.105447315671810982e+00,3.359891459448288153e-01,1.181500655393748558e-02,6.238825493121281929e-02,-4.308329384163067655e-01,9.001950291144353855e-01,-3.351662575229271551e-02,-1.858478530544862006e-01,-2.041921174419929041e+00,1.263619982892394411e-02,5.392929532136842008e-01,-1.466132764475562844e+00,2.975751404004609371e-02,4.568524683489419425e-01,-1.146532182990017690e+00,2.510848978787837485e-02,1.516407043987527681e+00,-2.099759531020762626e+00
1.950000000000001066e+00,-7.751310959031419701e-02,1.147322931856827211e+00,3.394272809159789572e-01,2.990296990354310205e-03,6.201951556664802440e-02,-4.429031608204937465e-01,8.944168088469736100e-01,3.714490646491640236e-02,-1.925380195750595394e-03,-1.848917283301769299e+00,-1.233099680879215336e-02,3.692173211398284138e-01,-1.351199047644469742e+00,-2.353125519356229212e-02,3.811336960078078873e-01,-1.174995807780373047e+00,-4.413584129957062729e-02,1.378308663902723330e+00,-1.788413098540441171e+00
2.000000000000000888e+00,-7.966326216171717989e-02,1.190036497861583165e+00,3.405064171773166115e-01,7.221815569749139019e-02,1.855541474283629519e-02,-4.551307139580163530e-01,8.872971699399477830e-01,1.000746802721606300e-02,6.931904613434086704e-01,-1.249383445584659302e+00,-3.130021922271678664e-02,1.054724943105616979e-02,-1.865993743876583233e+00,5.209856125862172976e-02,1.057523764708606206e+00,-1.752315621996978878e+00,1.811762594703195464e-02,6.550614447034123211e-01,-1.225730330347502450e+00
2.050000000000000711e+00,-8.395065673301872755e-02,1.228227452660570318e+00,3.388105467479677335e-01,5.725676228415140651e-02,1.205677248700025121e-02,-4.634128188743767973e-01,8.842086047493752377e-01,-1.406805072599350524e-02,6.596741676336436155e-01,-1.309298416569570467e+00,2.024034893305656432e-02,-4.840789282251811015e-02,-2.089143434295575918e+00,-1.947837225518172025e-02,1.438598242427867158e+00,-1.939556532990338367e+00,-2.406329497693417835e-02,5.970418598234050744e-01,-1.264031961945368376e+00
2.100000000000000533e+00,-8.812620702174912835e-02,1.262674024681215368e+00,3.390704710782215803e-01,2.027184006930764920e-02,2.127648548796895120e-02,-4.544724658649771931e-01,8.902758793969944850e-01,-4.929140858575963187e-04,6.043054212026401917e-01,-1.364566425702482766e+00,3.591933543248498981e-03,9.701584028079394961e-02,-2.116607329288229700e+00,-1.577016591166461798e-02,1.633166287625574586e+00,-1.864785886758919764e+00,1.269402314365964020e-02,5.220082313053613365e-01,-1.239162056852895599e+00
2.150000000000000355e+00,-9.114885886165904894e-02,1.295752352329396562e+00,3.408198137207741896e-01,-1.787657506364881020e-03,1.933325376034972579e-02,-4.176684162504406550e-01,9.083920539318507403e-01,-7.390441931781360774e-02,5.147609845985761101e-01,-1.375752581855679280e+00,-5.900865960885434691e-02,3.611023872812066937e-01,-1.918222929048680747e+00,5.292015585208477424e-02,1.496128001136285190e+00,-1.602950703618668982e+00,3.659272886877763808e-02,4.908992784376816632e-01,-1.229172145167670260e+00
2.200000000000000178e+00,-9.291732597066310051e-02,1.330230681401724624e+00,3.428247719477735544e-01,5.582059226361325843e-02,-7.857865908684306955e-03,-3.657020981991270236e-01,9.290232993824517616e-01,4.717830789416149057e-02,2.167611392149863536e-01,-1.920644242423469539e+00,8.613971341475577803e-02,9.392385541498374790e-01,-1.329416655738492770e+00,-5.171338989419413390e-02,6.356213958180451096e-01,-1.119287425179664730e+00,-6.003748932381414161e-02,3.948820711761651392e-01,-1.906883546289216191e+00
2.250000000000000000e+00,-9.292005268592477829e-02,1.358513786978795546e+00,3.410751605143161336e-01,4.707228915613699549e-02,-1.288591121025319669e-02,-3.158674925748901074e-01,9.475472969832874348e-01,-6.253631972498013489e-03,7.715961476909037609e-02,-2.078883195917347049e+00,7.622551138959618748e-04,9.124203853313027635e-01,-1.291279771902066109e+00,-3.668375863062768583e-02,5.918872108259447540e-01,-1.187498951163731054e+00,2.259642811909446172e-02,4.231475956107878522e-01,-2.168165360217138460e+00
2.299999999999999822e+00,-9.124473455509302111e-02,1.380858914300509221e+00,3.394736685655675990e-01,1.347794752362566420e-02,-5.758145358946325024e-03,-2.854314825371288000e-01,9.582870433587382664e-01,-4.260542244976046194e-02,5.870100323506911855e-02,-2.054717132704250826e+00,-8.604201773473445572e-03,8.727411841302773476e-01,-1.228257303636120179e+00,1.066199815046726257e-02,5.711273941132705145e-01,-1.254846020632350401e+00,4.784036745300002114e-02,4.880644656025059369e-01,-2.195802398744732820e+00
2.349999999999999645e+00,-8.641063383632381634e-02,1.398706925557854142e+00,3.357453486338281001e-01,-8.896986296028613472e-04,-8.416827472533265977e-03,-2.571453358679732237e-01,9.663356775432609957e-01,3.194064764792298866e-02,2.963996742402772999e-01,-1.778481188196568530e+00,-5.237061327120706017e-02,8.577126071984180200e-01,-1.163487368951265477e+00,1.418034666256473217e-02,5.751513128141861886e-01,-1.323528965959815507e+00,-6.429523451424185021e-02,5.554714315817178560e-01,-1.981705258675459103e+00
2.399999999999999467e+00,-8.107317725040409651e-02,1.419069403396617357e+00,3.340531939950336926e-01,4.180451874968409143e-02,-1.218329230633986675e-02,-2.206651401045050254e-01,9.743771577491668889e-01,3.237006526819471985e-02,7.804673780904143321e-01,-1.114640530337850155e+00,-1.774923087108103495e-02,1.202390505711819629e-01,-1.741362145513455806e+00,3.973900687790888481e-02,4.315122389631693700e-01,-1.920494193616304246e+00,-1.196311555161810175e-02,4.643296028603918213e-01,-1.362678379671842910e+00
2.449999999999999289e+00,-7.004655731623253556e-02,1.431994836201733623e+00,3.338331512113777433e-01,2.789751557122434680e-02,-3.248327934778168918e-02,-2.015412741750889081e-01,9.785436525733784974e-01,-8.509611832002049112e-03,8.213065714427664199e-01,-1.116035878023680095e+00,3.695767777579768432e-02,-1.089827893816610327e-01,-1.968993972441620999e+00,-1.228211381834039100e-02,3.042413769281787084e-01,-2.132276071676931561e+00,-2.767528484499125890e-02,5.654316973257972334e-01,-1.418955278832502609e+00
2.499999999999999112e+00,-5.939921613938937278e-02,1.443670599665087595e+00,3.371198711107590285e-01,-4.888812401231182152e-03,-3.622105341497702108e-02,-1.734630689069372178e-01,9.841619269856978214e-01,-6.944796164155480483e-03,8.479327864034061912e-01,-1.142013081400615304e+00,-1.297124488650803001e-02,-1.082070204089075477e-01,-1.988476795025977850e+00,-2.446835066564130926e-02,2.302774710783007106e-01,-2.130450184016861037e+00,1.639862393173510680e-02,6.230265521836144682e-01,-1.406719909440982130e+00
2.549999999999998934e+00,-5.005071924379867615e-02,1.455842845993962964e+00,3.425842202017734817e-01,-1.164943996793837803e-02,-3.723238053349692267e-02,-1.167726464493195476e-01,9.923921550624352772e-01,-7.231294386041288436e-02,8.408561567716243967e-01,-1.166510360572422522e+00,-4.069598380991826247e-02,2.865945864657561126e-02,-1.749853976278090251e+00,4.381758360128149010e-02,2.556339838306855294e-01,-1.905346230159076226e+00,4.383222495033011618e-02,6.845872655920762773e-01,-1.391121202620613007e+00
2.599999999999998757e+00,-3.878863801113919402e-02,1.469806654023659398e+00,3.452001547853851826e-01,4.492691208949408516e-02,-5.140370537776200316e-02,-5.503174406980514133e-02,9.961479502504507755e-01,3.789836870758962750e-02,6.405163604648002051e-01,-1.761401874037224591e+00,6.870256812734824858e-02,4.998804082099663204e-01,-1.172948816644520997e+00,-5.601003604378077677e-02,6.516316356761810979e-01,-1.318850499974270507e+00,-3.742545997443191136e-02,5.443886787007261585e-01,-2.053857343624937659e+00
2.649999999999998579e+00,-3.083533672598868375e-02,1.479536929213691510e+00,3.436547285467226320e-01,3.605258810356392479e-02,-3.928532101506255342e-02,-5.566392216843433702e-03,9.985619108104747399e-01,-3.246503146852235816e-02,2.617962853195717754e-01,-1.979908513955912497e+00,-6.021326669093404402e-03,5.355591989534893571e-01,-1.187468855044141236e+00,-1.783677939227335321e-02,5.922220268253474140e-01,-1.288945355922954228e+00,3.501580696123285374e-02,5.230666282690501490e-01,-2.302806862216783657e+00
2.699999999999998401e+00,-2.235168584860433919e-02,1.486804062782006941e+00,3.391976470233538099e-01,2.088791183429728263e-02,-2.959443663934786112e-02,9.398796987163376276e-03,9.992995181998219900e-01,-2.306825819101487353e-03,1.204536559791241218e-01,-1.990264244952434147e+00,-1.518408484643177236e-02,5.705345095305710545e-01,-1.227397759666731147e+00,6.469487369142047986e-03,5.965795519040939521e-01,-1.316426048564301343e+00,1.208830236435604055e-02,5.063847104333751847e-01,-2.328849705941256509e+00
2.749999999999998224e+00,-1.466569315112173713e-02,1.492638042215890248e+00,3.306248003715532291e-01,1.025356625831301029e-02,-1.962538069479466754e-02,6.685281058449280521e-03,9.997324721287892402e-01,1.890477559072606048e-02,8.406544218916012223e-02,-1.852565703726458013e+00,-7.037446225433382184e-03,6.118185984495689844e-01,-1.314319266018772803e+00,8.771346940633537384e-03,6.316069216647119955e-01,-1.380817325342664326e+00,-2.065654281897356254e-02,4.234135767595436639e-01,-2.102969030414663099e+00
2.799999999999998046e+00,-4.608117607751047520e-03,1.496973812390062442e+00,3.179126088977898834e-01,5.085270799157897217e-03,-2.129629902844401915e-02,1.126901439140555981e-03,9.997596399944022050e-01,-2.214471194062924558e-03,6.713113770570078298e-01,-1.383758207604505408e+00,-2.185426470966817490e-03,6.820506007118789515e-01,-1.401997432937543087e+00,7.339962323407177346e-04,7.266614717188124573e-01,-1.498848979804759507e+00,7.909745191920462956e-04,7.387914963997769258e-01,-1.519813055826386927e+00
2.849999999999997868e+00,-1.222794908539883221e-03,1.499143982065491487e+00,3.120089109593052745e-01,5.651231659777643593e-03,-9.761136621776462033e-03,1.100847792907317562e-03,9.999357839015040605e-01,-9.959401287551123208e-03,6.972992392610152246e-01,-1.463812447344390755e+00,-9.971216515936983868e-03,7.037020726924395619e-01,-1.473144139523086427e+00,-7.311233819360587506e-03,7.215082683385501960e-01,-1.514344126789786360e+00,-7.309862266290101385e-03,7.294905208022214316e-01,-1.526873248277025752e+00
2.899999999999997691e+00,3.209330389273765408e-10,1.500000000000014655e+00,3.113099469256441765e-01,-2.727484359670927838e-14,3.298379894642286143e-10,-1.709459746071244920e-13,1.000000000000000000e+00,-1.214803392953650817e-09,7.000000001799864258e-01,-1.499999998005122404e+00,1.223918331510851441e-09,7.000000001812377581e-01,-1.499999997990223877e+00,-1.240014108284812099e-09,7.000000001834797425e-01,-1.499999997963859633e+00,1.230865345073955691e-09,7.000000001822028750e-01,-1.499999997978826105e+00
2.949999999999997513e+00,0.000000000000000000e+00,1.500000000000000000e+00,3.113099999999999756e-01,0.000000000000000000e+00,0.000000000000000000e+00,0.000000000000000000e+00,1.000000000000000000e+00,0.000000000000000000e+00,6.999999999999999556e-01,-1.500000000000000000e+00,0.000000000000000000e+00,6.999999999999999556e-01,-1.500000000000000000e+00,0.000000000000000000e+00,6.999999999999999556e-01,-1.500000000000000000e+00,0.000000000000000000e+00,6.999999999999999556e-01,-1.500000000000000000e+00
