yusongmin1/go2_flip_TO/datasets/go2/trajectories/quad_sideflip/joints_only.csv
FL_hip_joint,FL_thigh_joint,FL_calf_joint,FR_hip_joint,FR_thigh_joint,FR_calf_joint,RL_hip_joint,RL_thigh_joint,RL_calf_joint,RR_hip_joint,RR_thigh_joint,RR_calf_joint
0.000000000000000000e+00,6.999999999999999556e-01,-1.500000000000000000e+00,0.000000000000000000e+00,6.999999999999999556e-01,-1.500000000000000000e+00,0.000000000000000000e+00,6.999999999999999556e-01,-1.500000000000000000e+00,0.000000000000000000e+00,6.999999999999999556e-01,-1.500000000000000000e+00
-3.331417523575781400e-03,8.348728889994153635e-01,-1.760804920515320671e+00,-3.333313204952094433e-03,8.356564023980574962e-01,-1.762463918449033828e+00,-3.332781523714364348e-03,8.415606243187266911e-01,-1.775026934945723500e+00,-3.334695588740393176e-03,8.423377264193681047e-01,-1.776674681232523589e+00
-4.872011882859961229e-03,8.416671451427986117e-01,-1.754295058228331428e+00,-4.876006412797342753e-03,8.428778235516406481e-01,-1.756559669911746280e+00,-4.701273020175865056e-03,8.527994117433694843e-01,-1.777723732993706562e+00,-4.705082859204910532e-03,8.540937421894866377e-01,-1.780163764579629770e+00
-4.331544123214367201e-03,8.410884508883614830e-01,-1.721067512355875628e+00,-4.334462619471589340e-03,8.422578205960747910e-01,-1.722743089157469543e+00,-3.854509235655354926e-03,8.612796161161467845e-01,-1.762877091135401697e+00,-3.856961175584056739e-03,8.627125730691035388e-01,-1.765077940815664048e+00
-2.160541716355263066e-03,8.368774823942046748e-01,-1.676346668606117252e+00,-2.160740360046024648e-03,8.375619877771556254e-01,-1.676426465800529675e+00,-1.274821356477595039e-03,8.686296594617594069e-01,-1.740981432342733948e+00,-1.274749298686759071e-03,8.698562827691749266e-01,-1.742098253154473309e+00
8.396486903011798463e-04,8.300599351062454279e-01,-1.627497549969810997e+00,8.406882964417604874e-04,8.299612438705540329e-01,-1.625363130162717828e+00,2.208001758898334166e-03,8.739198625599071679e-01,-1.715416618110885860e+00,2.208065791769332764e-03,8.747385504605581508e-01,-1.714988037727670944e+00
3.887607163273067330e-03,8.211612341377449997e-01,-1.578204753064936350e+00,3.887332545609289806e-03,8.201758656140032411e-01,-1.573655431249977088e+00,5.791220882141416906e-03,8.763976926846445137e-01,-1.687523648063550930e+00,5.787495945986089949e-03,8.767873832164025938e-01,-1.685486062488894987e+00
6.455188674673337755e-03,8.106026437338013091e-01,-1.530576734133675343e+00,6.452265742055407136e-03,8.087919898027764454e-01,-1.523724682848595080e+00,8.933369468916993808e-03,8.756070080962627955e-01,-1.657946031679618848e+00,8.923601168100606107e-03,8.756917932010465089e-01,-1.654518719913629532e+00
8.314728690252955884e-03,7.988406745803128262e-01,-1.485920029031328582e+00,8.309649779602218400e-03,7.963611455755930102e-01,-1.477041529193952041e+00,1.139745647248528379e-02,8.714801012343486031e-01,-1.627192480449799472e+00,1.138175040224006021e-02,8.714587130429676254e-01,-1.622725973607368033e+00
9.448304283164340317e-03,7.863692772397374853e-01,-1.445046795013227081e+00,9.442805277600638952e-03,7.834110581760262981e-01,-1.434463293735251055e+00,1.316232244200129381e-02,8.642938838206760677e-01,-1.595802344722123012e+00,1.314248819178018626e-02,8.643839861819856418e-01,-1.590668947506981068e+00
9.952757598274778253e-03,7.736805452027272212e-01,-1.408421609824725307e+00,9.948996699626486834e-03,7.704247707545415214e-01,-1.396428380869864538e+00,1.432161147459582069e-02,8.545642616821446103e-01,-1.564356150163632053e+00,1.430014287382581385e-02,8.549629729251528865e-01,-1.558885096826425842e+00
9.954841539114429178e-03,7.612248042504394796e-01,-1.376236756136716366e+00,9.954880288784192024e-03,7.578251466745287157e-01,-1.363077461170435045e+00,1.499801522261090883e-02,8.429424556848084116e-01,-1.533443357748286884e+00,1.497740013871370381e-02,8.438105717551313001e-01,-1.527900227912703857e+00
9.557824200623881578e-03,7.493843673364222191e-01,-1.348461260501828463e+00,9.563461423354213328e-03,7.459675576299507060e-01,-1.334333928360513788e+00,1.529094025059737905e-02,8.301348196667693857e-01,-1.503629998578663418e+00,1.527341017532874920e-02,8.315999580345871944e-01,-1.498226402919947464e+00
8.817871095078273075e-03,7.384597117220222939e-01,-1.324888539449307068e+00,8.830651791823997121e-03,7.351355849722858160e-01,-1.309971745541045562e+00,1.524938200718203157e-02,8.168383676441179908e-01,-1.475429461585512136e+00,1.523693753897271269e-02,8.190039458001080463e-01,-1.470345567131567943e+00
7.738685930263963439e-03,7.286667085500644347e-01,-1.305184243895314289e+00,7.759939733998037249e-03,7.255424094539170143e-01,-1.289669332877941610e+00,1.486684868664983963e-02,8.036941150261800448e-01,-1.449280978401003450e+00,1.486137436588042676e-02,8.066519383725370140e-01,-1.444692684353793943e+00
6.280221024633509536e-03,7.201422732357457557e-01,-1.288939681203326915e+00,6.311035138014098843e-03,7.173354802564144705e-01,-1.273056943723621215e+00,1.409262285536823367e-02,7.912526210113337566e-01,-1.425534807746864141e+00,1.409594978703486087e-02,7.950962094815330339e-01,-1.421638091872401422e+00
4.380660438745340168e-03,7.129593787746484335e-01,-1.275720101644373328e+00,4.421679327829047303e-03,7.106035897608719010e-01,-1.259756629728169708e+00,1.284838394809181480e-02,7.799630131188366455e-01,-1.404453261492710547e+00,1.286217197817174709e-02,7.847887620833192690e-01,-1.401473238811818067e+00
1.974438933098334945e-03,7.071418765191986866e-01,-1.265112327929933445e+00,2.025544524889184850e-03,7.053860057195198152e-01,-1.249415122151366520e+00,1.104883973028723300e-02,7.701637119398653253e-01,-1.386211846692036564e+00,1.107428153619585687e-02,7.760682972152710413e-01,-1.384401112795696553e+00
-9.880965683847151015e-04,7.026833529231210074e-01,-1.256757162376271220e+00,-9.281903563354270553e-04,7.016844206063892475e-01,-1.241721345417803102e+00,8.622411879065722956e-03,7.620945703939850935e-01,-1.370916155510703671e+00,8.659771271911987853e-03,7.691661795001639712e-01,-1.370540156811121957e+00
-4.529605410506556615e-03,6.995645246824214736e-01,-1.250374592398151297e+00,-4.463782577457039991e-03,6.994757357344659754e-01,-1.236425754268255739e+00,5.519867837266864696e-03,7.559127750460842288e-01,-1.358621109267755367e+00,5.567921891849542115e-03,7.642153424670697914e-01,-1.359933892337682693e+00
-8.633048485167129499e-03,6.977693292384229418e-01,-1.245774764810660740e+00,-8.566111732090271602e-03,6.987233189773562891e-01,-1.233340714293706952e+00,1.727954964313351688e-03,7.517181224919072813e-01,-1.349356847431080197e+00,1.783447178903602506e-03,7.612713874376264567e-01,-1.352567834021122684e+00
-1.323758142395756350e-02,6.972995414890901245e-01,-1.242865388702069085e+00,-1.317631836301417537e-02,6.993901656601673178e-01,-1.232342349686747385e+00,-2.724442864490020030e-03,7.495787465512120384e-01,-1.343155531072296904e+00,-2.667164129151250104e-03,7.603384970574519341e-01,-1.348394106202865261e+00
-1.823288205581617694e-02,6.981846342697631824e-01,-1.241654337581746814e+00,-1.818574302871745971e-02,7.014465783645601471e-01,-1.233366838101505047e+00,-7.758919020725658575e-03,7.495505741820563950e-01,-1.340071231175644417e+00,-7.707913557026891890e-03,7.613884685719417567e-01,-1.347348705183207374e+00
-2.345464802483271730e-02,7.004902588144389375e-01,-1.242241561019883367e+00,-2.343095633760210877e-02,7.048761751074719140e-01,-1.236401485118151067e+00,-1.324561184994793757e-02,7.517014147469317509e-01,-1.340200748691387611e+00,-1.321087745754736913e-02,7.643809124531212307e-01,-1.349369313068912168e+00
-2.869921432670300560e-02,7.043182576413838936e-01,-1.244810569891318330e+00,-2.870792017436249455e-02,7.096818800186087683e-01,-1.241483432772382489e+00,-1.901453672633107023e-02,7.561165034705261689e-01,-1.343685493186416391e+00,-1.900694741424230338e-02,7.692779640960428766e-01,-1.354410648600310019e+00
-3.371684191730381364e-02,7.098062216962435222e-01,-1.249623999916170902e+00,-3.376477991725287259e-02,7.158839166621836503e-01,-1.248687987563348534e+00,-2.484530287159482376e-02,7.629001300561837340e-01,-1.350710950829365764e+00,-2.487486331049814509e-02,7.760483800057531578e-01,-1.362444692571590732e+00
-3.821675945597322044e-02,7.171237149692805124e-01,-1.257003025259742168e+00,-3.830668060925140894e-02,7.235180550636607366e-01,-1.258119678182475942e+00,-3.047743166394096398e-02,7.721807899083463766e-01,-1.361502487012665075e+00,-3.055099797286876112e-02,7.846711460597367571e-01,-1.373462226015065957e+00
-4.188225746868108612e-02,7.264591331627240356e-01,-1.267315943507173914e+00,-4.201091192255236584e-02,7.326302025961295428e-01,-1.269909789184815230e+00,-3.562070298936532986e-02,7.840889623889235605e-01,-1.376296992930213126e+00,-3.573930094546830943e-02,7.951251950443596339e-01,-1.387461779387423766e+00
-4.436481206620954826e-02,7.380105460760225666e-01,-1.280960644574142826e+00,-4.452128352899262925e-02,7.432671510945395577e-01,-1.284198905429309479e+00,-3.994859291542737778e-02,7.987489471641854299e-01,-1.395327288219802453e+00,-4.010446497204744887e-02,8.073820041778470014e-01,-1.404436247794118353e+00
-4.531569525635958939e-02,7.519665444444663116e-01,-1.298340072545433266e+00,-4.548084866452244135e-02,7.554709317982641892e-01,-1.301140690127964517e+00,-4.313114172344055530e-02,8.162533089512391538e-01,-1.418786198995321213e+00,-4.330525869023926777e-02,8.213912870205645200e-01,-1.424361400006938894e+00
-4.438877264184361293e-02,7.684904561361802777e-01,-1.319845450022873790e+00,-4.453594342397863143e-02,7.692673158483530615e-01,-1.320885366584686693e+00,-4.483069813520183799e-02,8.366416753928052064e-01,-1.446801367715602860e+00,-4.499085633586306920e-02,8.370683850770470613e-01,-1.447178336829966883e+00
-4.126015395937092378e-02,7.877037021053139298e-01,-1.345826878717037101e+00,-4.135779293929828238e-02,7.846559068115093183e-01,-1.343578206369664407e+00,-4.473188146809445320e-02,8.598866567365568425e-01,-1.479412705881232970e+00,-4.483215646521018088e-02,8.542759689121328659e-01,-1.472778356679433465e+00
-3.565528789043764801e-02,8.096676165599875352e-01,-1.376575388673425770e+00,-3.567179310945611109e-02,8.016029371581857577e-01,-1.369351515419428233e+00,-4.255973439752487597e-02,8.858705796093387930e-01,-1.516549357701126644e+00,-4.254160719338232616e-02,8.728159340955550238e-01,-1.500995080952676419e+00
-2.737186695202851322e-02,8.343700068178252494e-01,-1.412295889783149239e+00,-2.728255429061310702e-02,8.200349568139650991e-01,-1.398306813195116405e+00,-3.809887936227128458e-02,9.143799046632791194e-01,-1.558022390342745256e+00,-3.789430748844608426e-02,8.924309920341085833e-01,-1.531602817291591201e+00
-1.628360556153947078e-02,8.617165490069482736e-01,-1.453099387097099404e+00,-1.607923310976945575e-02,8.398272074962257472e-01,-1.430504501635723402e+00,-3.119909586577977387e-02,9.450956097404383804e-01,-1.603521834240313026e+00,-3.073521084877788717e-02,9.127889891324789673e-01,-1.564300995266195482e+00
-2.353861596676148221e-03,8.915237823975610265e-01,-1.498991191791559485e+00,-2.050093654256499032e-03,8.607958742918265793e-01,-1.465947360837899671e+00,-2.178644353036990680e-02,9.775897458587781141e-01,-1.652619590347373935e+00,-2.099162725699091347e-02,9.334805984212838359e-01,-1.598709154473011873e+00
1.435335414993856550e-02,9.235131968413907710e-01,-1.549864900435466986e+00,1.470662291253203510e-02,8.826915231946069751e-01,-1.504552549406595885e+00,-9.858230778062328920e-03,1.011319414759223045e+00,-1.704772863493160040e+00,-8.669352242345773618e-03,9.540269774027431149e-01,-1.634364030739516860e+00
3.369222279461058650e-02,9.573144733838101494e-01,-1.605498080166696484e+00,3.400303644182422341e-02,9.051842046998336277e-01,-1.546132401689921609e+00,4.520642102938961238e-03,1.045635719792333607e+00,-1.759338915175366447e+00,6.151492291423421577e-03,9.738637784291060973e-01,-1.670698651415255753e+00
5.544903660713058902e-02,9.924587929609197667e-01,-1.665559495734993289e+00,5.557778301635759449e-02,9.278537929722309174e-01,-1.590340469425777448e+00,2.127626009984839861e-02,1.079766173047756572e+00,-1.815573409733291621e+00,2.337351737718534189e-02,9.923603141665578997e-01,-1.707033137705618486e+00
7.938349438591874030e-02,1.028375585378368484e+00,-1.729605903813992818e+00,7.914030741297364835e-02,9.501665843472520967e-01,-1.636636186660951120e+00,4.036323548827719376e-02,1.112809416374365368e+00,-1.872631182145305662e+00,4.291858270189974345e-02,1.008797448029053800e+00,-1.742535706208506951e+00
1.052764912235369110e-01,1.064382645853690468e+00,-1.797059072117090262e+00,1.044217116654031080e-01,9.714538259996723379e-01,-1.684204648598072840e+00,6.183973044703963001e-02,1.143735660042074276e+00,-1.929562159541017730e+00,6.479815085533102703e-02,1.022380123328271884e+00,-1.776190702879492767e+00
1.329612718016314199e-01,1.099657291644862145e+00,-1.867164986799075388e+00,1.312104717355084826e-01,9.908794888300487269e-01,-1.731879127430699494e+00,8.591497007843082456e-02,1.171367194202799666e+00,-1.985276752081176932e+00,8.915361744618904849e-02,1.032223200921778217e+00,-1.806739292869408597e+00
1.623440648908316408e-01,1.133183939861085010e+00,-1.938909989083321461e+00,1.593814558093676892e-01,1.007395960878181951e+00,-1.778020631790149020e+00,1.129889158032666707e-01,1.194357310242703418e+00,-2.038483862542302294e+00,1.162860114582637272e-01,1.037335560719050864e+00,-1.832593996405457615e+00
1.933336219521941679e-01,1.163669257373408872e+00,-2.010836920466291922e+00,1.888477301294288202e-01,1.019695932940505978e+00,-1.820331605106104922e+00,1.435872794524071794e-01,1.211196333465978547e+00,-2.087587935859242627e+00,1.465868034726304503e-01,1.036624742492570750e+00,-1.851733355345894561e+00
2.256193201404623483e-01,1.189386911299401106e+00,-2.080718343634970768e+00,2.193944873109214544e-01,1.026130628077805529e+00,-1.855558641227930128e+00,1.781330225474918316e-01,1.220202726468633259e+00,-2.130479161872822935e+00,1.803285216453507644e-01,1.028875811162797804e+00,-1.861512319588043640e+00
2.579158339875454731e-01,1.207898459345830178e+00,-2.144889871143896176e+00,2.500776542809883818e-01,1.024588750761848521e+00,-1.878988164433536001e+00,2.161581111854225246e-01,1.219498761859172831e+00,-2.164100196774866980e+00,2.169837333439356419e-01,1.012731395861427686e+00,-1.858366637895681128e+00
2.856844732554889021e-01,1.215580321265036901e+00,-2.196707196312453370e+00,2.773724645435907132e-01,1.012363127448422828e+00,-1.883395083578000229e+00,2.540344107730470591e-01,1.207038465866421939e+00,-2.183532773616997158e+00,2.533149704286398185e-01,9.868981614669836144e-01,-1.837463332049453335e+00
2.997017643198041092e-01,1.206967382215583307e+00,-2.223911140306354728e+00,2.941050078409983559e-01,9.852851370130820685e-01,-1.856554176710344395e+00,2.832642856668868836e-01,1.180432983423731486e+00,-2.180293102667168803e+00,2.821065063555028285e-01,9.496288325659436591e-01,-1.791036813985208198e+00
2.898763795103159180e-01,1.173291471746860104e+00,-2.204630614557189450e+00,2.920574942720552403e-01,9.347673623975628621e-01,-1.776819555884465940e+00,2.926177767560829146e-01,1.134804013489549623e+00,-2.138259797584498134e+00,2.939528591261313939e-01,8.949449714983416238e-01,-1.702576696018903935e+00
2.579421396985380199e-01,1.102637345486967124e+00,-2.106608521093645603e+00,2.707185845602608776e-01,8.446316040201444775e-01,-1.610218163838684768e+00,2.781794636296111567e-01,1.059600236107766547e+00,-2.028770905942905767e+00,2.849679426136289551e-01,8.060039656795493501e-01,-1.537265582118974017e+00
-1.654290035991499430e-01,9.313776448038827427e-01,-2.420519209306356334e+00,6.307932084945243323e-02,1.074950939704383712e+00,-1.923995696486153539e+00,-3.237892635926086227e-01,1.412412939969748926e+00,-2.342666445381304641e+00,6.477011596768990354e-02,1.073003869288203571e+00,-1.851047428770388859e+00
-6.292239077868130859e-02,1.127149499376566277e+00,-2.353376019440740485e+00,3.397111305378536228e-02,1.231144044591839570e+00,-2.208381825792655739e+00,-1.027830637861085333e-01,1.273608963008341588e+00,-2.341755342968974585e+00,2.912310281179383495e-02,1.224795142839235407e+00,-2.161812272156887982e+00
1.183173190921688739e-02,1.250805071291981596e+00,-2.267052102791974111e+00,2.185925789502380593e-03,1.248005407290646795e+00,-2.300616126609895673e+00,4.457874341183038630e-02,1.174898631240588465e+00,-2.288046806160624058e+00,4.105345256759845851e-03,1.237941221318847873e+00,-2.279251712004505048e+00
1.581985562062595066e-02,1.244104140751965959e+00,-2.256299137750865214e+00,-3.450011673015005928e-03,1.214149405551531613e+00,-2.288858716940589400e+00,3.441817734336420631e-02,1.184818644158852186e+00,-2.266535936037928245e+00,5.315133021394349497e-03,1.209073579033354884e+00,-2.276875977812844010e+00
-2.670945851907202857e-03,1.203894925768734803e+00,-2.287272337563448943e+00,4.715943606538217439e-03,1.199706422271154205e+00,-2.269765451988806859e+00,-1.088376002557320775e-02,1.227546435731871721e+00,-2.277000275398442408e+00,1.542645860492956010e-02,1.201112477354481012e+00,-2.261749444514285834e+00
-1.166535711400313452e-02,1.195720717351775209e+00,-2.307314376472543227e+00,4.995058923024073977e-03,1.212649042527330634e+00,-2.274396038447715984e+00,-2.750624632597526570e-02,1.246097982829894368e+00,-2.290971369466493268e+00,1.431949349557959036e-02,1.215651873064421240e+00,-2.271201693405765720e+00
-1.012815705073382040e-02,1.214232646315352770e+00,-2.297575137488423014e+00,-4.395609024159157288e-03,1.230785809243124085e+00,-2.288801864450825452e+00,-1.897005717497242394e-02,1.233902460870985651e+00,-2.290109251975918969e+00,3.432051089018447760e-03,1.231940011563856352e+00,-2.291815567757448324e+00
-7.070268287299671245e-03,1.229983274838158946e+00,-2.270773254920458673e+00,-1.304019061937031210e-02,1.236323879298435680e+00,-2.292765211210063381e+00,-4.878263300734885649e-03,1.212221749975359586e+00,-2.276412178117220186e+00,-5.553052016795632755e-03,1.237482858463311741e+00,-2.301957335103268942e+00
-6.140119728638924676e-03,1.228605922134116790e+00,-2.248829856543520300e+00,-1.399064536172572003e-02,1.227892196761974253e+00,-2.280637332771031200e+00,5.368172550669824024e-03,1.201220635229718559e+00,-2.263073987912664897e+00,-6.306655675451565760e-03,1.232684612049260942e+00,-2.294615947254864619e+00
-5.402486660812012495e-03,1.216874352926961445e+00,-2.245339692342630755e+00,-9.812500738915177351e-03,1.215281447569384499e+00,-2.261553092535563358e+00,1.181934726114393722e-02,1.206515146904913793e+00,-2.261503919750224245e+00,-2.097303654456981678e-03,1.224102228706112516e+00,-2.278252267568262823e+00
-2.777141688726659369e-03,1.208791714631762604e+00,-2.259866535445596014e+00,-6.748364061222742773e-03,1.208747355503525522e+00,-2.249980262542613296e+00,1.590292852207672580e-02,1.221487079050932678e+00,-2.273526696664958546e+00,1.673964372986900921e-03,1.218074018382369061e+00,-2.266975086603042921e+00
-2.292285843361061351e-04,1.211435244148802326e+00,-2.281090632769598336e+00,-6.974743123916681865e-03,1.212144893992674666e+00,-2.255757162556016215e+00,1.584077186484588243e-02,1.235684779853095883e+00,-2.290715300957803624e+00,3.534171550528935387e-03,1.218927526365378711e+00,-2.270250990840243066e+00
-2.143883122086766117e-03,1.219955466363442431e+00,-2.294417523233665435e+00,-7.286645463675334687e-03,1.222042359701143610e+00,-2.277580196113284217e+00,7.776824630397052157e-03,1.240268173050576239e+00,-2.299904889478642911e+00,6.386424246337987255e-03,1.228335735621024494e+00,-2.286679036454093428e+00
-8.661201704967608911e-03,1.224098154395389271e+00,-2.291112587895562047e+00,-2.017774860842390383e-03,1.231296539021190961e+00,-2.301277695314182470e+00,-5.896597668340530438e-03,1.232396737715394153e+00,-2.293534722209064736e+00,1.257431226632632973e-02,1.242064131301238827e+00,-2.304297353677381643e+00
-1.280592072515038954e-02,1.218591913295876461e+00,-2.276937924091422705e+00,5.041409356124429593e-03,1.234069628806791386e+00,-2.307130246471441382e+00,-1.407555672999683677e-02,1.216634527921951259e+00,-2.278710466997822426e+00,1.597635028808334218e-02,1.248299109338905755e+00,-2.307904301398006286e+00
-6.503562045967646414e-03,1.211800506698916147e+00,-2.271813175553615061e+00,-1.052223458780224448e-03,1.230372555036639337e+00,-2.286111593484030813e+00,-4.479016307358986079e-03,1.206644469393521213e+00,-2.276138537617042878e+00,2.460441081244009627e-03,1.235015857211251955e+00,-2.292407425191572035e+00
6.144265030855488620e-03,1.220728961660631384e+00,-2.290632599959689930e+00,-2.710043094827314925e-02,1.225953086754520527e+00,-2.258030727824278827e+00,1.728646966896596124e-02,1.218525158892719285e+00,-2.298481117132850304e+00,-2.750848095284093298e-02,1.208610249646850043e+00,-2.274163954817011835e+00
2.210535364142821382e-03,1.246151066972113863e+00,-2.305315809137438610e+00,-3.656178783588798220e-02,1.225119560541997110e+00,-2.271918625381406542e+00,1.738019991088472424e-02,1.248202450476231462e+00,-2.311171954107484439e+00,-2.376391917140429147e-02,1.209189021308040290e+00,-2.285450890102047161e+00
-3.431415725923606802e-02,1.239967976338808064e+00,-2.221255721864567878e+00,5.491112622016162265e-02,1.219670982035464091e+00,-2.361139294800395305e+00,-3.156980098594572293e-02,1.242425747343185671e+00,-2.212732933436228677e+00,1.072632925187745195e-01,1.284077006777809782e+00,-2.335172379116701169e+00
-6.632603757613660111e-02,1.115504016143281651e+00,-1.947052175710619615e+00,2.264181418066665008e-01,1.188386412256183355e+00,-2.438949418831617422e+00,-9.173400256064172253e-02,1.112170879410471880e+00,-1.916679338324640325e+00,3.044824892189492149e-01,1.367005251563124135e+00,-2.340350985783781645e+00
-1.250520099106871008e-01,8.810306869063276869e-01,-1.633348515259440026e+00,-8.829534375999127660e-02,1.099112351472053106e+00,-2.125026694531322757e+00,-1.858781358735198119e-01,8.628940213530834624e-01,-1.602869467681448112e+00,-1.720846372130191981e-01,1.044419964100123943e+00,-2.026490511788595406e+00
-3.025920014774058919e-01,9.900204594108938938e-01,-1.808590599200120996e+00,-2.932120033344236543e-01,1.196536031336827177e+00,-2.286784227092229838e+00,-3.773345791572484398e-01,9.816367695004450944e-01,-1.797593311349868106e+00,-3.988189555549628285e-01,1.138072157955084540e+00,-2.186542515886965798e+00
-3.865660500998558957e-01,1.053490502243114690e+00,-1.916547341126804138e+00,-4.052333897708295662e-01,1.240927604388190275e+00,-2.349450183963991190e+00,-4.609682852056239954e-01,1.044182468630089566e+00,-1.904011663404916233e+00,-5.082508146178541519e-01,1.180093969873778459e+00,-2.247947869650266828e+00
-3.576718466457148859e-01,1.092689002350097027e+00,-1.977071372298319973e+00,-3.794585950389254281e-01,1.250494971424701562e+00,-2.339115597385179601e+00,-4.248254406842016939e-01,1.084652049908015892e+00,-1.966186969792857120e+00,-4.679232757708465806e-01,1.196096699061873103e+00,-2.250117041468557399e+00
-2.790568770907572160e-01,1.113354296988563030e+00,-1.998253514246543627e+00,-2.920889805097118264e-01,1.237701099920766046e+00,-2.285874571805763367e+00,-3.376728030241988865e-01,1.112431744616702023e+00,-1.998696706230997933e+00,-3.650804074279953571e-01,1.196789574901403919e+00,-2.219750626943582272e+00
-2.023031223014975510e-01,1.118311737837902609e+00,-1.989306213441039750e+00,-2.085375566055646668e-01,1.213174350234587529e+00,-2.212674169043712169e+00,-2.520031273913197478e-01,1.128057861475300072e+00,-2.006868565467510912e+00,-2.672536091102022393e-01,1.189170647966307115e+00,-2.174318743011044663e+00
-1.475782552406614545e-01,1.110115302775922297e+00,-1.958340577150046169e+00,-1.508311626327633603e-01,1.183478299551803836e+00,-2.133078051716528201e+00,-1.881875136046220476e-01,1.131349286687973965e+00,-1.994538925362762116e+00,-1.968738429434228332e-01,1.176924794199938784e+00,-2.123286347072589564e+00
-1.151534673491920735e-01,1.092090218732919560e+00,-1.912363648946851402e+00,-1.174612364762321198e-01,1.151689316016579978e+00,-2.053096650693806868e+00,-1.470493424420259154e-01,1.124306853763680891e+00,-1.966821312742198735e+00,-1.526316085341197226e-01,1.161667368321300353e+00,-2.070613340679872127e+00
-9.800527558729854594e-02,1.067577430615312295e+00,-1.857337574649807310e+00,-1.000999863796998984e-01,1.118907407424395650e+00,-1.974808737149474025e+00,-1.220366727884609481e-01,1.109724412189851073e+00,-1.928868683467927836e+00,-1.261448178971497636e-01,1.143817189366670206e+00,-2.017384804844939428e+00
-8.868284797203609959e-02,1.039318635210500386e+00,-1.797908777796593416e+00,-9.073529865946379502e-02,1.085467904935946581e+00,-1.898754181456014933e+00,-1.059075637751403787e-01,1.090138889955001966e+00,-1.884914634212038642e+00,-1.092150399195062210e-01,1.123432652922449648e+00,-1.963700403243208603e+00
-8.189250777606738030e-02,1.009306007184486598e+00,-1.737400827122126401e+00,-8.387916428325391249e-02,1.051567550662847239e+00,-1.825126326256837572e+00,-9.339711457305054088e-02,1.067488887574387979e+00,-1.838047404009146346e+00,-9.615901302116058869e-02,1.100644381731765709e+00,-1.909601148863188769e+00
-7.480160332078797381e-02,9.788752952116527295e-01,-1.678038785033646896e+00,-7.665508180735441934e-02,1.017494500957563330e+00,-1.754206703516617338e+00,-8.159271371881328394e-02,1.043116553324070273e+00,-1.790349488215270624e+00,-8.390711556278088179e-02,1.075793650326935635e+00,-1.855374354603783305e+00
-6.641923257300647032e-02,9.488841761311459511e-01,-1.621235009766048174e+00,-6.808894697754269698e-02,9.836493640887122858e-01,-1.686440357465870177e+00,-6.938522788146547771e-02,1.017917822832358432e+00,-1.743165412479014131e+00,-7.131033219405130685e-02,1.049393563169698895e+00,-1.801547611975640173e+00
-5.683276040018785114e-02,9.198789896675749755e-01,-1.567845487095044010e+00,-5.830321403752860426e-02,9.504932361354954118e-01,-1.622372284832073630e+00,-5.674790212274193058e-02,9.925050963927287695e-01,-1.697358319360945611e+00,-5.834534851805744243e-02,1.022042293316771211e+00,-1.748784333958106396e+00
-4.661381928908205075e-02,8.922172989106191832e-01,-1.518371450613458684e+00,-4.790070742097538026e-02,9.184921576533132681e-01,-1.562562794090774920e+00,-4.415327934734943061e-02,9.673248025124211447e-01,-1.653501892081417068e+00,-4.549439667730412196e-02,9.943501888144088419e-01,-1.697783039429763274e+00
-3.644751294768476535e-02,8.661427560800778469e-01,-1.473095295345272282e+00,-3.758496586219242652e-02,8.880766420017579543e-01,-1.507508237969894527e+00,-3.218799431551298829e-02,9.427246857853799344e-01,-1.612000654243422426e+00,-3.334532176799814840e-02,9.669006364596731684e-01,-1.649208676404161578e+00
-2.692395774118919172e-02,8.418322205934052338e-01,-1.432161288538877253e+00,-2.795146219867625237e-02,8.596109689898836503e-01,-1.457596546040541563e+00,-2.135473224006766840e-02,9.190009160421569456e-01,-1.573166965811889639e+00,-2.239229147907046552e-02,9.402129288047245126e-01,-1.603642471732897201e+00
-1.846671231620328549e-02,8.194164000121229030e-01,-1.395609957891826181e+00,-1.942023889132246314e-02,8.333799561313118831e-01,-1.413079542372962738e+00,-1.200263615133357470e-02,8.964215218595472656e-01,-1.537257799245120182e+00,-1.297027971593923100e-02,9.147332685104250238e-01,-1.561563027409204718e+00
-1.132201660754987918e-02,7.989856543120300580e-01,-1.363404156743659001e+00,-1.222975748698245171e-02,8.095822475486107450e-01,-1.374060531109513539e+00,-4.308222854706810975e-03,8.752234839732780936e-01,-1.504483700814714053e+00,-5.240370253474197632e-03,8.908296506007301607e-01,-1.523335836588012304e+00
-5.591534551605779717e-03,7.805905495805538497e-01,-1.335433922514546845e+00,-6.473153295167127438e-03,7.883319011414727795e-01,-1.340501656905158656e+00,1.687307318917041950e-03,8.556118216777404140e-01,-1.475008715495084832e+00,7.696964829015592868e-04,8.687913521413428430e-01,-1.489214926538826145e+00
-1.267092645195700730e-03,7.642407353355228361e-01,-1.311524044763616281e+00,-2.134884162243033331e-03,7.696630066392552427e-01,-1.312233219000611850e+00,6.047027687517572345e-03,8.377523390403269765e-01,-1.448944896260432325e+00,5.133152524411360891e-03,8.488322311082460159e-01,-1.459346804247266149e+00
1.739935289604730567e-03,7.499084669415002624e-01,-1.291444549489557669e+00,8.791302646085795078e-04,7.535384755027463299e-01,-1.288973137060844154e+00,8.907384794713552739e-03,8.217713409658119472e-01,-1.426353415305831041e+00,7.993116572516924256e-03,8.310951258479866155e-01,-1.433778763029320613e+00
3.561032306574734782e-03,7.375305983038182855e-01,-1.274917568930069134e+00,2.703897113244345569e-03,7.398632430697417162e-01,-1.270351214069171952e+00,1.044205206202516480e-02,8.077539759658013407e-01,-1.407242627110261379e+00,9.526995490989249166e-03,8.156617135353173564e-01,-1.412473696070194462e+00
4.367232518342458771e-03,7.270187130980896306e-01,-1.261642145782923663e+00,3.512386095648598570e-03,7.284951768758458623e-01,-1.255933207895221226e+00,1.086001005806420602e-02,7.957472418823376969e-01,-1.391577582078172837e+00,9.945302825237447436e-03,8.025564113772445385e-01,-1.395318323527764637e+00
4.339034925250294210e-03,7.182657287590247241e-01,-1.251304006590639561e+00,3.485904153602786479e-03,7.192632928391197167e-01,-1.245253330651548751e+00,1.037476940319800867e-02,7.857658832646522429e-01,-1.379286610194407681e+00,9.461684401980748754e-03,7.917611397471676637e-01,-1.382146522658259213e+00
3.659991068866198793e-03,7.111564289061675925e-01,-1.243591118766848247e+00,2.808120645271429926e-03,7.119820007806670903e-01,-1.237840341463413818e+00,9.195884086396939605e-03,7.778029931528600560e-01,-1.370275422931406695e+00,8.285073878303135519e-03,7.832261932779146507e-01,-1.372757026120192014e+00
2.512864489213188258e-03,7.055768590800230999e-01,-1.238215321379330991e+00,1.661590388593380679e-03,7.064635457286526643e-01,-1.233244873865787072e+00,7.525826111595134392e-03,7.718342591489297799e-01,-1.364438078376605690e+00,6.617054262358610349e-03,7.768767149552685547e-01,-1.366927971423887112e+00
1.063173216098610950e-03,7.014217134629989747e-01,-1.234920518790235677e+00,2.115841513707448357e-04,7.025341077497557762e-01,-1.231057815740885575e+00,5.548888825646182583e-03,7.678279006968475873e-01,-1.361669292335222270e+00,4.641124116140000339e-03,7.726345231042940354e-01,-1.364444446063255212e+00
-5.447359395134862906e-04,6.985997619893778987e-01,-1.233493613320521876e+00,-1.397711087345184303e-03,7.000412446663650812e-01,-1.230931169420883320e+00,3.423377704196654998e-03,7.657481386510165411e-01,-1.361871034964109439e+00,2.515033262677513273e-03,7.704197824248976145e-01,-1.365107924586900001e+00
-2.182537897647277274e-03,6.970380423388111701e-01,-1.233777292163700690e+00,-3.037981573088944717e-03,6.988572297338430106e-01,-1.232587590371924779e+00,1.288600310927280439e-03,7.655551048807619496e-01,-1.364956985301621684e+00,3.778192714185540230e-04,7.701516179451194377e-01,-1.368740159701563597e+00
-3.747101712617350189e-03,6.966795261847456011e-01,-1.235680461236155825e+00,-4.605965353581445432e-03,6.988807816808345619e-01,-1.235837827552494383e+00,-7.433277186336090074e-04,7.671917270886616791e-01,-1.370842616121502822e+00,-1.658397125797259584e-03,7.717397493647198958e-01,-1.375181378530963672e+00
-5.154181591402046125e-03,6.974822251871978240e-01,-1.239177719524379384e+00,-6.017190399435357571e-03,7.000333758507640836e-01,-1.240578607098929753e+00,-2.583464715566342884e-03,7.705824180314184702e-01,-1.379443824512140315e+00,-3.504476183199276788e-03,7.750789283351409154e-01,-1.384284695593146930e+00
-6.348402597754912793e-03,6.994123314825023696e-01,-1.244317303002996811e+00,-7.216031195589785174e-03,7.022564901456580522e-01,-1.246804926521570822e+00,-4.173192753063444116e-03,7.756122619267359353e-01,-1.390659165966497968e+00,-5.101489542621360021e-03,7.800345454777248833e-01,-1.395906786784055775e+00
-7.291245341795999507e-03,7.024351746426685805e-01,-1.251224307526021429e+00,-8.163744158029126799e-03,7.054978520711474577e-01,-1.254604543499895808e+00,-5.472087371392794601e-03,7.821058749352147732e-01,-1.404351246159079691e+00,-6.408662280586362170e-03,7.864173803212691771e-01,-1.409881736732089053e+00
-7.960085650825374920e-03,7.065060664126044943e-01,-1.260096508643275603e+00,-8.837554287634885597e-03,7.097013946288273090e-01,-1.264154811912076015e+00,-6.458836762861458816e-03,7.898120741046372739e-01,-1.420332228540461594e+00,-7.404351633383830615e-03,7.939658909687418165e-01,-1.426004877572396135e+00
-8.357482048753788612e-03,7.115554305911058197e-01,-1.271196201944599480e+00,-9.239989833057370150e-03,7.147968221392679844e-01,-1.275714515861588128e+00,-7.134261306792007845e-03,7.983801503827878676e-01,-1.438341095824498206e+00,-8.089101754084946846e-03,8.023316569343666993e-01,-1.444018314295344885e+00
-8.485091157889253916e-03,7.174808197804957155e-01,-1.284835108152591276e+00,-9.372761604136893576e-03,7.206807838606028582e-01,-1.289597686646991814e+00,-7.502312878730675594e-03,8.073579134804428348e-01,-1.458041060237207809e+00,-8.466629764293154628e-03,8.110612668174185247e-01,-1.463587956330992812e+00
-8.368707534873105411e-03,7.241296754557541293e-01,-1.301346196547416678e+00,-9.261852348278188513e-03,7.272095689611307590e-01,-1.306156604779879160e+00,-7.589678167721734814e-03,8.161803808591793219e-01,-1.479003134755749516e+00,-8.563460417156856103e-03,8.195983204633918717e-01,-1.484303891305713385e+00
-8.031492740513433010e-03,7.312933286819736090e-01,-1.321048658428368716e+00,-8.930670514709256047e-03,7.341827324565304291e-01,-1.325733389876485813e+00,-7.423928747459141234e-03,8.241896430872103219e-01,-1.500716753575267681e+00,-8.407019196873590297e-03,8.272894404334276697e-01,-1.505671687711706230e+00
-7.486018505889531320e-03,7.387020653150550009e-01,-1.344198749556936523e+00,-8.392049388874955190e-03,7.413366592368030306e-01,-1.348600404866488356e+00,-7.020227972551721859e-03,8.306677320809268128e-01,-1.522604593104755599e+00,-8.012291861682951932e-03,8.334200163717230270e-01,-1.527124491104121518e+00
-6.730698178002391709e-03,7.460221297768897530e-01,-1.370934270205955041e+00,-7.644660842630577463e-03,7.483405518742980433e-01,-1.374904276833585515e+00,-6.379311587332493760e-03,8.348765725981215358e-01,-1.544035009064833819e+00,-7.379803839514543704e-03,8.372518126982049225e-01,-1.548032622898900534e+00
-5.752702249600601635e-03,7.528617293860493387e-01,-1.401192789708555875e+00,-6.675926652057047675e-03,7.548037441636824552e-01,-1.404587241166743050e+00,-5.491510634120404417e-03,8.361299571737350611e-01,-1.564346733348979335e+00,-6.499680494355032472e-03,8.380951856345013606e-01,-1.567729435281115968e+00
-4.537123796082600559e-03,7.587801422743507551e-01,-1.434622250620285921e+00,-5.471182407743440355e-03,7.602887745897359828e-01,-1.437301188229822779e+00,-4.343556263316192788e-03,8.338645515106808404e-01,-1.582858318151267873e+00,-5.358497751773607168e-03,8.353856345734363975e-01,-1.585527013827391807e+00
-3.085211155769720069e-03,7.633047784939619440e-01,-1.470429009421646116e+00,-4.031868615428376747e-03,7.643322183670310244e-01,-1.472270987487553029e+00,-2.943233727983754402e-03,8.277422613075329227e-01,-1.598868173040195906e+00,-3.963990417747286985e-03,8.287849705768954856e-01,-1.600722879396439202e+00
-1.462066522207690431e-03,7.659156987018974627e-01,-1.507151797430166029e+00,-2.423079891426727864e-03,7.664433214513105552e-01,-1.508086008575938219e+00,-1.359167803118861012e-03,8.176843829002932162e-01,-1.611538102145960938e+00,-2.384760790823069448e-03,8.182355158206313650e-01,-1.612512234071899586e+00
1.478038046341738051e-04,7.659391870228511312e-01,-1.542206758568273939e+00,-8.286347730746032158e-04,7.660069484421873076e-01,-1.542273259509896688e+00,2.200951245163571988e-04,8.037808631485335864e-01,-1.619521316504845210e+00,-8.089738814048475944e-04,8.038770857279701199e-01,-1.619642408402180100e+00
1.332986500305233203e-03,7.623331708275966623e-01,-1.570537642169255621e+00,3.426209594633194185e-04,7.620888802011404062e-01,-1.569996957732415099e+00,1.380027814396644122e-03,7.863476501177060207e-01,-1.620271209581461092e+00,3.503386709611919399e-04,7.861273231666716654e-01,-1.619777484101457166e+00
1.394257203415144412e-03,7.525954827538087200e-01,-1.581824023060337536e+00,3.977676306599242282e-04,7.523497576435946854e-01,-1.581295444521507054e+00,1.419272896074918111e-03,7.647926439295569256e-01,-1.607373818011261557e+00,3.959985946096498195e-04,7.645575625828203714e-01,-1.606866309936371806e+00
7.190851838214924827e-04,6.998913074192335548e-01,-1.501179812301263627e+00,-7.190851798597344777e-04,6.998913074194081929e-01,-1.501179812301699723e+00,7.288015338421288724e-04,6.998899144227928026e-01,-1.501195691050242420e+00,-7.288015292092225091e-04,6.998899144225403379e-01,-1.501195691050888348e+00
0.000000000000000000e+00,6.999999999999999556e-01,-1.500000000000000000e+00,0.000000000000000000e+00,6.999999999999999556e-01,-1.500000000000000000e+00,0.000000000000000000e+00,6.999999999999999556e-01,-1.500000000000000000e+00,0.000000000000000000e+00,6.999999999999999556e-01,-1.500000000000000000e+00
