yusongmin1/go2_flip_TO/datasets/go2/trajectories/quad_sideflip/joints_only.csv
FL_hip_joint,FL_thigh_joint,FL_calf_joint,FR_hip_joint,FR_thigh_joint,FR_calf_joint,RL_hip_joint,RL_thigh_joint,RL_calf_joint,RR_hip_joint,RR_thigh_joint,RR_calf_joint
0.000000000000000000e+00,6.999999999999999556e-01,-1.500000000000000000e+00,0.000000000000000000e+00,6.999999999999999556e-01,-1.500000000000000000e+00,0.000000000000000000e+00,6.999999999999999556e-01,-1.500000000000000000e+00,0.000000000000000000e+00,6.999999999999999556e-01,-1.500000000000000000e+00
-2.463833133959963690e-03,8.352939906504441847e-01,-1.760693982771778243e+00,-2.464857279683487293e-03,8.359103148271914696e-01,-1.761813484385026163e+00,-2.345630438005542016e-03,8.424328859445275874e-01,-1.775871263740315120e+00,-2.346578903898652313e-03,8.431103952801782819e-01,-1.777120338092308405e+00
-4.375155429486148398e-03,8.420366618944612469e-01,-1.754045212417095101e+00,-4.378287139335986129e-03,8.432151775906354674e-01,-1.755834097742642763e+00,-3.937017406385621456e-03,8.536871519361283189e-01,-1.778559241518602008e+00,-3.939655102181963651e-03,8.551021683364038450e-01,-1.780835962016350971e+00
-4.987922403052529388e-03,8.415404117352658364e-01,-1.720022827651666475e+00,-4.991604240018074172e-03,8.430218192676742772e-01,-1.721681640526387946e+00,-4.071175051778958519e-03,8.627730459752055436e-01,-1.763967723986704206e+00,-4.073766199888316335e-03,8.647763547089037939e-01,-1.766661328602961101e+00
-4.317581090951599573e-03,8.374006450102976506e-01,-1.674206913240410044e+00,-4.319472970220299482e-03,8.388593598547335883e-01,-1.674931994086101383e+00,-2.806812215888666862e-03,8.709325310369131490e-01,-1.742409601746348180e+00,-2.807362234354525681e-03,8.733107532516372062e-01,-1.744884784314425730e+00
-2.845734460556629229e-03,8.307055707765400587e-01,-1.623995570463538041e+00,-2.844817078100344253e-03,8.318805111233945615e-01,-1.623220277702222436e+00,-6.647885508825921797e-04,8.773674324920002210e-01,-1.717419196944984794e+00,-6.630807863570211931e-04,8.799630702876690691e-01,-1.719258872519233705e+00
-1.191566094419669588e-03,8.219599489557208871e-01,-1.573185928979074388e+00,-1.188097414767407423e-03,8.227316617273147115e-01,-1.570682513120488899e+00,1.700331321153292132e-03,8.812370795550568126e-01,-1.690312329378818257e+00,1.703179451092990630e-03,8.840104759266620427e-01,-1.691405096618665116e+00
1.330178251152758315e-04,8.115701772346589626e-01,-1.523940383860416414e+00,1.386339180831114726e-04,8.119681737184110126e-01,-1.519792493074364259e+00,3.746823008922548284e-03,8.820191077598216189e-01,-1.661696650052148394e+00,3.749959413689450509e-03,8.850464902257956235e-01,-1.662195607828935495e+00
8.348529281907363705e-04,7.999788752343806042e-01,-1.477582159180178101e+00,8.427350161143082937e-04,8.001397609497618024e-01,-1.472081582856575199e+00,5.159322744660825230e-03,8.795940042108743029e-01,-1.632040693687285771e+00,5.163050820901318033e-03,8.830253353884075507e-01,-1.632257938238800499e+00
8.098177927923174736e-04,7.876645462714904067e-01,-1.434934848276248953e+00,8.204791465357427847e-04,7.877805913471612742e-01,-1.428480265075671607e+00,5.816017772264018074e-03,8.741833880558663727e-01,-1.601835825268233204e+00,5.821598996861007680e-03,8.781942314319268750e-01,-1.602144692898080702e+00
7.569093068643395483e-05,7.751054153939650471e-01,-1.396474797613795671e+00,8.955904439639922332e-05,7.753832463078277337e-01,-1.389501684665339631e+00,5.717265416406451875e-03,8.662498439599292110e-01,-1.571613422361276324e+00,5.726216061740020333e-03,8.710032286260424028e-01,-1.572382231235380123e+00
-1.297532583149817609e-03,7.627437812693811381e-01,-1.362407489522727166e+00,-1.280527897426557166e-03,7.633812345903495666e-01,-1.355347904595475494e+00,4.919278776791077661e-03,8.564034636910219378e-01,-1.541922980282200095e+00,4.932726527222737814e-03,8.620335134587410186e-01,-1.543484752414537864e+00
-3.222761630137259414e-03,7.509614845835024255e-01,-1.332724542731371420e+00,-3.203443467207018995e-03,7.521341707239015406e-01,-1.325988909005022087e+00,3.494457233170886537e-03,8.453209815981808095e-01,-1.513302169508248918e+00,3.512708159863689797e-03,8.519228793083011286e-01,-1.515940247169060617e+00
-5.635578949790248648e-03,7.400640988401884224e-01,-1.307243831193369621e+00,-5.615682706747268660e-03,7.419265339532985504e-01,-1.301232464713637071e+00,1.487836297358866890e-03,8.336818719235324915e-01,-1.486245136347019269e+00,1.510136432045851816e-03,8.413119166078575351e-01,-1.490200280403069177e+00
-8.497368888368977274e-03,7.302783577376485979e-01,-1.285657599399187889e+00,-8.479669005067143328e-03,7.329678829848327304e-01,-1.280773120111755814e+00,-1.084217285588180875e-03,8.221235153787851413e-01,-1.461185486892558894e+00,-1.059866965664538370e-03,8.308024339704078720e-01,-1.466664767588678586e+00
-1.179699960675776801e-02,7.217554984830671927e-01,-1.267584575979807893e+00,-1.178543864385884869e-02,7.253993194871165562e-01,-1.264241808520254029e+00,-4.230348891741023132e-03,8.112025765907628916e-01,-1.438478273641742300e+00,-4.207370543799801403e-03,8.209253023526891235e-01,-1.445667819170330493e+00
-1.554866353477503578e-02,7.145803509331141168e-01,-1.252614119590047759e+00,-1.554856161024004493e-02,7.193023798512766520e-01,-1.251252095212022297e+00,-7.984653074889422331e-03,8.013735119100119375e-01,-1.418389717680760498e+00,-7.968167899602604173e-03,8.121158761111939572e-01,-1.427465498931466348e+00
-1.977348110689370123e-02,7.087892641149048378e-01,-1.240352605494962512e+00,-1.979176172219224844e-02,7.147113395463202679e-01,-1.241435666389079984e+00,-1.238840180391446479e-02,7.929861233490460570e-01,-1.401104797881414177e+00,-1.238558556528610195e-02,8.047056618452530508e-01,-1.412233197899413373e+00
-2.448287363629218782e-02,7.043862602633313985e-01,-1.230454746171842917e+00,-2.452826444132586228e-02,7.116209572758456225e-01,-1.234467634994047991e+00,-1.748109202490071706e-02,7.862926068248417000e-01,-1.386738975954467934e+00,-1.750160947487190699e-02,7.989146821150556743e-01,-1.400061318515374520e+00
-2.967723551494755654e-02,7.013588132623120863e-01,-1.222648291221025030e+00,-2.976031210556942877e-02,7.100058499917657473e-01,-1.230079107517921377e+00,-2.328492733092745251e-02,7.814582238675633619e-01,-1.375351260074589410e+00,-2.334119319641647303e-02,7.948773298761891981e-01,-1.390977086275373420e+00
-3.532257038202611665e-02,6.996969841109057509e-01,-1.216755726234600710e+00,-3.545550115438074468e-02,7.098278937923869769e-01,-1.228060626947214518e+00,-2.978444054308567249e-02,7.785859358667823749e-01,-1.366973742495884991e+00,-2.989161690184522976e-02,7.926538808433960526e-01,-1.384954273036260286e+00
-4.133922088876275380e-02,6.994065284418834461e-01,-1.212694740103599678e+00,-4.153516522129958866e-02,7.110423369862169940e-01,-1.228268884905050928e+00,-3.692960806935639828e-02,7.777448530504526003e-01,-1.361638751209023779e+00,-3.710529922436994754e-02,7.922404777021112565e-01,-1.381926650130581802e+00
-4.761289973162723815e-02,7.005229329621216472e-01,-1.210476639436188551e+00,-4.788501049666678278e-02,7.136183352971692262e-01,-1.230621518731888075e+00,-4.463487428264774348e-02,7.789961549279127428e-01,-1.359398653423543157e+00,-4.489825092491437492e-02,7.936118565275651626e-01,-1.381822411371645964e+00
-5.399529309109511038e-02,7.031094766573362520e-01,-1.210204814459764355e+00,-5.435528967087807639e-02,7.175407892924602349e-01,-1.235086910147066952e+00,-5.276769995027152937e-02,7.823965989280073918e-01,-1.360335202784680009e+00,-5.313788811968910702e-02,7.967394633658166914e-01,-1.384584385993358424e+00
-6.029248035679339590e-02,7.072688200336260111e-01,-1.212064837750163715e+00,-6.074871469516711364e-02,7.228120459761597782e-01,-1.241672680677838869e+00,-6.114965562440678043e-02,7.880250919695026557e-01,-1.364576110135276021e+00,-6.164342267001117481e-02,8.015988227574228908e-01,-1.390169022367353513e+00
-6.626677596345656451e-02,7.131404983377058748e-01,-1.216327139488016851e+00,-6.682190988718310354e-02,7.294526246342128983e-01,-1.250424464949494885e+00,-6.955034032335608019e-02,7.959776676332427359e-01,-1.372293328962316927e+00,-7.017889690056830498e-02,8.081750763029212914e-01,-1.398554108491322445e+00
-7.163604917644669778e-02,7.208936688527337600e-01,-1.223323134147448643e+00,-7.228449392364838522e-02,7.374947703050698244e-01,-1.261430349956563557e+00,-7.770609785681371895e-02,8.063681560606498211e-01,-1.383693260168270767e+00,-7.847137233414960833e-02,8.164482562399727472e-01,-1.409729067607792485e+00
-7.609721271812973364e-02,7.307140095798484447e-01,-1.233433025218548362e+00,-7.682299993172889141e-02,7.469841477413508013e-01,-1.274791794562775582e+00,-8.530938965776833915e-02,8.193059961921255185e-01,-1.398988657226076793e+00,-8.619979749579105566e-02,8.264142054911520763e-01,-1.423699751268384883e+00
-7.930314673902488787e-02,7.427990142670723994e-01,-1.247068882363005615e+00,-8.007776346374982646e-02,7.579623366581930144e-01,-1.290620083971012688e+00,-9.201260376472046587e-02,8.348993442670447074e-01,-1.418395504853260158e+00,-9.299833951858722803e-02,8.380523103250897554e-01,-1.440459306258805361e+00
-8.089124003364028814e-02,7.573346680239178008e-01,-1.264655297646820165e+00,-8.167289893408813395e-02,7.704640254925224641e-01,-1.309034540481194497e+00,-9.743896340465962869e-02,8.532159227321471917e-01,-1.442086193259503935e+00,-9.846790497434450284e-02,8.513192259417430297e-01,-1.459979289695846338e+00
-8.048534850683522479e-02,7.744856319242242604e-01,-1.286601101373865630e+00,-8.121962089093677506e-02,7.845056668677959921e-01,-1.330148370628670973e+00,-1.011957335016333559e-01,8.742867658421588084e-01,-1.470187515283734259e+00,-1.021901833534709647e-01,8.661392750127828721e-01,-1.482200084647128380e+00
-7.772035595892115567e-02,7.943724368395630453e-01,-1.313261554975285517e+00,-7.834319411127918520e-02,8.000770411026026929e-01,-1.354061707436835960e+00,-1.028998149766445630e-01,8.980828779483890356e-01,-1.502744545735579251e+00,-1.037552694794107722e-01,8.823906225748151533e-01,-1.507015066599228348e+00
-7.227426177224968717e-02,8.170548448187366919e-01,-1.344931946034156445e+00,-7.271815168004112928e-02,8.171372528189738693e-01,-1.380863393216936963e+00,-1.021958113661519674e-01,9.244843065967909279e-01,-1.539692997738719260e+00,-1.027827392369033838e-01,8.998949753918095151e-01,-1.534261051120606290e+00
-6.389879715788529535e-02,8.425115286909674595e-01,-1.381829479289137463e+00,-6.410257208576454480e-02,8.356103305296546102e-01,-1.410594478132241480e+00,-9.874690579540812418e-02,9.532572560212249080e-01,-1.580843676362045480e+00,-9.891695717388263032e-02,9.184386479324992969e-01,-1.563725286099474809e+00
-5.239097146154582385e-02,8.706435831952411553e-01,-1.424060663695804196e+00,-5.231011951877476140e-02,8.553610851314368269e-01,-1.443274696862984152e+00,-9.229027591186665658e-02,9.840839179710095808e-01,-1.625903323480968332e+00,-9.188420495582741432e-02,9.377052426885014169e-01,-1.595103867419445320e+00
-3.763532101242915429e-02,9.012589893295562815e-01,-1.471626966645130263e+00,-3.725570983577637663e-02,8.762013975421677481e-01,-1.478852996345860538e+00,-8.260351090612350067e-02,1.016527499180768235e+00,-1.674455458030075006e+00,-8.146457920594167568e-02,9.573229954269305564e-01,-1.628021073435084620e+00
-1.960324087389694880e-02,9.340762997439370219e-01,-1.524410270960578018e+00,-1.895510119842534064e-02,8.978811419940101457e-01,-1.517199202515040035e+00,-6.952656050351188610e-02,1.050047508744590852e+00,-1.725975549354265670e+00,-6.751720343035019778e-02,9.768507531665413524e-01,-1.662015591792263214e+00
1.622812042989330364e-03,9.687112613874644396e-01,-1.582178584195786719e+00,2.451128706566413351e-03,9.200805268216414312e-01,-1.558083405557812107e+00,-5.295565202829211060e-02,1.083968386904600623e+00,-1.779818259021994642e+00,-4.997916949798983377e-02,9.957796606516451376e-01,-1.696534970860215097e+00
2.587507779675368713e-02,1.004682097750598802e+00,-1.644571904801708673e+00,2.672677483723545980e-02,9.423944344115932070e-01,-1.601133250071471448e+00,-3.282684622504478122e-02,1.117498211667014685e+00,-1.835236351226863238e+00,-2.885093653216794923e-02,1.013529354754186151e+00,-1.730915607327221162e+00
5.291176246358263169e-02,1.041405052389110075e+00,-1.711105425778279177e+00,5.355590720630477863e-02,9.643220581776353884e-01,-1.645789921675719247e+00,-9.076970748081697460e-03,1.149710828076349278e+00,-1.891369024077296235e+00,-4.161090671409420350e-03,1.029451002904950840e+00,-1.764358287702573413e+00
8.246153673895106895e-02,1.078186474492041746e+00,-1.781130585356617058e+00,8.259522151575410254e-02,9.852294376160077860e-01,-1.691262796110277522e+00,1.835255028753792622e-02,1.179560263325227787e+00,-1.947242159149817908e+00,2.403237607541545973e-02,1.042781533956584017e+00,-1.795873148064734082e+00
1.141984693183383387e-01,1.114181197520307975e+00,-1.853818786053898604e+00,1.134590969896374507e-01,1.004332527684580700e+00,-1.736432391525118746e+00,4.958073129300688553e-02,1.205822473126757055e+00,-2.001715638457985946e+00,5.569939680565219597e-02,1.052674015530197238e+00,-1.824250352632418082e+00
1.477637351323429493e-01,1.148353956742011128e+00,-1.928055462831602007e+00,1.457601893776396540e-01,1.020645263529055047e+00,-1.779731871479926841e+00,8.476557472609339006e-02,1.227122664219545189e+00,-2.053449020267154257e+00,9.082200739818323265e-02,1.058164170178668595e+00,-1.847971475753243054e+00
1.826676377789685779e-01,1.179369821545634744e+00,-2.002269034133846048e+00,1.790470284475575158e-01,1.032910210324668121e+00,-1.818966531374136109e+00,1.240116299039542846e-01,1.241907608367342375e+00,-2.100788526294546266e+00,1.293150113213980268e-01,1.058148145974368681e+00,-1.865100397129235033e+00
2.180429848720576158e-01,1.205428495234946107e+00,-2.074084268293829414e+00,2.126312994165902581e-01,1.039496069335092754e+00,-1.850999473100576331e+00,1.670820079952906323e-01,1.248465248783432680e+00,-2.141577740154656517e+00,1.707900264219510134e-01,1.051360770965258373e+00,-1.873100480637893472e+00
2.519042983833097993e-01,1.223960149968963851e+00,-2.139657766725988175e+00,2.450152018965561507e-01,1.038244645477880868e+00,-1.871235191096898509e+00,2.126004200705699509e-01,1.244911021546638796e+00,-2.172751640523465255e+00,2.139054697360034674e-01,1.036355749551347571e+00,-1.868548924764455776e+00
2.791124479245393752e-01,1.231083784056682839e+00,-2.192207893567293731e+00,2.722405169105069911e-01,1.026237968160611969e+00,-1.872684934980584748e+00,2.558672350604899171e-01,1.229115699183568333e+00,-2.189413671481924784e+00,2.545831684656805760e-01,1.011523634025208285e+00,-1.846676798861019764e+00
2.902996101904071757e-01,1.220944204396014365e+00,-2.219353249473068779e+00,2.870148912429497656e-01,9.989747831131972067e-01,-1.843531438489468322e+00,2.874278090663683338e-01,1.198551071554454728e+00,-2.183119359152301708e+00,2.849756643558987168e-01,9.746542199479417690e-01,-1.799731783383874850e+00
2.760441022299897629e-01,1.184772638853378801e+00,-2.199026003841896060e+00,2.814184688579846050e-01,9.478894246216638120e-01,-1.762633395050134277e+00,2.956418648827410789e-01,1.148905060743697915e+00,-2.138238480649977014e+00,2.954897165552480276e-01,9.200069972828238685e-01,-1.711837066134980434e+00
2.408600877068229063e-01,1.110419295951434515e+00,-2.098521639764292512e+00,2.569562764810185418e-01,8.557252429534890625e-01,-1.594868299714034210e+00,2.782723146753732224e-01,1.069438243851712933e+00,-2.025680067969263920e+00,2.837838298878695431e-01,8.295065789747695373e-01,-1.546614931837091422e+00
-1.742625918539379981e-01,9.280401710588725983e-01,-2.412203590890269034e+00,5.105989192396852283e-02,1.068703955311272269e+00,-1.907917122090773132e+00,-3.228052071513508592e-01,1.415576315881864833e+00,-2.339563133409539031e+00,7.052941513985643007e-02,1.082772043517595373e+00,-1.860411429599549971e+00
-7.614757957458047344e-02,1.108532548556771857e+00,-2.357119132601061651e+00,3.102629850593675159e-02,1.222856110136492980e+00,-2.192345820074288465e+00,-1.201770851496177656e-01,1.289395899932503697e+00,-2.343311160146325900e+00,4.112161979610313989e-02,1.232212225827457708e+00,-2.127794976260569459e+00
4.029311358862390155e-03,1.237769028561759743e+00,-2.274154009817357380e+00,2.753426679998675214e-03,1.243444902841349675e+00,-2.293309336547108668e+00,2.804346697642288305e-02,1.187014463611224313e+00,-2.294863266781022926e+00,1.079042772395323764e-02,1.245946927473603916e+00,-2.235340636640780421e+00
1.820787380564129268e-02,1.240365220734929386e+00,-2.258540356070109834e+00,-1.489649455269356076e-03,1.207118562573149978e+00,-2.289500412411521246e+00,2.673835093360003856e-02,1.184165803394451988e+00,-2.276627596583286284e+00,2.368385435065839886e-03,1.211689713232052101e+00,-2.237303866159532362e+00
7.063115670009344899e-03,1.199539916757740965e+00,-2.285173179655724862e+00,1.167606372887348976e-02,1.185186588182395973e+00,-2.272637243595763135e+00,-1.248776582008260735e-02,1.219548321620919751e+00,-2.289605509031316100e+00,7.402962770503730174e-03,1.193886186545603190e+00,-2.227352819181622756e+00
1.558441111024381348e-03,1.184407933223066145e+00,-2.305636319096642239e+00,2.053457180555749370e-02,1.193220202419372544e+00,-2.275060228918855731e+00,-2.614380247797366136e-02,1.239860392075520901e+00,-2.306522882223317694e+00,7.469003291445544881e-03,1.199600911711411699e+00,-2.240170057439617501e+00
5.242136548440154073e-03,1.199305332558144421e+00,-2.299316961973296269e+00,1.858277522302051801e-02,1.213646271482305083e+00,-2.286161305608566341e+00,-1.426542151944015444e-02,1.233141167537543437e+00,-2.308128296738107377e+00,6.406423682502005931e-04,1.211178547989658627e+00,-2.264635797831356712e+00
1.025177975323398986e-02,1.219591451032015161e+00,-2.275206185406172477e+00,1.187813183446301962e-02,1.227540859236642135e+00,-2.287914056800975704e+00,4.518412007536382405e-03,1.214335249743274447e+00,-2.294293091653087480e+00,-4.990131393051705846e-03,1.215944509932378237e+00,-2.280985509254531252e+00
1.137241662290305703e-02,1.228403203452514081e+00,-2.253064122470655573e+00,6.765665553838067989e-03,1.228950567648407821e+00,-2.275186601396333774e+00,1.843385970374227315e-02,1.201450488143248396e+00,-2.276810067443643781e+00,-4.281539480710056834e-03,1.212881991229903811e+00,-2.281982077191828218e+00
8.260582138843791319e-03,1.226361370942916862e+00,-2.246772957942028803e+00,3.640443964408299898e-03,1.223238035858336570e+00,-2.256752889582952282e+00,2.445731166081718810e-02,1.202124920386663298e+00,-2.267476765724856236e+00,5.776010497373727098e-04,1.207712028009267469e+00,-2.274509184775594051e+00
2.802538239364426101e-03,1.222369705077645197e+00,-2.257608907411890353e+00,4.388389938691072273e-04,1.218605442782814796e+00,-2.246356677839271843e+00,2.298866366281501067e-02,1.213004649002503266e+00,-2.270097307102057815e+00,5.558158892887526611e-03,1.206665041868964616e+00,-2.270922369900543192e+00
-3.967233830652758947e-03,1.222110833094198101e+00,-2.276181599923933430e+00,-2.448192587963813130e-03,1.219381047267943607e+00,-2.252841003140966691e+00,1.431004488639344742e-02,1.225443341116581042e+00,-2.279037794855703236e+00,8.969997296543031837e-03,1.213465692418620678e+00,-2.279287839062666521e+00
-1.179459340213552879e-02,1.223250199266115557e+00,-2.289444523323846958e+00,-2.385464626023790433e-03,1.224154270402658895e+00,-2.274031139444253835e+00,-1.365833585236484599e-03,1.230490778684146580e+00,-2.283908305016487894e+00,1.174008137366101476e-02,1.227821641278579623e+00,-2.297393164534463406e+00
-1.751085782221800669e-02,1.220395961546868469e+00,-2.289476192367299490e+00,3.503067028096112576e-03,1.228350740502347493e+00,-2.295955702557293865e+00,-1.781127048136188148e-02,1.224797723912620429e+00,-2.278883581985189366e+00,1.387015664372604103e-02,1.243497496139768899e+00,-2.313416004632581124e+00
-1.466190223889360204e-02,1.212466395440770839e+00,-2.281455422301810643e+00,9.292588532125436659e-03,1.228278495327524533e+00,-2.300896315957902782e+00,-2.346287803072224371e-02,1.212582730376111861e+00,-2.270382631726556077e+00,9.900005665297542667e-03,1.248614683793631386e+00,-2.313418271558921102e+00
4.839184260695059137e-04,1.208584252200754827e+00,-2.282531526445644943e+00,1.531498292662665864e-03,1.224711433946079175e+00,-2.282566955064257996e+00,-9.638322123019816071e-03,1.206645041296613874e+00,-2.275232584918748024e+00,-9.291998137432656499e-03,1.233849572142530215e+00,-2.294080010506371892e+00
1.909351183794550516e-02,1.221920528249299531e+00,-2.303316784599529932e+00,-2.188923254401804394e-02,1.221816873284642169e+00,-2.261173261652605682e+00,1.365289585428700048e-02,1.220518636838862525e+00,-2.300436227415367796e+00,-3.667715425492998338e-02,1.208252711645656952e+00,-2.272357042262301619e+00
1.782471989781223010e-02,1.247523557619993673e+00,-2.313367781083869534e+00,-2.231184030322597850e-02,1.220270471771235599e+00,-2.280854276619568299e+00,1.285621008533531680e-02,1.246938495839868377e+00,-2.308469700082398823e+00,-2.134496682127281358e-02,1.209636858823964101e+00,-2.278619841308315408e+00
-1.462977561910673921e-02,1.236231567715146973e+00,-2.222262668154787235e+00,7.703681499797902787e-02,1.209428468710091131e+00,-2.366756999193722510e+00,-3.321675330825682448e-02,1.233326275087698765e+00,-2.202606045755686637e+00,1.188621679490760585e-01,1.277388011386126010e+00,-2.319244607141353942e+00
-4.094382550043547397e-02,1.108784823230827943e+00,-1.948045158868680460e+00,2.432085029368229456e-01,1.172217471047946491e+00,-2.431647666712552169e+00,-8.325263720492462327e-02,1.098754938918880431e+00,-1.906064392804920571e+00,3.095013355515534026e-01,1.343634531233291129e+00,-2.314316922626395101e+00
-1.070944637872524585e-01,8.806430763175602250e-01,-1.634928154884886853e+00,-6.948271381701821847e-02,1.087624165270423937e+00,-2.117732946163987329e+00,-1.751900600819494835e-01,8.556940447047696185e-01,-1.592765904892984308e+00,-1.623082573223786351e-01,1.023134479395259033e+00,-2.000554263333347738e+00
-2.941894754422091918e-01,9.912890115152529491e-01,-1.805809077172856769e+00,-2.835854607196046095e-01,1.188518808314004582e+00,-2.279873920705956181e+00,-3.770976965611599896e-01,9.798636875175641414e-01,-1.790435759299578988e+00,-3.994167343443788543e-01,1.122502339520539349e+00,-2.166110853631667332e+00
-3.883656360443868971e-01,1.055210313728429439e+00,-1.909616162365244785e+00,-4.071293290059480596e-01,1.234748415135558330e+00,-2.343000010622144913e+00,-4.725884484807011954e-01,1.045041873273517830e+00,-1.896723457989331951e+00,-5.226037982631183132e-01,1.166718434927543457e+00,-2.229251987975007676e+00
-3.689754245913981490e-01,1.094379512209963989e+00,-1.966350832554499162e+00,-3.924342638889540824e-01,1.245516037478914484e+00,-2.334078333923589987e+00,-4.483712202576738970e-01,1.086971970104240848e+00,-1.957732703175963263e+00,-4.963476853060275196e-01,1.183384932282974811e+00,-2.232405658464053921e+00
-2.972563511780441647e-01,1.114705035302513414e+00,-1.985668776342492725e+00,-3.123614803971945797e-01,1.233335000289931038e+00,-2.283797254380051989e+00,-3.706814216399381134e-01,1.114506180985602946e+00,-1.988464257525727197e+00,-4.034777139049002814e-01,1.183077497165623493e+00,-2.202573340899653065e+00
-2.240192190031498609e-01,1.119096048379719432e+00,-1.976900662275718812e+00,-2.318354721234754667e-01,1.208811090594277271e+00,-2.214412565499866314e+00,-2.908056661704931933e-01,1.128374680815166675e+00,-1.994666778512612870e+00,-3.106482905314387200e-01,1.172911620464109683e+00,-2.156852315756851546e+00
-1.699793449847796234e-01,1.110238350033398103e+00,-1.947696664152780643e+00,-1.741980007524377427e-01,1.178682111169305990e+00,-2.138905528276057844e+00,-2.294525074895951977e-01,1.128909241339219882e+00,-1.980415778300433916e+00,-2.416376639202437449e-01,1.157069439279631018e+00,-2.104698955469629151e+00
-1.364370398188247679e-01,1.091496013671537924e+00,-1.904659807389947224e+00,-1.392938372232824240e-01,1.146210964757960360e+00,-2.063099978880565288e+00,-1.883367976127894583e-01,1.118356256513048930e+00,-1.950751688177163379e+00,-1.965285573068357439e-01,1.137593247495416682e+00,-2.050272705960396458e+00
-1.174233405044047412e-01,1.066219711639907919e+00,-1.853320964526306680e+00,-1.198523432565468949e-01,1.112682700685910353e+00,-1.989005543484473781e+00,-1.619619945414129403e-01,1.099744974158987532e+00,-1.910738120045634592e+00,-1.680700259732541557e-01,1.115324894277307965e+00,-1.994958635720836204e+00
-1.062415386605909395e-01,1.037176834421537297e+00,-1.797931910622214247e+00,-1.085357002997647119e-01,1.078585855590926901e+00,-1.917111260985217669e+00,-1.439505171809242201e-01,1.075880236433613746e+00,-1.864595457399946810e+00,-1.488507372598017742e-01,1.090681073598082529e+00,-1.939124517179132035e+00
-9.796579035670767432e-02,1.006403486735304442e+00,-1.741532453313143769e+00,-1.001598488142696614e-01,1.044218353820286049e+00,-1.847551890613941872e+00,-1.295369703807568440e-01,1.048951181951601974e+00,-1.815470639198786706e+00,-1.336014512516015551e-01,1.064044287554000601e+00,-1.882995567822348004e+00
-8.982407903460676302e-02,9.752914465334756589e-01,-1.686159009738282144e+00,-9.187221914215795704e-02,1.009914645854381288e+00,-1.780524263786195327e+00,-1.159918698699111822e-01,1.020526576939775332e+00,-1.765555729682611874e+00,-1.193802890778656728e-01,1.035907233354035117e+00,-1.826961331426561364e+00
-8.070965724245163231e-02,9.447556905002795213e-01,-1.633100999154502242e+00,-8.256391668957427377e-02,9.760812882856728656e-01,-1.716376708533728701e+00,-1.021958988154830356e-01,9.916981220608118708e-01,-1.716327226617533119e+00,-1.049993097382654339e-01,1.006860198027172970e+00,-1.771601137206748167e+00
-7.053420537903273835e-02,9.153839549047223523e-01,-1.583143237423975780e+00,-7.217371294367597168e-02,9.431541481662294446e-01,-1.655556584716192159e+00,-8.802081154559256160e-02,9.632158495137785881e-01,-1.668767119847503588e+00,-9.032149750721094050e-02,9.775216009838540998e-01,-1.717597224633802711e+00
-5.970699972423827717e-02,8.875568964097063640e-01,-1.536752114118604462e+00,-6.114099798088753340e-02,9.115580733715638040e-01,-1.598522005768531873e+00,-7.381068869914557407e-02,9.356089476462949861e-01,-1.623544927084969114e+00,-7.569745687721245175e-02,9.484986363077356764e-01,-1.665654942952216944e+00
-4.878305284642338313e-02,8.615265534984224427e-01,-1.494188712521053564e+00,-5.004132257117178961e-02,8.816725281556035965e-01,-1.545693660128097280e+00,-6.005855908539697169e-02,9.092708193033669506e-01,-1.581136091353335216e+00,-6.162281357267788279e-02,9.203399329623954683e-01,-1.616436227381033541e+00
-3.827002212545584092e-02,8.374595143385776819e-01,-1.455575620623092092e+00,-3.939108611977412688e-02,8.538097643476895149e-01,-1.497410723881874794e+00,-4.721890434437114176e-02,8.845064139425937721e-01,-1.541890772151169209e+00,-4.854590395808218439e-02,8.935147646920771347e-01,-1.570517586300617774e+00
-2.855919539107721131e-02,8.154635390492759317e-01,-1.420954030462622475e+00,-2.958149880056571909e-02,8.282067030038769984e-01,-1.453897314624399861e+00,-3.562099968882989631e-02,8.615519858992155555e-01,-1.506074200678076069e+00,-3.678319219102119814e-02,8.684132620862491381e-01,-1.528369344759303416e+00
-1.990933712576178211e-02,7.955979173504873492e-01,-1.390293953160734342e+00,-2.086593693893693327e-02,8.050253586351757695e-01,-1.415259631528759776e+00,-2.546005278282826439e-02,8.405899566492636144e-01,-1.473881257833338232e+00,-2.651428051125208352e-02,8.453478693519931308e-01,-1.490352893336852613e+00
-1.244914016938243086e-02,7.778776252021999404e-01,-1.363480836442503064e+00,-1.336543196322297761e-02,7.843457905097861449e-01,-1.381478465606961414e+00,-1.682244163536965320e-02,8.217641316094852488e-01,-1.445440209768539486e+00,-1.781024107359367725e-02,8.245414821227641244e-01,-1.456702514941879745e+00
-6.220302021629190228e-03,7.622755180428599786e-01,-1.340360059309796403e+00,-7.114200793748343306e-03,7.661825332134940547e-01,-1.352435355267639139e+00,-9.697360086964614684e-03,8.051561039187175028e-01,-1.420807934839749098e+00,-1.064709817581948464e-02,8.061430330769919772e-01,-1.427546081320852034e+00
-1.188004816494265745e-03,7.487294454653868891e-01,-1.320713887415797538e+00,-2.071004048142859044e-03,7.504834739577770364e-01,-1.327905319099517811e+00,-4.012069366462557400e-03,7.908131142553712634e-01,-1.399982380548274730e+00,-4.941786011574499267e-03,7.902284359415250314e-01,-1.402899880639687069e+00
2.724195422045924686e-03,7.371454204581773251e-01,-1.304294570010885002e+00,1.845459801066173279e-03,7.371495555800758881e-01,-1.307593336516418514e+00,3.531009616615466903e-04,7.787327266747017251e-01,-1.382900158333823848e+00,-5.671717196103426631e-04,7.768168320785604486e-01,-1.382695940520296984e+00
5.617928403116993243e-03,7.274054775855879340e-01,-1.290820828592724068e+00,4.740211131559987981e-03,7.260444791597346903e-01,-1.291145557343664541e+00,3.539779482110478118e-03,7.688798069564568571e-01,-1.369448367670034639e+00,2.623368733177933350e-03,7.658821561594016947e-01,-1.366795164986839062e+00
7.612434404625386536e-03,7.193780412903687527e-01,-1.280001157807379331e+00,6.734635277335981537e-03,7.170047788488331797e-01,-1.278176405670697457e+00,5.700955027768453073e-03,7.611924725883154608e-01,-1.359478681695164060e+00,4.785896358627605464e-03,7.573556908843245283e-01,-1.354999042296241463e+00
8.838479347674229464e-03,7.129300336126462856e-01,-1.271555264429236942e+00,7.960662069639298094e-03,7.098572162535621288e-01,-1.268295127557047763e+00,6.998902386718694815e-03,7.555935094656799356e-01,-1.352826815508435976e+00,6.084335298797582774e-03,7.511450290923874507e-01,-1.347077824850535288e+00
9.423222292858291632e-03,7.079316585853183685e-01,-1.265216984570747050e+00,8.545939044669537826e-03,7.044296224899149195e-01,-1.261124245219467976e+00,7.587557564337333790e-03,7.519984958087140292e-01,-1.349321330100430982e+00,6.673324053820851864e-03,7.471453644753538459e-01,-1.342789110439497113e+00
9.493143498132669555e-03,7.042677031821390488e-01,-1.260761691877029023e+00,8.616980727562242870e-03,7.005612253572290893e-01,-1.256319233299345584e+00,7.620240274484125012e-03,7.503222609492936623e-01,-1.348801746622731557e+00,6.706278895210969135e-03,7.452485146255319881e-01,-1.341894410993002884e+00
9.165106657085081779e-03,7.018410735539982737e-01,-1.258005903526826508e+00,8.290452858856109733e-03,6.981108319851250243e-01,-1.253588668749885171e+00,7.232659069516807031e-03,7.504865553497034325e-01,-1.351125745359108565e+00,6.318712626661724882e-03,7.453482211688056136e-01,-1.344173657242895725e+00
8.551609624085854122e-03,7.005772516572591480e-01,-1.256821663781392928e+00,7.678543781951086694e-03,6.969592868415540599e-01,-1.252702672925732452e+00,6.550130729615190675e-03,7.524192801645238626e-01,-1.356173655161849734e+00,5.635627032208632287e-03,7.473390135095940856e-01,-1.349426585749866625e+00
7.743273001319985957e-03,7.004194550073858938e-01,-1.257146407709290203e+00,6.871569058259620333e-03,6.970143163531330455e-01,-1.253509311282965388e+00,5.679136271371528974e-03,7.560380723205348819e-01,-1.363836819741298223e+00,4.763184527584061675e-03,7.511164772739148399e-01,-1.357480214254051409e+00
6.818715508891891666e-03,7.013279368262309577e-01,-1.258987050971972055e+00,5.947877598009653800e-03,6.982049317965126622e-01,-1.255937169675593656e+00,4.711800447072141823e-03,7.612451928013761471e-01,-1.374013535091281213e+00,3.793252114072441158e-03,7.565631780172042964e-01,-1.368175690278505385e+00
5.838374694111226303e-03,7.032734488889829105e-01,-1.262420872311878162e+00,4.967707409415901380e-03,7.004758935822634758e-01,-1.260004527166101784e+00,3.715221768963759743e-03,7.679128878907008904e-01,-1.386595207573203758e+00,2.792782160065250281e-03,7.635313736467700396e-01,-1.381355960747798095e+00
4.856082524111052581e-03,7.062296666109580956e-01,-1.267597609853131413e+00,3.984738771345839453e-03,7.037776185889693670e-01,-1.265814244041539416e+00,2.745010065474270955e-03,7.758643254056998284e-01,-1.401447707312487578e+00,1.817329842154068176e-03,7.718232900894097526e-01,-1.396843431972599525e+00
3.909918156361791644e-03,7.101597386378739607e-01,-1.274738500234430472e+00,3.036941908647330587e-03,7.080570828831311836e-01,-1.273552919739528777e+00,1.842236112703043863e-03,7.848482635295664922e-01,-1.418389833840882019e+00,9.079884527451410545e-04,7.811749170033495115e-01,-1.414427204026662999e+00
3.024093979771572301e-03,7.150050795178055640e-01,-1.284127587296538753e+00,2.148447711545444470e-03,7.132432889336781656e-01,-1.283482921694726553e+00,1.030072688951480650e-03,7.945223307256967793e-01,-1.437175899135481050e+00,8.803511717309629205e-05,7.912318055041094311e-01,-1.433838988270074832e+00
2.209263885705164531e-03,7.206711748884009339e-01,-1.296095758758981864e+00,1.329831248061837199e-03,7.192352966008311865e-01,-1.295924835127755026e+00,3.184250965004385009e-04,8.044376197866329736e-01,-1.457479189969379529e+00,-6.324642259174972827e-04,8.015391407959349124e-01,-1.454740997910817013e+00
1.472303291306897334e-03,7.270173490036631048e-01,-1.310998003387831012e+00,5.878720495588302640e-04,7.258878798403829435e-01,-1.311224459030090328e+00,-2.845743939224726609e-04,8.140388710454848908e-01,-1.478889034649570000e+00,-1.245167871029933008e-03,8.115393261225523069e-01,-1.476715750979053166e+00
8.312397173991287105e-04,7.338489295529272427e-01,-1.329173782723333197e+00,-5.950597847502849327e-05,7.329977664119974312e-01,-1.329714917545251174e+00,-7.673974659911321407e-04,8.226830105782577673e-01,-1.500917493068077757e+00,-1.738267912890924683e-03,8.205768482636255357e-01,-1.499261231507247327e+00
3.056965859800932737e-04,7.409076828138014825e-01,-1.350897821325471204e+00,-5.927926925648674059e-04,7.402987374448999347e-01,-1.351659203753472038e+00,-1.112259528915346624e-03,8.296627509239273834e-01,-1.523005535863011239e+00,-2.093654743876008882e-03,8.279360630435046442e-01,-1.521805964054586457e+00
-6.538881518220764338e-05,7.478722746434757207e-01,-1.376321787344956693e+00,-9.731544152079304837e-04,7.474560150711602180e-01,-1.377191804254520369e+00,-1.286217652315018280e-03,8.342550270902908682e-01,-1.544541287345605252e+00,-2.278004971953016041e-03,8.328765216307004726e-01,-1.543715060790029403e+00
-2.362044435062490367e-04,7.543616165263049567e-01,-1.405396826700512580e+00,-1.154861193118840012e-03,7.540746149055301828e-01,-1.406244433582229281e+00,-1.249505505994048023e-03,8.357853942953169524e-01,-1.564879735959883167e+00,-2.251154692427078784e-03,8.347049857392245809e-01,-1.564317553849716269e+00
-1.567805370309499017e-04,7.599456718065092931e-01,-1.437779345079951865e+00,-1.087985046078522155e-03,7.597122335516771630e-01,-1.438455607085673327e+00,-9.587333241079421149e-04,8.337061463765685909e-01,-1.583357020330508069e+00,-1.969341998037187937e-03,8.328548540173932313e-01,-1.582922704645230771e+00
2.034789380039568889e-04,7.641581383916277170e-01,-1.472687473556888449e+00,-7.418872265864779811e-04,7.638982980338425710e-01,-1.473041298178960679e+00,-3.924474159034085333e-04,8.276844955414088822e-01,-1.599280156798623009e+00,-1.410811760111979965e-03,8.269788715625167042e-01,-1.598819934299481993e+00
8.211991444923814887e-04,7.664907110026111248e-01,-1.508662296070931719e+00,-1.396776390306124949e-04,7.661377493521277504e-01,-1.508572297422818176e+00,4.164853436339004361e-04,8.176655803711373460e-01,-1.611833957775931747e+00,-6.081687680927753319e-04,8.170236364605800716e-01,-1.611204706768069927e+00
1.557801302001649100e-03,7.663096277995447014e-01,-1.543072823597553711e+00,5.809587244229516556e-04,7.658404350537461047e-01,-1.542510406561524272e+00,1.318346260867762475e-03,8.038487186237188720e-01,-1.619759212159977979e+00,2.893653888092659028e-04,8.032190269768325619e-01,-1.618888050226218622e+00
2.047045456197802999e-03,7.625568240345766968e-01,-1.570910221777985782e+00,1.056316143746299655e-03,7.620425967915767096e-01,-1.570048786844861155e+00,1.937686605292946070e-03,7.864901485157459460e-01,-1.620470394963289706e+00,9.078309989990125152e-04,7.859064434768604501e-01,-1.619469555406100270e+00
1.631092637502572868e-03,7.525216307846592789e-01,-1.582186944334022849e+00,6.343638464483836994e-04,7.521864015400693271e-01,-1.581547147953134891e+00,1.606379976165474201e-03,7.644299039784649974e-01,-1.607135160898870208e+00,5.832083792777203318e-04,7.640758351021532668e-01,-1.606455789097908760e+00
7.190851679046737300e-04,6.998913072354634446e-01,-1.501179812373051536e+00,-7.190851664193505808e-04,6.998913072356596210e-01,-1.501179812373266476e+00,7.288015478265451449e-04,6.998899142285289754e-01,-1.501195691164296964e+00,-7.288015485483741000e-04,6.998899142233772075e-01,-1.501195691167164448e+00
0.000000000000000000e+00,6.999999999999999556e-01,-1.500000000000000000e+00,0.000000000000000000e+00,6.999999999999999556e-01,-1.500000000000000000e+00,0.000000000000000000e+00,6.999999999999999556e-01,-1.500000000000000000e+00,0.000000000000000000e+00,6.999999999999999556e-01,-1.500000000000000000e+00
