yusongmin1/go2_flip_TO/datasets/go2/trajectories/quad_sideflip/trajectory_full.csv
t,base_tx,base_ty,base_tz,quat_x,quat_y,quat_z,quat_w,FL_hip_joint,FL_thigh_joint,FL_calf_joint,FR_hip_joint,FR_thigh_joint,FR_calf_joint,RL_hip_joint,RL_thigh_joint,RL_calf_joint,RR_hip_joint,RR_thigh_joint,RR_calf_joint
0.000000000000000000e+00,0.000000000000000000e+00,0.000000000000000000e+00,3.333099999999999952e-01,0.000000000000000000e+00,0.000000000000000000e+00,0.000000000000000000e+00,1.000000000000000000e+00,0.000000000000000000e+00,6.999999999999999556e-01,-1.500000000000000000e+00,0.000000000000000000e+00,6.999999999999999556e-01,-1.500000000000000000e+00,0.000000000000000000e+00,6.999999999999999556e-01,-1.500000000000000000e+00,0.000000000000000000e+00,6.999999999999999556e-01,-1.500000000000000000e+00
2.000000000000000042e-02,1.614075886877620143e-03,2.696814141218190463e-05,3.343084471291651316e-01,1.150728362876906642e-03,-3.250144886276007828e-03,4.529785907198259452e-05,9.999940551476078632e-01,-2.463833133959963690e-03,8.352939906504441847e-01,-1.760693982771778243e+00,-2.464857279683487293e-03,8.359103148271914696e-01,-1.761813484385026163e+00,-2.345630438005542016e-03,8.424328859445275874e-01,-1.775871263740315120e+00,-2.346578903898652313e-03,8.431103952801782819e-01,-1.777120338092308405e+00
4.000000000000000083e-02,3.235177528900647775e-03,4.943406601798998562e-05,3.391492556883696774e-01,1.981806709547958168e-03,-5.273717828620398673e-03,1.645088577476413918e-04,9.999841165134902843e-01,-4.375155429486148398e-03,8.420366618944612469e-01,-1.754045212417095101e+00,-4.378287139335986129e-03,8.432151775906354674e-01,-1.755834097742642763e+00,-3.937017406385621456e-03,8.536871519361283189e-01,-1.778559241518602008e+00,-3.939655102181963651e-03,8.551021683364038450e-01,-1.780835962016350971e+00
5.999999999999999778e-02,5.366522154901659514e-03,6.519062764501174661e-05,3.449220508205141922e-01,2.140462667198008307e-03,-9.371760559828117704e-03,3.474650145288602464e-04,9.999537328254959334e-01,-4.987922403052529388e-03,8.415404117352658364e-01,-1.720022827651666475e+00,-4.991604240018074172e-03,8.430218192676742772e-01,-1.721681640526387946e+00,-4.071175051778958519e-03,8.627730459752055436e-01,-1.763967723986704206e+00,-4.073766199888316335e-03,8.647763547089037939e-01,-1.766661328602961101e+00
8.000000000000000167e-02,7.716430960657926288e-03,7.528122458539815702e-05,3.511333730933300923e-01,1.646558568054743441e-03,-1.434562395425037148e-02,5.739132351591969168e-04,9.998955758187170195e-01,-4.317581090951599573e-03,8.374006450102976506e-01,-1.674206913240410044e+00,-4.319472970220299482e-03,8.388593598547335883e-01,-1.674931994086101383e+00,-2.806812215888666862e-03,8.709325310369131490e-01,-1.742409601746348180e+00,-2.807362234354525681e-03,8.733107532516372062e-01,-1.744884784314425730e+00
1.000000000000000056e-01,1.009534275390546430e-02,8.329380651509826717e-05,3.574796964024341550e-01,7.457694892937847099e-04,-1.934102863850689982e-02,8.250574663539276144e-04,9.998123262489068130e-01,-2.845734460556629229e-03,8.307055707765400587e-01,-1.623995570463538041e+00,-2.844817078100344253e-03,8.318805111233945615e-01,-1.623220277702222436e+00,-6.647885508825921797e-04,8.773674324920002210e-01,-1.717419196944984794e+00,-6.630807863570211931e-04,8.799630702876690691e-01,-1.719258872519233705e+00
1.200000000000000094e-01,1.239270758697857272e-02,9.324994925607050502e-05,3.637573136345564895e-01,-2.507272108788703691e-04,-2.384292102550037915e-02,1.090255528461838569e-03,9.997150912113511589e-01,-1.191566094419669588e-03,8.219599489557208871e-01,-1.573185928979074388e+00,-1.188097414767407423e-03,8.227316617273147115e-01,-1.570682513120488899e+00,1.700331321153292132e-03,8.812370795550568126e-01,-1.690312329378818257e+00,1.703179451092990630e-03,8.840104759266620427e-01,-1.691405096618665116e+00
1.400000000000000133e-01,1.454743720067655510e-02,1.084062853361258938e-04,3.698234565739118573e-01,-1.086786701687965720e-03,-2.756219328503707600e-02,1.365967556547832825e-03,9.996185665185585156e-01,1.330178251152758315e-04,8.115701772346589626e-01,-1.523940383860416414e+00,1.386339180831114726e-04,8.119681737184110126e-01,-1.519792493074364259e+00,3.746823008922548284e-03,8.820191077598216189e-01,-1.661696650052148394e+00,3.749959413689450509e-03,8.850464902257956235e-01,-1.662195607828935495e+00
1.600000000000000033e-01,1.653103224037512364e-02,1.307710204339039301e-04,3.755764314736561027e-01,-1.616025424083139582e-03,-3.037363593221599142e-02,1.651505526649032921e-03,9.995359439417781378e-01,8.348529281907363705e-04,7.999788752343806042e-01,-1.477582159180178101e+00,8.427350161143082937e-04,8.001397609497618024e-01,-1.472081582856575199e+00,5.159322744660825230e-03,8.795940042108743029e-01,-1.632040693687285771e+00,5.163050820901318033e-03,8.830253353884075507e-01,-1.632257938238800499e+00
1.799999999999999933e-01,1.833622414739823764e-02,1.615738742568634159e-04,3.809447572280305616e-01,-1.786333077100433434e-03,-3.226680184421022030e-02,1.944570177873701294e-03,9.994758031887052141e-01,8.098177927923174736e-04,7.876645462714904067e-01,-1.434934848276248953e+00,8.204791465357427847e-04,7.877805913471612742e-01,-1.428480265075671607e+00,5.816017772264018074e-03,8.741833880558663727e-01,-1.601835825268233204e+00,5.821598996861007680e-03,8.781942314319268750e-01,-1.602144692898080702e+00
1.999999999999999833e-01,1.996912273813485766e-02,2.014896298296211369e-04,3.858806872880481409e-01,-1.605298639702187934e-03,-3.330810358260535842e-02,2.238800695771582701e-03,9.994413344581323244e-01,7.569093068643395483e-05,7.751054153939650471e-01,-1.396474797613795671e+00,8.955904439639922332e-05,7.753832463078277337e-01,-1.389501684665339631e+00,5.717265416406451875e-03,8.662498439599292110e-01,-1.571613422361276324e+00,5.726216061740020333e-03,8.710032286260424028e-01,-1.572382231235380123e+00
2.199999999999999734e-01,2.144395729449521948e-02,2.511332292267519015e-04,3.903555937435547185e-01,-1.106773817220797892e-03,-3.361377222013212096e-02,2.526072373017301809e-03,9.994310923356432008e-01,-1.297532583149817609e-03,7.627437812693811381e-01,-1.362407489522727166e+00,-1.280527897426557166e-03,7.633812345903495666e-01,-1.355347904595475494e+00,4.919278776791077661e-03,8.564034636910219378e-01,-1.541922980282200095e+00,4.932726527222737814e-03,8.620335134587410186e-01,-1.543484752414537864e+00
2.399999999999999634e-01,2.277920702321386062e-02,3.112657696307282026e-04,3.943564206894538127e-01,-3.326145771713185620e-04,-3.332697991627660283e-02,2.796014924377826765e-03,9.994405355386311030e-01,-3.222761630137259414e-03,7.509614845835024255e-01,-1.332724542731371420e+00,-3.203443467207018995e-03,7.521341707239015406e-01,-1.325988909005022087e+00,3.494457233170886537e-03,8.453209815981808095e-01,-1.513302169508248918e+00,3.512708159863689797e-03,8.519228793083011286e-01,-1.515940247169060617e+00
2.599999999999999534e-01,2.399515031226848172e-02,3.828878985210115498e-04,3.978826265900474723e-01,6.877851191209427128e-04,-3.260070867158888774e-02,3.035974992016548645e-03,9.994636079425743835e-01,-5.635578949790248648e-03,7.400640988401884224e-01,-1.307243831193369621e+00,-5.615682706747268660e-03,7.419265339532985504e-01,-1.301232464713637071e+00,1.487836297358866890e-03,8.336818719235324915e-01,-1.486245136347019269e+00,1.510136432045851816e-03,8.413119166078575351e-01,-1.490200280403069177e+00
2.799999999999999711e-01,2.511180778654599835e-02,4.673714772775911549e-04,4.009434044392705676e-01,1.938343118386679073e-03,-3.158543768017516018e-02,3.232435204057404737e-03,9.994939491138297161e-01,-8.497368888368977274e-03,7.302783577376485979e-01,-1.285657599399187889e+00,-8.479669005067143328e-03,7.329678829848327304e-01,-1.280773120111755814e+00,-1.084217285588180875e-03,8.221235153787851413e-01,-1.461185486892558894e+00,-1.059866965664538370e-03,8.308024339704078720e-01,-1.466664767588678586e+00
2.999999999999999889e-01,2.614760365025279448e-02,5.663968318358992508e-04,4.035550655155634714e-01,3.415947626652847142e-03,-3.041859173903560185e-02,3.373706830790967892e-03,9.995257168680782289e-01,-1.179699960675776801e-02,7.217554984830671927e-01,-1.267584575979807893e+00,-1.178543864385884869e-02,7.253993194871165562e-01,-1.264241808520254029e+00,-4.230348891741023132e-03,8.112025765907628916e-01,-1.438478273641742300e+00,-4.207370543799801403e-03,8.209253023526891235e-01,-1.445667819170330493e+00
3.200000000000000067e-01,2.711854672222307680e-02,6.820026287406651296e-04,4.057387226874352715e-01,5.129732579828847824e-03,-2.921729557778544872e-02,3.449128759355751112e-03,9.995539700254214566e-01,-1.554866353477503578e-02,7.145803509331141168e-01,-1.252614119590047759e+00,-1.554856161024004493e-02,7.193023798512766520e-01,-1.251252095212022297e+00,-7.984653074889422331e-03,8.013735119100119375e-01,-1.418389717680760498e+00,-7.968167899602604173e-03,8.121158761111939572e-01,-1.427465498931466348e+00
3.400000000000000244e-01,2.803797747569800047e-02,8.163382393809264339e-04,4.075174816449509962e-01,7.092134000788897531e-03,-2.807503963486888965e-02,3.448846771967875677e-03,9.995747091842404064e-01,-1.977348110689370123e-02,7.087892641149048378e-01,-1.240352605494962512e+00,-1.979176172219224844e-02,7.147113395463202679e-01,-1.241435666389079984e+00,-1.238840180391446479e-02,7.929861233490460570e-01,-1.401104797881414177e+00,-1.238558556528610195e-02,8.047056618452530508e-01,-1.412233197899413373e+00
3.600000000000000422e-01,2.891615644065494151e-02,9.719847606051609497e-04,4.089145163373622549e-01,9.311590786994530106e-03,-2.706063240142796145e-02,3.360372692210447741e-03,9.995847759677114475e-01,-2.448287363629218782e-02,7.043862602633313985e-01,-1.230454746171842917e+00,-2.452826444132586228e-02,7.116209572758456225e-01,-1.234467634994047991e+00,-1.748109202490071706e-02,7.862926068248417000e-01,-1.386738975954467934e+00,-1.750160947487190699e-02,7.989146821150556743e-01,-1.400061318515374520e+00
3.800000000000000600e-01,2.976121272043920005e-02,1.151237221807655843e-03,4.099508292982120827e-01,1.178976603438341292e-02,-2.622064509804280727e-02,3.174589946076740617e-03,9.995816130592695137e-01,-2.967723551494755654e-02,7.013588132623120863e-01,-1.222648291221025030e+00,-2.976031210556942877e-02,7.100058499917657473e-01,-1.230079107517921377e+00,-2.328492733092745251e-02,7.814582238675633619e-01,-1.375351260074589410e+00,-2.334119319641647303e-02,7.948773298761891981e-01,-1.390977086275373420e+00
4.000000000000000777e-01,3.057928408545360077e-02,1.356550638863179359e-03,4.106433541872838155e-01,1.450968735361575848e-02,-2.558257602534476025e-02,2.884248182996446402e-03,9.995632455673961747e-01,-3.532257038202611665e-02,6.996969841109057509e-01,-1.216755726234600710e+00,-3.545550115438074468e-02,7.098278937923869769e-01,-1.228060626947214518e+00,-2.978444054308567249e-02,7.785859358667823749e-01,-1.366973742495884991e+00,-2.989161690184522976e-02,7.926538808433960526e-01,-1.384954273036260286e+00
4.200000000000000955e-01,3.137438620803800760e-02,1.590606227297232736e-03,4.110036038146033244e-01,1.743292540374033472e-02,-2.515898696189047476e-02,2.477650272278600786e-03,9.995283786546770299e-01,-4.133922088876275380e-02,6.994065284418834461e-01,-1.212694740103599678e+00,-4.153516522129958866e-02,7.110423369862169940e-01,-1.228268884905050928e+00,-3.692960806935639828e-02,7.777448530504526003e-01,-1.361638751209023779e+00,-3.710529922436994754e-02,7.922404777021112565e-01,-1.381926650130581802e+00
4.400000000000001132e-01,3.215095478829086556e-02,1.856003923206599876e-03,4.110361039145047912e-01,2.050283944046081552e-02,-2.495322624792879751e-02,1.943980750203943555e-03,9.994764584588979872e-01,-4.761289973162723815e-02,7.005229329621216472e-01,-1.210476639436188551e+00,-4.788501049666678278e-02,7.136183352971692262e-01,-1.230621518731888075e+00,-4.463487428264774348e-02,7.789961549279127428e-01,-1.359398653423543157e+00,-4.489825092491437492e-02,7.936118565275651626e-01,-1.381822411371645964e+00
4.600000000000001310e-01,3.291222986536477407e-02,2.154565023725265021e-03,4.107379291403856492e-01,2.364316197449485221e-02,-2.496286352711874976e-02,1.278577025744956439e-03,9.994079355184065649e-01,-5.399529309109511038e-02,7.031094766573362520e-01,-1.210204814459764355e+00,-5.435528967087807639e-02,7.175407892924602349e-01,-1.235086910147066952e+00,-5.276769995027152937e-02,7.823965989280073918e-01,-1.360335202784680009e+00,-5.313788811968910702e-02,7.967394633658166914e-01,-1.384584385993358424e+00
4.800000000000001488e-01,3.366228131072535046e-02,2.488426900952962588e-03,4.100987314285260421e-01,2.675309392481626733e-02,-2.518266250358525138e-02,4.774559812256937434e-04,9.993247107474458879e-01,-6.029248035679339590e-02,7.072688200336260111e-01,-1.212064837750163715e+00,-6.074871469516711364e-02,7.228120459761597782e-01,-1.241672680677838869e+00,-6.114965562440678043e-02,7.880250919695026557e-01,-1.364576110135276021e+00,-6.164342267001117481e-02,8.015988227574228908e-01,-1.390169022367353513e+00
5.000000000000001110e-01,3.440517869976909837e-02,2.859707797849862961e-03,4.091003788121441720e-01,2.970683442233068572e-02,-2.560452148143369661e-02,-4.592316755513442430e-04,9.992305547643042241e-01,-6.626677596345656451e-02,7.131404983377058748e-01,-1.216327139488016851e+00,-6.682190988718310354e-02,7.294526246342128983e-01,-1.250424464949494885e+00,-6.955034032335608019e-02,7.959776676332427359e-01,-1.372293328962316927e+00,-7.017889690056830498e-02,8.081750763029212914e-01,-1.398554108491322445e+00
5.200000000000001288e-01,3.514442601519053577e-02,3.269872082087889927e-03,4.077179312634825470e-01,3.235805586977883591e-02,-2.621707650833611167e-02,-1.535563027847223865e-03,9.991312542233237171e-01,-7.163604917644669778e-02,7.208936688527337600e-01,-1.223323134147448643e+00,-7.228449392364838522e-02,7.374947703050698244e-01,-1.261430349956563557e+00,-7.770609785681371895e-02,8.063681560606498211e-01,-1.383693260168270767e+00,-7.847137233414960833e-02,8.164482562399727472e-01,-1.409729067607792485e+00
5.400000000000001465e-01,3.588384554845911595e-02,3.719902448708911798e-03,4.059212423915626311e-01,3.454426463282867649e-02,-2.700571951118586195e-02,-2.744880748778623630e-03,9.990344591275794883e-01,-7.609721271812973364e-02,7.307140095798484447e-01,-1.233433025218548362e+00,-7.682299993172889141e-02,7.469841477413508013e-01,-1.274791794562775582e+00,-8.530938965776833915e-02,8.193059961921255185e-01,-1.398988657226076793e+00,-8.619979749579105566e-02,8.264142054911520763e-01,-1.423699751268384883e+00
5.600000000000001643e-01,3.662651845675357620e-02,4.211083375136356888e-03,4.036762996787985336e-01,3.607959084615293410e-02,-2.795089269115429501e-02,-4.081720442605412009e-03,9.989496234947837783e-01,-7.930314673902488787e-02,7.427990142670723994e-01,-1.247068882363005615e+00,-8.007776346374982646e-02,7.579623366581930144e-01,-1.290620083971012688e+00,-9.201260376472046587e-02,8.348993442670447074e-01,-1.418395504853260158e+00,-9.299833951858722803e-02,8.380523103250897554e-01,-1.440459306258805361e+00
5.800000000000001821e-01,3.737467171075004035e-02,4.743842759786899912e-03,4.009473667515719986e-01,3.676745069186670989e-02,-2.902329897389942237e-02,-5.534356096147591449e-03,9.988869673736332500e-01,-8.089124003364028814e-02,7.573346680239178008e-01,-1.264655297646820165e+00,-8.167289893408813395e-02,7.704640254925224641e-01,-1.309034540481194497e+00,-9.743896340465962869e-02,8.532159227321471917e-01,-1.442086193259503935e+00,-9.846790497434450284e-02,8.513192259417430297e-01,-1.459979289695846338e+00
6.000000000000001998e-01,3.812873713797725050e-02,5.318912213066875200e-03,3.976984394038590165e-01,3.640237802113111681e-02,-3.018511278568739367e-02,-7.089647803431291251e-03,9.988560770874577166e-01,-8.048534850683522479e-02,7.744856319242242604e-01,-1.286601101373865630e+00,-8.121962089093677506e-02,7.845056668677959921e-01,-1.330148370628670973e+00,-1.011957335016333559e-01,8.742867658421588084e-01,-1.470187515283734259e+00,-1.021901833534709647e-01,8.661392750127828721e-01,-1.482200084647128380e+00
6.200000000000002176e-01,3.888737242552344625e-02,5.936689729626084579e-03,3.938963830232730112e-01,3.478404210543054736e-02,-3.138752570995548274e-02,-8.733426539271183994e-03,9.988636648239326288e-01,-7.772035595892115567e-02,7.943724368395630453e-01,-1.313261554975285517e+00,-7.834319411127918520e-02,8.000770411026026929e-01,-1.354061707436835960e+00,-1.028998149766445630e-01,8.980828779483890356e-01,-1.502744545735579251e+00,-1.037552694794107722e-01,8.823906225748151533e-01,-1.507015066599228348e+00
6.400000000000002354e-01,3.964729175163677483e-02,6.597962389604037151e-03,3.895126886958721890e-01,3.173026587786750147e-02,-3.256586399850194824e-02,-1.044466513799405250e-02,9.989111890951597461e-01,-7.227426177224968717e-02,8.170548448187366919e-01,-1.344931946034156445e+00,-7.271815168004112928e-02,8.171372528189738693e-01,-1.380863393216936963e+00,-1.021958113661519674e-01,9.244843065967909279e-01,-1.539692997738719260e+00,-1.027827392369033838e-01,8.998949753918095151e-01,-1.534261051120606290e+00
6.600000000000002531e-01,4.040258359001139277e-02,7.304372160022801382e-03,3.845264448603409324e-01,2.708499016724173411e-02,-3.364127433816410662e-02,-1.217971607981473484e-02,9.989926538692663893e-01,-6.389879715788529535e-02,8.425115286909674595e-01,-1.381829479289137463e+00,-6.410257208576454480e-02,8.356103305296546102e-01,-1.410594478132241480e+00,-9.874690579540812418e-02,9.532572560212249080e-01,-1.580843676362045480e+00,-9.891695717388263032e-02,9.184386479324992969e-01,-1.563725286099474809e+00
6.800000000000002709e-01,4.114356338784377898e-02,8.058888852715542436e-03,3.789263584293903198e-01,2.072023486600069533e-02,-3.452036442608026612e-02,-1.390692493433589791e-02,9.990923949995110798e-01,-5.239097146154582385e-02,8.706435831952411553e-01,-1.424060663695804196e+00,-5.231011951877476140e-02,8.553610851314368269e-01,-1.443274696862984152e+00,-9.229027591186665658e-02,9.840839179710095808e-01,-1.625903323480968332e+00,-9.188420495582741432e-02,9.377052426885014169e-01,-1.595103867419445320e+00
7.000000000000002887e-01,4.185769295255058198e-02,8.866224752077128679e-03,3.727140004228297054e-01,1.254265721571870031e-02,-3.509744971365223731e-02,-1.557618063909333231e-02,9.991837835805107426e-01,-3.763532101242915429e-02,9.012589893295562815e-01,-1.471626966645130263e+00,-3.725570983577637663e-02,8.762013975421677481e-01,-1.478852996345860538e+00,-8.260351090612350067e-02,1.016527499180768235e+00,-1.674455458030075006e+00,-8.146457920594167568e-02,9.573229954269305564e-01,-1.628021073435084620e+00
7.200000000000003064e-01,4.252983524260833814e-02,9.733791433453252775e-03,3.659064935663338125e-01,2.496248124465417530e-03,-3.525847807868758704e-02,-1.712892565346828266e-02,9.992283064319353869e-01,-1.960324087389694880e-02,9.340762997439370219e-01,-1.524410270960578018e+00,-1.895510119842534064e-02,8.978811419940101457e-01,-1.517199202515040035e+00,-6.952656050351188610e-02,1.050047508744590852e+00,-1.725975549354265670e+00,-6.751720343035019778e-02,9.768507531665413524e-01,-1.662015591792263214e+00
7.400000000000003242e-01,4.314108010792630510e-02,1.067213153462018456e-02,3.585403252837021659e-01,-9.431946022780897040e-03,-3.488242267590845741e-02,-1.848852755065412065e-02,9.991758750747995466e-01,1.622812042989330364e-03,9.687112613874644396e-01,-1.582178584195786719e+00,2.451128706566413351e-03,9.200805268216414312e-01,-1.558083405557812107e+00,-5.295565202829211060e-02,1.083968386904600623e+00,-1.779818259021994642e+00,-4.997916949798983377e-02,9.957796606516451376e-01,-1.696534970860215097e+00
7.600000000000003419e-01,4.366906060078915019e-02,1.169608504172650609e-02,3.506760018490601705e-01,-2.322616297480099498e-02,-3.385020795539056548e-02,-1.956699434205128041e-02,9.989653855400911775e-01,2.587507779675368713e-02,1.004682097750598802e+00,-1.644571904801708673e+00,2.672677483723545980e-02,9.423944344115932070e-01,-1.601133250071471448e+00,-3.282684622504478122e-02,1.117498211667014685e+00,-1.835236351226863238e+00,-2.885093653216794923e-02,1.013529354754186151e+00,-1.730915607327221162e+00
7.800000000000003597e-01,4.408935628493991510e-02,1.282552528998525364e-02,3.424037066559749154e-01,-3.885580081732327440e-02,-3.204929834788255993e-02,-2.025973703507362444e-02,9.985252186467413749e-01,5.291176246358263169e-02,1.041405052389110075e+00,-1.711105425778279177e+00,5.355590720630477863e-02,9.643220581776353884e-01,-1.645789921675719247e+00,-9.076970748081697460e-03,1.149710828076349278e+00,-1.891369024077296235e+00,-4.161090671409420350e-03,1.029451002904950840e+00,-1.764358287702573413e+00
8.000000000000003775e-01,4.437447930127189771e-02,1.408673137793615623e-02,3.338513686727246910e-01,-5.629361660498900799e-02,-2.938205121065453132e-02,-2.046715412464386943e-02,9.977719275456806702e-01,8.246153673895106895e-02,1.078186474492041746e+00,-1.781130585356617058e+00,8.259522151575410254e-02,9.852294376160077860e-01,-1.691262796110277522e+00,1.835255028753792622e-02,1.179560263325227787e+00,-1.947242159149817908e+00,2.403237607541545973e-02,1.042781533956584017e+00,-1.795873148064734082e+00
8.200000000000003952e-01,4.449477530695183231e-02,1.551468939471266177e-02,3.251954654268330858e-01,-7.552618414391232271e-02,-2.577481051612465213e-02,-2.007038419660518019e-02,9.966085662534305278e-01,1.141984693183383387e-01,1.114181197520307975e+00,-1.853818786053898604e+00,1.134590969896374507e-01,1.004332527684580700e+00,-1.736432391525118746e+00,4.958073129300688553e-02,1.205822473126757055e+00,-2.001715638457985946e+00,5.569939680565219597e-02,1.052674015530197238e+00,-1.824250352632418082e+00
8.400000000000004130e-01,4.441986799792690260e-02,1.715772563661609185e-02,3.166774006556328236e-01,-9.656773374120788955e-02,-2.119683345744696051e-02,-1.895282702965026336e-02,9.949201763955983768e-01,1.477637351323429493e-01,1.148353956742011128e+00,-1.928055462831602007e+00,1.457601893776396540e-01,1.020645263529055047e+00,-1.779731871479926841e+00,8.476557472609339006e-02,1.227122664219545189e+00,-2.053449020267154257e+00,9.082200739818323265e-02,1.058164170178668595e+00,-1.847971475753243054e+00
8.600000000000004308e-01,4.411814292313481073e-02,1.908597036648703588e-02,3.086302097771390640e-01,-1.194291825968349374e-01,-1.568447959901531422e-02,-1.700398349213600238e-02,9.925731872206497997e-01,1.826676377789685779e-01,1.179369821545634744e+00,-2.002269034133846048e+00,1.790470284475575158e-01,1.032910210324668121e+00,-1.818966531374136109e+00,1.240116299039542846e-01,1.241907608367342375e+00,-2.100788526294546266e+00,1.293150113213980268e-01,1.058148145974368681e+00,-1.865100397129235033e+00
8.800000000000004485e-01,4.355973654595372141e-02,2.140984788771315220e-02,3.015248579161369236e-01,-1.440238117201632917e-01,-9.385339275526325201e-03,-1.413604679651423064e-02,9.894287388413806061e-01,2.180429848720576158e-01,1.205428495234946107e+00,-2.074084268293829414e+00,2.126312994165902581e-01,1.039496069335092754e+00,-1.850999473100576331e+00,1.670820079952906323e-01,1.248465248783432680e+00,-2.141577740154656517e+00,1.707900264219510134e-01,1.051360770965258373e+00,-1.873100480637893472e+00
9.000000000000004663e-01,4.272046343726292744e-02,2.431860367237287379e-02,2.960539355061203581e-01,-1.698685570676959633e-01,-2.625875359551988180e-03,-1.030334913710202055e-02,9.854093662508460749e-01,2.519042983833097993e-01,1.223960149968963851e+00,-2.139657766725988175e+00,2.450152018965561507e-01,1.038244645477880868e+00,-1.871235191096898509e+00,2.126004200705699509e-01,1.244911021546638796e+00,-2.172751640523465255e+00,2.139054697360034674e-01,1.036355749551347571e+00,-1.868548924764455776e+00
9.200000000000004841e-01,4.159163894592221578e-02,2.816131234070888556e-02,2.932992851095349573e-01,-1.952292607422443926e-01,3.970688775979576597e-03,-5.548345636531145167e-03,9.807339013419382745e-01,2.791124479245393752e-01,1.231083784056682839e+00,-2.192207893567293731e+00,2.722405169105069911e-01,1.026237968160611969e+00,-1.872684934980584748e+00,2.558672350604899171e-01,1.229115699183568333e+00,-2.189413671481924784e+00,2.545831684656805760e-01,1.011523634025208285e+00,-1.846676798861019764e+00
9.400000000000005018e-01,4.020289259759996653e-02,3.355317812275931261e-02,2.950685015447684911e-01,-2.165712937528627147e-01,9.339370051539353998e-03,-6.476006363623027439e-05,9.762221297918757257e-01,2.902996101904071757e-01,1.220944204396014365e+00,-2.219353249473068779e+00,2.870148912429497656e-01,9.989747831131972067e-01,-1.843531438489468322e+00,2.874278090663683338e-01,1.198551071554454728e+00,-2.183119359152301708e+00,2.849756643558987168e-01,9.746542199479417690e-01,-1.799731783383874850e+00
9.600000000000005196e-01,3.864138159583347526e-02,4.144427967822258280e-02,3.044574616646064658e-01,-2.294704996072311765e-01,1.214969759003493334e-02,5.684778820067772943e-03,9.732231799275258277e-01,2.760441022299897629e-01,1.184772638853378801e+00,-2.199026003841896060e+00,2.814184688579846050e-01,9.478894246216638120e-01,-1.762633395050134277e+00,2.956418648827410789e-01,1.148905060743697915e+00,-2.138238480649977014e+00,2.954897165552480276e-01,9.200069972828238685e-01,-1.711837066134980434e+00
9.800000000000005373e-01,3.722294100497854780e-02,5.292472628075738095e-02,3.261883843132710736e-01,-2.327787517184560229e-01,1.236464710381815837e-02,1.086504990146840849e-02,9.723904148751334464e-01,2.408600877068229063e-01,1.110419295951434515e+00,-2.098521639764292512e+00,2.569562764810185418e-01,8.557252429534890625e-01,-1.594868299714034210e+00,2.782723146753732224e-01,1.069438243851712933e+00,-2.025680067969263920e+00,2.837838298878695431e-01,8.295065789747695373e-01,-1.546614931837091422e+00
1.000000000000000444e+00,3.794144619677997099e-02,6.506607995674401623e-02,3.610584427159880816e-01,-2.493932122478109692e-01,5.587687130428117994e-03,3.181256342292210562e-03,9.683809596668737640e-01,-1.742625918539379981e-01,9.280401710588725983e-01,-2.412203590890269034e+00,5.105989192396852283e-02,1.068703955311272269e+00,-1.907917122090773132e+00,-3.228052071513508592e-01,1.415576315881864833e+00,-2.339563133409539031e+00,7.052941513985643007e-02,1.082772043517595373e+00,-1.860411429599549971e+00
1.020000000000000462e+00,3.833740266986321310e-02,7.569325912688319724e-02,3.866160441995799557e-01,-3.786268831638997523e-01,3.502315773614524856e-04,1.412874969427895108e-03,9.255482507507394319e-01,-7.614757957458047344e-02,1.108532548556771857e+00,-2.357119132601061651e+00,3.102629850593675159e-02,1.222856110136492980e+00,-2.192345820074288465e+00,-1.201770851496177656e-01,1.289395899932503697e+00,-2.343311160146325900e+00,4.112161979610313989e-02,1.232212225827457708e+00,-2.127794976260569459e+00
1.040000000000000480e+00,3.841264033500420283e-02,8.629109687044045351e-02,4.109788255353613584e-01,-5.083382263396619694e-01,-6.557067427525435383e-04,-1.424831021176411203e-03,8.611560761831011934e-01,4.029311358862390155e-03,1.237769028561759743e+00,-2.274154009817357380e+00,2.753426679998675214e-03,1.243444902841349675e+00,-2.293309336547108668e+00,2.804346697642288305e-02,1.187014463611224313e+00,-2.294863266781022926e+00,1.079042772395323764e-02,1.245946927473603916e+00,-2.235340636640780421e+00
1.060000000000000497e+00,3.838317829352410476e-02,9.790862987176884857e-02,4.339104120523876729e-01,-6.231532858799563313e-01,7.204678625354840344e-04,-5.350740985608688945e-03,7.820810909323773208e-01,1.820787380564129268e-02,1.240365220734929386e+00,-2.258540356070109834e+00,-1.489649455269356076e-03,1.207118562573149978e+00,-2.289500412411521246e+00,2.673835093360003856e-02,1.184165803394451988e+00,-2.276627596583286284e+00,2.368385435065839886e-03,1.211689713232052101e+00,-2.237303866159532362e+00
1.080000000000000515e+00,3.833856483510818952e-02,1.091923047159907428e-01,4.536938285169816454e-01,-7.239185657399902496e-01,1.662892448783036574e-03,-8.556142905327504891e-03,6.898303685575482014e-01,7.063115670009344899e-03,1.199539916757740965e+00,-2.285173179655724862e+00,1.167606372887348976e-02,1.185186588182395973e+00,-2.272637243595763135e+00,-1.248776582008260735e-02,1.219548321620919751e+00,-2.289605509031316100e+00,7.402962770503730174e-03,1.193886186545603190e+00,-2.227352819181622756e+00
1.100000000000000533e+00,3.834848370566123349e-02,1.190333578366324641e-01,4.702361726448707202e-01,-8.112780328798417928e-01,1.994531987925438413e-03,-1.021056280903388097e-02,5.845679768990823533e-01,1.558441111024381348e-03,1.184407933223066145e+00,-2.305636319096642239e+00,2.053457180555749370e-02,1.193220202419372544e+00,-2.275060228918855731e+00,-2.614380247797366136e-02,1.239860392075520901e+00,-2.306522882223317694e+00,7.469003291445544881e-03,1.199600911711411699e+00,-2.240170057439617501e+00
1.120000000000000551e+00,3.839375037951857361e-02,1.276869486377630314e-01,4.839895574326569250e-01,-8.837157821374540534e-01,2.344991398072484527e-03,-1.090973651149800341e-02,4.678909008153294691e-01,5.242136548440154073e-03,1.199305332558144421e+00,-2.299316961973296269e+00,1.858277522302051801e-02,1.213646271482305083e+00,-2.286161305608566341e+00,-1.426542151944015444e-02,1.233141167537543437e+00,-2.308128296738107377e+00,6.406423682502005931e-04,1.211178547989658627e+00,-2.264635797831356712e+00
1.140000000000000568e+00,3.841719428091571603e-02,1.357654712715625767e-01,4.949720018343681804e-01,-9.396765219088266674e-01,2.929058198208231521e-03,-1.122472374900644089e-02,3.418676064914022428e-01,1.025177975323398986e-02,1.219591451032015161e+00,-2.275206185406172477e+00,1.187813183446301962e-02,1.227540859236642135e+00,-2.287914056800975704e+00,4.518412007536382405e-03,1.214335249743274447e+00,-2.294293091653087480e+00,-4.990131393051705846e-03,1.215944509932378237e+00,-2.280985509254531252e+00
1.160000000000000586e+00,3.839280677755042143e-02,1.435009551937121985e-01,5.029976418656367798e-01,-9.778673756026479147e-01,3.565979095321538794e-03,-1.120665540270030999e-02,2.088949266970518137e-01,1.137241662290305703e-02,1.228403203452514081e+00,-2.253064122470655573e+00,6.765665553838067989e-03,1.228950567648407821e+00,-2.275186601396333774e+00,1.843385970374227315e-02,1.201450488143248396e+00,-2.276810067443643781e+00,-4.281539480710056834e-03,1.212881991229903811e+00,-2.281982077191828218e+00
1.180000000000000604e+00,3.832451873346109927e-02,1.508594624564273401e-01,5.080613600371787220e-01,-9.973359011947879882e-01,4.040546046640391097e-03,-1.062667859542423994e-02,7.205447853988518336e-02,8.260582138843791319e-03,1.226361370942916862e+00,-2.246772957942028803e+00,3.640443964408299898e-03,1.223238035858336570e+00,-2.256752889582952282e+00,2.445731166081718810e-02,1.202124920386663298e+00,-2.267476765724856236e+00,5.776010497373727098e-04,1.207712028009267469e+00,-2.274509184775594051e+00
1.200000000000000622e+00,3.822642836704569225e-02,1.579218206555735859e-01,5.102608072753881396e-01,-9.978047679727095609e-01,4.290220705875018997e-03,-9.349109770034648437e-03,-6.542043383936055334e-02,2.802538239364426101e-03,1.222369705077645197e+00,-2.257608907411890353e+00,4.388389938691072273e-04,1.218605442782814796e+00,-2.246356677839271843e+00,2.298866366281501067e-02,1.213004649002503266e+00,-2.270097307102057815e+00,5.558158892887526611e-03,1.206665041868964616e+00,-2.270922369900543192e+00
1.220000000000000639e+00,3.810707534584926309e-02,1.649241605160494117e-01,5.095199146938160784e-01,9.796173483433465723e-01,-4.325842807977556270e-03,7.410360638791095057e-03,2.006893730718053437e-01,-3.967233830652758947e-03,1.222110833094198101e+00,-2.276181599923933430e+00,-2.448192587963813130e-03,1.219381047267943607e+00,-2.252841003140966691e+00,1.431004488639344742e-02,1.225443341116581042e+00,-2.279037794855703236e+00,8.969997296543031837e-03,1.213465692418620678e+00,-2.279287839062666521e+00
1.240000000000000657e+00,3.798023572936477105e-02,1.720855234322455907e-01,5.055169407200202913e-01,9.434320239372797623e-01,-4.139524519742377069e-03,5.004814375526295614e-03,3.315023866873731406e-01,-1.179459340213552879e-02,1.223250199266115557e+00,-2.289444523323846958e+00,-2.385464626023790433e-03,1.224154270402658895e+00,-2.274031139444253835e+00,-1.365833585236484599e-03,1.230490778684146580e+00,-2.283908305016487894e+00,1.174008137366101476e-02,1.227821641278579623e+00,-2.297393164534463406e+00
1.260000000000000675e+00,3.783353588780243026e-02,1.794735475900137156e-01,4.979491630775269018e-01,8.896696284636841368e-01,-3.705687815479878546e-03,2.155037120098580224e-03,4.565846864297087859e-01,-1.751085782221800669e-02,1.220395961546868469e+00,-2.289476192367299490e+00,3.503067028096112576e-03,1.228350740502347493e+00,-2.295955702557293865e+00,-1.781127048136188148e-02,1.224797723912620429e+00,-2.278883581985189366e+00,1.387015664372604103e-02,1.243497496139768899e+00,-2.313416004632581124e+00
1.280000000000000693e+00,3.765772375175797937e-02,1.872628374733030232e-01,4.866384841707714903e-01,8.184575036842067775e-01,-3.044689346891138806e-03,-1.200809831938609530e-03,5.745577452141299446e-01,-1.466190223889360204e-02,1.212466395440770839e+00,-2.281455422301810643e+00,9.292588532125436659e-03,1.228278495327524533e+00,-2.300896315957902782e+00,-2.346287803072224371e-02,1.212582730376111861e+00,-2.270382631726556077e+00,9.900005665297542667e-03,1.248614683793631386e+00,-2.313418271558921102e+00
1.300000000000000711e+00,3.747061227210883583e-02,1.958479542484895253e-01,4.712844907348094914e-01,7.304881086857013539e-01,-2.281634588488274436e-03,-5.206274725133613196e-03,6.829017586123775629e-01,4.839184260695059137e-04,1.208584252200754827e+00,-2.282531526445644943e+00,1.531498292662665864e-03,1.224711433946079175e+00,-2.282566955064257996e+00,-9.638322123019816071e-03,1.206645041296613874e+00,-2.275232584918748024e+00,-9.291998137432656499e-03,1.233849572142530215e+00,-2.294080010506371892e+00
1.320000000000000728e+00,3.733217620805593523e-02,2.053249903118613273e-01,4.512110031401037058e-01,6.280103695835322908e-01,-1.498850533228278511e-03,-9.829331808084228184e-03,7.781414481820388973e-01,1.909351183794550516e-02,1.221920528249299531e+00,-2.303316784599529932e+00,-2.188923254401804394e-02,1.221816873284642169e+00,-2.261173261652605682e+00,1.365289585428700048e-02,1.220518636838862525e+00,-2.300436227415367796e+00,-3.667715425492998338e-02,1.208252711645656952e+00,-2.272357042262301619e+00
1.340000000000000746e+00,3.729262949297337815e-02,2.146350519396821310e-01,4.259439070250448656e-01,5.134921985058176208e-01,-3.172161123335575424e-04,-1.439845817795505113e-02,8.579733946048080373e-01,1.782471989781223010e-02,1.247523557619993673e+00,-2.313367781083869534e+00,-2.231184030322597850e-02,1.220270471771235599e+00,-2.280854276619568299e+00,1.285621008533531680e-02,1.246938495839868377e+00,-2.308469700082398823e+00,-2.134496682127281358e-02,1.209636858823964101e+00,-2.278619841308315408e+00
1.360000000000000764e+00,3.728990818466431517e-02,2.220762807209370471e-01,3.963689111826714795e-01,3.857232221527157612e-01,2.642351695215222444e-03,-1.759042970784574153e-02,9.224430555065926685e-01,-1.462977561910673921e-02,1.236231567715146973e+00,-2.222262668154787235e+00,7.703681499797902787e-02,1.209428468710091131e+00,-2.366756999193722510e+00,-3.321675330825682448e-02,1.233326275087698765e+00,-2.202606045755686637e+00,1.188621679490760585e-01,1.277388011386126010e+00,-2.319244607141353942e+00
1.380000000000000782e+00,3.707620961239031787e-02,2.289262534628678791e-01,3.632588369828971819e-01,2.506577118656574954e-01,8.845563712702701406e-03,-1.990644251429615763e-02,9.678306675401966430e-01,-4.094382550043547397e-02,1.108784823230827943e+00,-1.948045158868680460e+00,2.432085029368229456e-01,1.172217471047946491e+00,-2.431647666712552169e+00,-8.325263720492462327e-02,1.098754938918880431e+00,-1.906064392804920571e+00,3.095013355515534026e-01,1.343634531233291129e+00,-2.314316922626395101e+00
1.400000000000000799e+00,3.603689431840677304e-02,2.431711684047101751e-01,3.227971152949452582e-01,1.745179719865622425e-01,1.774327848638494048e-02,-2.530585147166277901e-02,9.841688205808728496e-01,-1.070944637872524585e-01,8.806430763175602250e-01,-1.634928154884886853e+00,-6.948271381701821847e-02,1.087624165270423937e+00,-2.117732946163987329e+00,-1.751900600819494835e-01,8.556940447047696185e-01,-1.592765904892984308e+00,-1.623082573223786351e-01,1.023134479395259033e+00,-2.000554263333347738e+00
1.420000000000000817e+00,3.743166754417399933e-02,2.638581712307952465e-01,2.943793466224880473e-01,2.452715362033890678e-01,1.111269753158310516e-02,-2.940345124037078289e-02,9.689446932292659076e-01,-2.941894754422091918e-01,9.912890115152529491e-01,-1.805809077172856769e+00,-2.835854607196046095e-01,1.188518808314004582e+00,-2.279873920705956181e+00,-3.770976965611599896e-01,9.798636875175641414e-01,-1.790435759299578988e+00,-3.994167343443788543e-01,1.122502339520539349e+00,-2.166110853631667332e+00
1.440000000000000835e+00,3.864147378844678959e-02,2.771179014032608134e-01,2.794533220538001905e-01,2.719067200549997176e-01,9.093685709042061832e-03,-2.854096941654440597e-02,9.618572937468016226e-01,-3.883656360443868971e-01,1.055210313728429439e+00,-1.909616162365244785e+00,-4.071293290059480596e-01,1.234748415135558330e+00,-2.343000010622144913e+00,-4.725884484807011954e-01,1.045041873273517830e+00,-1.896723457989331951e+00,-5.226037982631183132e-01,1.166718434927543457e+00,-2.229251987975007676e+00
1.460000000000000853e+00,4.003370800325648654e-02,2.842207536469328888e-01,2.750258922117390648e-01,2.461396442144742625e-01,7.864326270829514673e-03,-2.575675899461262949e-02,9.688601639474972993e-01,-3.689754245913981490e-01,1.094379512209963989e+00,-1.966350832554499162e+00,-3.924342638889540824e-01,1.245516037478914484e+00,-2.334078333923589987e+00,-4.483712202576738970e-01,1.086971970104240848e+00,-1.957732703175963263e+00,-4.963476853060275196e-01,1.183384932282974811e+00,-2.232405658464053921e+00
1.480000000000000870e+00,4.126876978654591549e-02,2.880456567028150672e-01,2.774263863467185121e-01,1.978467196019231822e-01,5.461844019026308727e-03,-2.284920143154944849e-02,9.799514058342945200e-01,-2.972563511780441647e-01,1.114705035302513414e+00,-1.985668776342492725e+00,-3.123614803971945797e-01,1.233335000289931038e+00,-2.283797254380051989e+00,-3.706814216399381134e-01,1.114506180985602946e+00,-1.988464257525727197e+00,-4.034777139049002814e-01,1.183077497165623493e+00,-2.202573340899653065e+00
1.500000000000000888e+00,4.223739604651991636e-02,2.904311683155804680e-01,2.836165188617886246e-01,1.516051830637133446e-01,2.053328174636560519e-03,-2.024914824636729963e-02,9.882315641118339933e-01,-2.240192190031498609e-01,1.119096048379719432e+00,-1.976900662275718812e+00,-2.318354721234754667e-01,1.208811090594277271e+00,-2.214412565499866314e+00,-2.908056661704931933e-01,1.128374680815166675e+00,-1.994666778512612870e+00,-3.106482905314387200e-01,1.172911620464109683e+00,-2.156852315756851546e+00
1.520000000000000906e+00,4.292232903949239758e-02,2.921601821144403921e-01,2.918945152393206954e-01,1.170879053165083533e-01,-1.655587524856676380e-03,-1.794242907312751725e-02,9.929580810374100119e-01,-1.699793449847796234e-01,1.110238350033398103e+00,-1.947696664152780643e+00,-1.741980007524377427e-01,1.178682111169305990e+00,-2.138905528276057844e+00,-2.294525074895951977e-01,1.128909241339219882e+00,-1.980415778300433916e+00,-2.416376639202437449e-01,1.157069439279631018e+00,-2.104698955469629151e+00
1.540000000000000924e+00,4.334171962598372396e-02,2.935202838842831952e-01,3.013139412987595467e-01,9.438113188039247425e-02,-5.164824533261186228e-03,-1.582672313001251205e-02,9.953969265411072298e-01,-1.364370398188247679e-01,1.091496013671537924e+00,-1.904659807389947224e+00,-1.392938372232824240e-01,1.146210964757960360e+00,-2.063099978880565288e+00,-1.883367976127894583e-01,1.118356256513048930e+00,-1.950751688177163379e+00,-1.965285573068357439e-01,1.137593247495416682e+00,-2.050272705960396458e+00
1.560000000000000941e+00,4.352614497779252328e-02,2.946261136449930818e-01,3.112801985459671128e-01,8.010024301319944307e-02,-8.205763974143263917e-03,-1.383778892324574392e-02,9.966569781547424123e-01,-1.174233405044047412e-01,1.066219711639907919e+00,-1.853320964526306680e+00,-1.198523432565468949e-01,1.112682700685910353e+00,-1.989005543484473781e+00,-1.619619945414129403e-01,1.099744974158987532e+00,-1.910738120045634592e+00,-1.680700259732541557e-01,1.115324894277307965e+00,-1.994958635720836204e+00
1.580000000000000959e+00,4.350917676550822982e-02,2.955350268747121145e-01,3.213904971742926331e-01,7.062915284807388949e-02,-1.067304938254511407e-02,-1.196533598482487325e-02,9.973737712210059003e-01,-1.062415386605909395e-01,1.037176834421537297e+00,-1.797931910622214247e+00,-1.085357002997647119e-01,1.078585855590926901e+00,-1.917111260985217669e+00,-1.439505171809242201e-01,1.075880236433613746e+00,-1.864595457399946810e+00,-1.488507372598017742e-01,1.090681073598082529e+00,-1.939124517179132035e+00
1.600000000000000977e+00,4.332245773555231522e-02,2.962845063886174191e-01,3.313610608720907735e-01,6.331724634685476083e-02,-1.255844496840822708e-02,-1.022962338208257757e-02,9.978619977634622940e-01,-9.796579035670767432e-02,1.006403486735304442e+00,-1.741532453313143769e+00,-1.001598488142696614e-01,1.044218353820286049e+00,-1.847551890613941872e+00,-1.295369703807568440e-01,1.048951181951601974e+00,-1.815470639198786706e+00,-1.336014512516015551e-01,1.064044287554000601e+00,-1.882995567822348004e+00
1.620000000000000995e+00,4.299467286202589278e-02,2.969038628563879789e-01,3.409889271098908714e-01,5.663735833792010732e-02,-1.390832921741519228e-02,-8.651971181534231711e-03,9.982604426769378092e-01,-8.982407903460676302e-02,9.752914465334756589e-01,-1.686159009738282144e+00,-9.187221914215795704e-02,1.009914645854381288e+00,-1.780524263786195327e+00,-1.159918698699111822e-01,1.020526576939775332e+00,-1.765555729682611874e+00,-1.193802890778656728e-01,1.035907233354035117e+00,-1.826961331426561364e+00
1.640000000000001013e+00,4.255161211081379125e-02,2.974163970437737614e-01,3.501281512061147905e-01,4.993178934731559021e-02,-1.479481999422164323e-02,-7.246691052721523744e-03,9.986167509023170519e-01,-8.070965724245163231e-02,9.447556905002795213e-01,-1.633100999154502242e+00,-8.256391668957427377e-02,9.760812882856728656e-01,-1.716376708533728701e+00,-1.021958988154830356e-01,9.916981220608118708e-01,-1.716327226617533119e+00,-1.049993097382654339e-01,1.006860198027172970e+00,-1.771601137206748167e+00
1.660000000000001030e+00,4.201541941891046711e-02,2.978412805640799355e-01,3.586762331059332176e-01,4.307706706988854300e-02,-1.529588964856711669e-02,-6.017970055344322965e-03,9.989365275576462810e-01,-7.053420537903273835e-02,9.153839549047223523e-01,-1.583143237423975780e+00,-7.217371294367597168e-02,9.431541481662294446e-01,-1.655556584716192159e+00,-8.802081154559256160e-02,9.632158495137785881e-01,-1.668767119847503588e+00,-9.032149750721094050e-02,9.775216009838540998e-01,-1.717597224633802711e+00
1.680000000000001048e+00,4.140515130356019202e-02,2.981955010224628388e-01,3.665644924932386362e-01,3.621078871671863653e-02,-1.548823054232050661e-02,-4.956726959132359313e-03,9.992118515875568763e-01,-5.970699972423827717e-02,8.875568964097063640e-01,-1.536752114118604462e+00,-6.114099798088753340e-02,9.115580733715638040e-01,-1.598522005768531873e+00,-7.381068869914557407e-02,9.356089476462949861e-01,-1.623544927084969114e+00,-7.569745687721245175e-02,9.484986363077356764e-01,-1.665654942952216944e+00
1.700000000000001066e+00,4.073702242813564967e-02,2.984927472600787390e-01,3.737511365665011631e-01,2.955741086173683738e-02,-1.544301159145099189e-02,-4.051532862456090102e-03,9.994355696780063969e-01,-4.878305284642338313e-02,8.615265534984224427e-01,-1.494188712521053564e+00,-5.004132257117178961e-02,8.816725281556035965e-01,-1.545693660128097280e+00,-6.005855908539697169e-02,9.092708193033669506e-01,-1.581136091353335216e+00,-6.162281357267788279e-02,9.203399329623954683e-01,-1.616436227381033541e+00
1.720000000000001084e+00,4.002438458513298686e-02,2.987429290334910337e-01,3.802166445915579063e-01,2.333020286725832892e-02,-1.522529844206422026e-02,-3.292390657757814868e-03,9.996064486012880002e-01,-3.827002212545584092e-02,8.374595143385776819e-01,-1.455575620623092092e+00,-3.939108611977412688e-02,8.538097643476895149e-01,-1.497410723881874794e+00,-4.721890434437114176e-02,8.845064139425937721e-01,-1.541890772151169209e+00,-4.854590395808218439e-02,8.935147646920771347e-01,-1.570517586300617774e+00
1.740000000000001101e+00,3.927805305431159022e-02,2.989550643467588364e-01,3.859592807025228334e-01,1.768678028732529120e-02,-1.489367328882306406e-02,-2.664620705531624799e-03,9.997290913520169298e-01,-2.855919539107721131e-02,8.154635390492759317e-01,-1.420954030462622475e+00,-2.958149880056571909e-02,8.282067030038769984e-01,-1.453897314624399861e+00,-3.562099968882989631e-02,8.615519858992155555e-01,-1.506074200678076069e+00,-3.678319219102119814e-02,8.684132620862491381e-01,-1.528369344759303416e+00
1.760000000000001119e+00,3.850653447488227438e-02,2.991361611789076225e-01,3.909916235087588232e-01,1.272368436096906266e-02,-1.450139880311958340e-02,-2.151825912099897351e-03,9.998115757152841176e-01,-1.990933712576178211e-02,7.955979173504873492e-01,-1.390293953160734342e+00,-2.086593693893693327e-02,8.050253586351757695e-01,-1.415259631528759776e+00,-2.546005278282826439e-02,8.405899566492636144e-01,-1.473881257833338232e+00,-2.651428051125208352e-02,8.453478693519931308e-01,-1.490352893336852613e+00
1.780000000000001137e+00,3.771651931717441564e-02,2.992916138172262430e-01,3.953393585113865183e-01,8.481300591015063922e-03,-1.409775928956765421e-02,-1.745321418611928306e-03,9.998631279212389922e-01,-1.244914016938243086e-02,7.778776252021999404e-01,-1.363480836442503064e+00,-1.336543196322297761e-02,7.843457905097861449e-01,-1.381478465606961414e+00,-1.682244163536965320e-02,8.217641316094852488e-01,-1.445440209768539486e+00,-1.781024107359367725e-02,8.245414821227641244e-01,-1.456702514941879745e+00
1.800000000000001155e+00,3.691233679923830446e-02,2.994254984756795634e-01,3.990363842679450213e-01,4.958113966429254435e-03,-1.372405538546395305e-02,-1.431175055518081910e-03,9.998925037960996187e-01,-6.220302021629190228e-03,7.622755180428599786e-01,-1.340360059309796403e+00,-7.114200793748343306e-03,7.661825332134940547e-01,-1.352435355267639139e+00,-9.697360086964614684e-03,8.051561039187175028e-01,-1.420807934839749098e+00,-1.064709817581948464e-02,8.061430330769919772e-01,-1.427546081320852034e+00
1.820000000000001172e+00,3.609679896630569457e-02,2.995416198947069009e-01,4.021241925020794250e-01,2.119197579786146358e-03,-1.341817169514920340e-02,-1.200261524260293373e-03,9.999070061972016310e-01,-1.188004816494265745e-03,7.487294454653868891e-01,-1.320713887415797538e+00,-2.071004048142859044e-03,7.504834739577770364e-01,-1.327905319099517811e+00,-4.012069366462557400e-03,7.908131142553712634e-01,-1.399982380548274730e+00,-4.941786011574499267e-03,7.902284359415250314e-01,-1.402899880639687069e+00
1.840000000000001190e+00,3.527085118209122988e-02,2.996425655564900481e-01,4.046479176407504208e-01,-8.935320926573841484e-05,-1.321180325289950976e-02,-1.039897415250827344e-03,9.999121755855243654e-01,2.724195422045924686e-03,7.371454204581773251e-01,-1.304294570010885002e+00,1.845459801066173279e-03,7.371495555800758881e-01,-1.307593336516418514e+00,3.531009616615466903e-04,7.787327266747017251e-01,-1.382900158333823848e+00,-5.671717196103426631e-04,7.768168320785604486e-01,-1.382695940520296984e+00
1.860000000000001208e+00,3.443431409457764492e-02,2.997301793143344883e-01,4.066549510017266056e-01,-1.731444354024155863e-03,-1.313306994730619771e-02,-9.373874424707529917e-04,9.999118190515555726e-01,5.617928403116993243e-03,7.274054775855879340e-01,-1.290820828592724068e+00,4.740211131559987981e-03,7.260444791597346903e-01,-1.291145557343664541e+00,3.539779482110478118e-03,7.688798069564568571e-01,-1.369448367670034639e+00,2.623368733177933350e-03,7.658821561594016947e-01,-1.366795164986839062e+00
1.880000000000001226e+00,3.358584708425351589e-02,2.998062941934409587e-01,4.081925975141011964e-01,-2.877858324224460713e-03,-1.320534391778493966e-02,-8.814892910218734322e-04,9.999082756933800331e-01,7.612434404625386536e-03,7.193780412903687527e-01,-1.280001157807379331e+00,6.734635277335981537e-03,7.170047788488331797e-01,-1.278176405670697457e+00,5.700955027768453073e-03,7.611924725883154608e-01,-1.359478681695164060e+00,4.785896358627605464e-03,7.573556908843245283e-01,-1.354999042296241463e+00
1.900000000000001243e+00,3.272337345729950386e-02,2.998722153186790806e-01,4.093053836189520789e-01,-3.603466992776108331e-03,-1.344805560386399222e-02,-8.609303496585563259e-04,9.999027070795639682e-01,8.838479347674229464e-03,7.129300336126462856e-01,-1.271555264429236942e+00,7.960662069639298094e-03,7.098572162535621288e-01,-1.268295127557047763e+00,6.998902386718694815e-03,7.555935094656799356e-01,-1.352826815508435976e+00,6.084335298797582774e-03,7.511450290923874507e-01,-1.347077824850535288e+00
1.920000000000001261e+00,3.184436492506343558e-02,2.999288429834327530e-01,4.100340866621981495e-01,-3.979457152839860172e-03,-1.387771457230983600e-02,-8.656357927149347254e-04,9.998954063469301934e-01,9.423222292858291632e-03,7.079316585853183685e-01,-1.265216984570747050e+00,8.545939044669537826e-03,7.044296224899149195e-01,-1.261124245219467976e+00,7.587557564337333790e-03,7.519984958087140292e-01,-1.349321330100430982e+00,6.673324053820851864e-03,7.471453644753538459e-01,-1.342789110439497113e+00
1.940000000000001279e+00,3.094598181271453544e-02,2.999771591392299541e-01,4.104137511796456250e-01,-4.076650251742189833e-03,-1.450727910478346282e-02,-8.849093034941353346e-04,9.998860618646634446e-01,9.493143498132669555e-03,7.042677031821390488e-01,-1.260761691877029023e+00,8.616980727562242870e-03,7.005612253572290893e-01,-1.256319233299345584e+00,7.620240274484125012e-03,7.503222609492936623e-01,-1.348801746622731557e+00,6.706278895210969135e-03,7.452485146255319881e-01,-1.341894410993002884e+00
1.960000000000001297e+00,3.002525970315141762e-02,3.000178691588168411e-01,4.104729571755831863e-01,-3.958810318372334679e-03,-1.534651532697385926e-02,-9.110837690310824447e-04,9.998739831671529243e-01,9.165106657085081779e-03,7.018410735539982737e-01,-1.258005903526826508e+00,8.290452858856109733e-03,6.981108319851250243e-01,-1.253588668749885171e+00,7.232659069516807031e-03,7.504865553497034325e-01,-1.351125745359108565e+00,6.318712626661724882e-03,7.453482211688056136e-01,-1.344173657242895725e+00
1.980000000000001315e+00,2.907933951679896045e-02,3.000517239199964048e-01,4.102334045854957867e-01,-3.686197766811121542e-03,-1.640066842952124862e-02,-9.388897352762236304e-04,9.998582642090597661e-01,8.551609624085854122e-03,7.005772516572591480e-01,-1.256821663781392928e+00,7.678543781951086694e-03,6.969592868415540599e-01,-1.252702672925732452e+00,6.550130729615190675e-03,7.524192801645238626e-01,-1.356173655161849734e+00,5.635627032208632287e-03,7.473390135095940856e-01,-1.349426585749866625e+00
2.000000000000001332e+00,2.810502186461855123e-02,3.000792294577758756e-01,4.097096314762167513e-01,-3.308406163126752404e-03,-1.766793477824762926e-02,-9.615546504557082735e-04,9.998379738447552567e-01,7.743273001319985957e-03,7.004194550073858938e-01,-1.257146407709290203e+00,6.871569058259620333e-03,6.970143163531330455e-01,-1.253509311282965388e+00,5.679136271371528974e-03,7.560380723205348819e-01,-1.363836819741298223e+00,4.763184527584061675e-03,7.511164772739148399e-01,-1.357480214254051409e+00
2.020000000000001350e+00,2.709871484680382789e-02,3.001008502587406701e-01,4.089096341980938965e-01,-2.868415757390130674e-03,-1.913724661296510934e-02,-9.733287387701669785e-04,9.998122776873084039e-01,6.818715508891891666e-03,7.013279368262309577e-01,-1.258987050971972055e+00,5.947877598009653800e-03,6.982049317965126622e-01,-1.255937169675593656e+00,4.711800447072141823e-03,7.612451928013761471e-01,-1.374013535091281213e+00,3.793252114072441158e-03,7.565631780172042964e-01,-1.368175690278505385e+00
2.040000000000001368e+00,2.605590673844316099e-02,3.001173017687609468e-01,4.078356065589137658e-01,-2.398940397726552227e-03,-2.078482364430076987e-02,-9.714360506855680482e-04,9.997806221882092892e-01,5.838374694111226303e-03,7.032734488889829105e-01,-1.262420872311878162e+00,4.967707409415901380e-03,7.004758935822634758e-01,-1.260004527166101784e+00,3.715221768963759743e-03,7.679128878907008904e-01,-1.386595207573203758e+00,2.792782160065250281e-03,7.635313736467700396e-01,-1.381355960747798095e+00
2.060000000000001386e+00,2.497116409941166695e-02,3.001290749773892208e-01,4.064855120963606905e-01,-1.927930001496813532e-03,-2.257018922005056202e-02,-9.553851729927638871e-04,9.997429454032930041e-01,4.856082524111052581e-03,7.062296666109580956e-01,-1.267597609853131413e+00,3.984738771345839453e-03,7.037776185889693670e-01,-1.265814244041539416e+00,2.745010065474270955e-03,7.758643254056998284e-01,-1.401447707312487578e+00,1.817329842154068176e-03,7.718232900894097526e-01,-1.396843431972599525e+00
2.080000000000001403e+00,2.383711940432079943e-02,3.001364568086637985e-01,4.048544064434107526e-01,-1.475372754004315766e-03,-2.443225949812612846e-02,-9.243031997818364903e-04,9.996999718088661613e-01,3.909918156361791644e-03,7.101597386378739607e-01,-1.274738500234430472e+00,3.036941908647330587e-03,7.080570828831311836e-01,-1.273552919739528777e+00,1.842236112703043863e-03,7.848482635295664922e-01,-1.418389833840882019e+00,9.079884527451410545e-04,7.811749170033495115e-01,-1.414427204026662999e+00
2.100000000000001421e+00,2.264416117864659003e-02,3.001400712928761760e-01,4.029364384266497234e-01,-1.053894827127293404e-03,-2.628549933828350574e-02,-8.791571376977690795e-04,9.996535344372857734e-01,3.024093979771572301e-03,7.150050795178055640e-01,-1.284127587296538753e+00,2.148447711545444470e-03,7.132432889336781656e-01,-1.283482921694726553e+00,1.030072688951480650e-03,7.945223307256967793e-01,-1.437175899135481050e+00,8.803511717309629205e-05,7.912318055041094311e-01,-1.433838988270074832e+00
2.120000000000001439e+00,2.138021683321135805e-02,3.001403643068658034e-01,4.007269497875984299e-01,-6.691223522644225690e-04,-2.801810963466581234e-02,-8.208909916095903474e-04,9.996068546912618702e-01,2.209263885705164531e-03,7.206711748884009339e-01,-1.296095758758981864e+00,1.329831248061837199e-03,7.192352966008311865e-01,-1.295924835127755026e+00,3.184250965004385009e-04,8.044376197866329736e-01,-1.457479189969379529e+00,-6.324642259174972827e-04,8.015391407959349124e-01,-1.454740997910817013e+00
2.140000000000001457e+00,2.003090882948136559e-02,3.001377934012487425e-01,3.982247264542901344e-01,-3.252711627573994868e-04,-2.949313529801639647e-02,-7.498000292685901664e-04,9.995646487190709140e-01,1.472303291306897334e-03,7.270173490036631048e-01,-1.310998003387831012e+00,5.878720495588302640e-04,7.258878798403829435e-01,-1.311224459030090328e+00,-2.845743939224726609e-04,8.140388710454848908e-01,-1.478889034649570000e+00,-1.245167871029933008e-03,8.115393261225523069e-01,-1.476715750979053166e+00
2.160000000000001474e+00,1.858014405089219653e-02,3.001325270592370420e-01,3.954343937988832325e-01,-3.002211454305236189e-05,-3.055282647379444286e-02,-6.697524277133299437e-04,9.995329285845566680e-01,8.312397173991287105e-04,7.338489295529272427e-01,-1.329173782723333197e+00,-5.950597847502849327e-05,7.329977664119974312e-01,-1.329714917545251174e+00,-7.673974659911321407e-04,8.226830105782577673e-01,-1.500917493068077757e+00,-1.738267912890924683e-03,8.205768482636255357e-01,-1.499261231507247327e+00
2.180000000000001492e+00,1.701143919613013963e-02,3.001247900281436287e-01,3.923690359776885739e-01,2.069258850705766716e-04,-3.102790772614900938e-02,-5.827910225250472953e-04,9.995183272348935333e-01,3.056965859800932737e-04,7.409076828138014825e-01,-1.350897821325471204e+00,-5.927926925648674059e-04,7.402987374448999347e-01,-1.351659203753472038e+00,-1.112259528915346624e-03,8.296627509239273834e-01,-1.523005535863011239e+00,-2.093654743876008882e-03,8.279360630435046442e-01,-1.521805964054586457e+00
2.200000000000001510e+00,1.531021497417898482e-02,3.001144736326868956e-01,3.890529752635710770e-01,3.675400696079493632e-04,-3.074933703467806062e-02,-4.928875471487267294e-04,9.995269382303264560e-01,-6.538881518220764338e-05,7.478722746434757207e-01,-1.376321787344956693e+00,-9.731544152079304837e-04,7.474560150711602180e-01,-1.377191804254520369e+00,-1.286217652315018280e-03,8.342550270902908682e-01,-1.544541287345605252e+00,-2.278004971953016041e-03,8.328765216307004726e-01,-1.543715060790029403e+00
2.220000000000001528e+00,1.346708226567994507e-02,3.001014412770842132e-01,3.855246262315850103e-01,4.302840930890658227e-04,-2.956733895605607662e-02,-4.037649748313326594e-04,9.995626164960862425e-01,-2.362044435062490367e-04,7.543616165263049567e-01,-1.405396826700512580e+00,-1.154861193118840012e-03,7.540746149055301828e-01,-1.406244433582229281e+00,-1.249505505994048023e-03,8.357853942953169524e-01,-1.564879735959883167e+00,-2.251154692427078784e-03,8.347049857392245809e-01,-1.564317553849716269e+00
2.240000000000001545e+00,1.148247564020367026e-02,3.000853791360849065e-01,3.818400297939266164e-01,3.718520116622525337e-04,-2.737461532807530795e-02,-3.186868766189363401e-04,9.996251250345781214e-01,-1.567805370309499017e-04,7.599456718065092931e-01,-1.437779345079951865e+00,-1.087985046078522155e-03,7.597122335516771630e-01,-1.438455607085673327e+00,-9.587333241079421149e-04,8.337061463765685909e-01,-1.583357020330508069e+00,-1.969341998037187937e-03,8.328548540173932313e-01,-1.582922704645230771e+00
2.260000000000001563e+00,9.373253004443015193e-03,3.000662689593880939e-01,3.780774706280367048e-01,1.787309217195002489e-04,-2.413697535406260711e-02,-2.405503463876230855e-04,9.997086158534125300e-01,2.034789380039568889e-04,7.641581383916277170e-01,-1.472687473556888449e+00,-7.418872265864779811e-04,7.638982980338425710e-01,-1.473041298178960679e+00,-3.924474159034085333e-04,8.276844955414088822e-01,-1.599280156798623009e+00,-1.410811760111979965e-03,8.269788715625167042e-01,-1.598819934299481993e+00
2.280000000000001581e+00,7.181231434500378978e-03,3.000446644090524195e-01,3.743441229952371718e-01,-1.363754733920392133e-04,-1.993018976144054696e-02,-1.706066380382148854e-04,9.998013501847146101e-01,8.211991444923814887e-04,7.664907110026111248e-01,-1.508662296070931719e+00,-1.396776390306124949e-04,7.661377493521277504e-01,-1.508572297422818176e+00,4.164853436339004361e-04,8.176655803711373460e-01,-1.611833957775931747e+00,-6.081687680927753319e-04,8.170236364605800716e-01,-1.611204706768069927e+00
2.300000000000001599e+00,4.984452959030609594e-03,3.000222602833723107e-01,3.707875861432824993e-01,-5.045366573053905457e-04,-1.498528266072679353e-02,-1.093271985625445317e-04,9.998875810779446205e-01,1.557801302001649100e-03,7.663096277995447014e-01,-1.543072823597553711e+00,5.809587244229516556e-04,7.658404350537461047e-01,-1.542510406561524272e+00,1.318346260867762475e-03,8.038487186237188720e-01,-1.619759212159977979e+00,2.893653888092659028e-04,8.032190269768325619e-01,-1.618888050226218622e+00
2.320000000000001616e+00,2.917100764103186267e-03,3.000037560791585789e-01,3.676184735598205244e-01,-7.485991192956269451e-04,-9.768580052411881057e-03,-5.678550331491145605e-05,9.999520044574763400e-01,2.047045456197802999e-03,7.625568240345766968e-01,-1.570910221777985782e+00,1.056316143746299655e-03,7.620425967915767096e-01,-1.570048786844861155e+00,1.937686605292946070e-03,7.864901485157459460e-01,-1.620470394963289706e+00,9.078309989990125152e-04,7.859064434768604501e-01,-1.619469555406100270e+00
2.340000000000001634e+00,1.172637262572484183e-03,2.999968691575544688e-01,3.651634646947978791e-01,-5.509861425355161045e-04,-4.939142142984820696e-03,-1.736521868934693254e-05,9.999876504175495562e-01,1.631092637502572868e-03,7.525216307846592789e-01,-1.582186944334022849e+00,6.343638464483836994e-04,7.521864015400693271e-01,-1.581547147953134891e+00,1.606379976165474201e-03,7.644299039784649974e-01,-1.607135160898870208e+00,5.832083792777203318e-04,7.640758351021532668e-01,-1.606455789097908760e+00
2.360000000000001652e+00,-1.907219776112468979e-04,3.000000000018326896e-01,3.645369763393478402e-01,-2.160319115018737925e-13,-1.985515722594366863e-04,2.073305511686201106e-13,9.999999802886364586e-01,7.190851679046737300e-04,6.998913072354634446e-01,-1.501179812373051536e+00,-7.190851664193505808e-04,6.998913072356596210e-01,-1.501179812373266476e+00,7.288015478265451449e-04,6.998899142285289754e-01,-1.501195691164296964e+00,-7.288015485483741000e-04,6.998899142233772075e-01,-1.501195691167164448e+00
2.380000000000001670e+00,0.000000000000000000e+00,2.999999999999999889e-01,3.333099999999999952e-01,0.000000000000000000e+00,0.000000000000000000e+00,0.000000000000000000e+00,1.000000000000000000e+00,0.000000000000000000e+00,6.999999999999999556e-01,-1.500000000000000000e+00,0.000000000000000000e+00,6.999999999999999556e-01,-1.500000000000000000e+00,0.000000000000000000e+00,6.999999999999999556e-01,-1.500000000000000000e+00,0.000000000000000000e+00,6.999999999999999556e-01,-1.500000000000000000e+00
